P3
300 225
255
35 36 40 35 36 40 35 36 40 35 36 40 35 36 40 35 36 40 35 36 40 35 36 40 
35 36 40 35 36 41 35 35 43 35 36 45 35 36 41 35 36 40 35 36 40 35 36 40 
35 36 40 35 36 40 35 36 40 35 36 40 34 35 39 33 35 39 33 35 39 33 35 39 
35 36 40 36 37 41 35 36 40 35 36 40 35 36 40 35 36 40 35 36 40 34 35 39 
35 36 40 36 37 41 36 37 41 36 37 41 35 36 40 35 36 40 36 37 41 36 37 41 
35 36 40 34 36 40 34 35 39 34 36 40 35 36 40 35 36 40 35 36 40 35 36 40 
35 36 40 33 35 39 33 35 39 33 35 39 34 36 40 35 36 40 35 36 40 35 36 40 
35 36 40 35 36 40 35 36 40 33 35 39 33 35 39 33 35 39 33 35 39 34 35 39 
35 36 40 35 36 40 35 36 40 35 36 40 35 36 40 35 36 40 35 36 40 35 36 40 
35 36 40 35 36 40 35 36 40 35 36 40 34 35 39 33 35 40 35 34 40 35 34 40 
35 34 39 35 34 39 35 34 39 34 35 39 33 35 39 33 35 39 33 35 39 33 35 39 
33 35 39 33 35 39 33 35 39 33 35 39 33 35 39 33 35 39 33 35 39 33 35 39 
34 35 39 35 36 40 35 36 40 34 35 39 34 35 39 35 36 40 35 36 40 35 36 40 
35 36 40 35 36 40 35 36 40 35 36 40 35 36 40 34 36 40 33 35 39 34 35 39 
34 36 40 33 35 39 33 35 39 33 35 39 33 35 39 33 35 39 33 35 39 33 35 39 
33 35 39 33 35 39 33 35 39 33 35 39 33 35 39 33 35 39 33 35 39 33 35 39 
33 35 39 33 35 39 33 35 39 33 35 39 33 35 39 33 35 39 33 35 39 33 35 39 
33 35 39 33 35 39 33 35 39 34 35 39 35 36 40 34 36 40 34 36 40 34 35 39 
35 36 40 35 36 40 35 36 40 35 36 40 35 36 40 35 36 40 35 36 40 35 36 40 
35 36 40 35 36 40 35 36 40 35 36 40 35 36 40 35 36 40 36 35 41 35 34 40 
35 34 39 35 36 40 35 36 40 35 36 40 35 36 40 35 36 40 35 36 40 35 36 40 
35 36 40 35 36 40 35 36 40 35 36 40 35 36 40 36 37 41 35 36 40 36 37 41 
36 37 41 35 36 40 35 36 40 35 36 40 35 36 40 35 36 40 35 36 40 35 36 40 
34 36 40 34 35 39 34 35 39 34 35 39 34 35 39 33 35 39 33 35 39 34 36 40 
35 36 40 35 36 40 35 36 40 35 36 40 35 36 40 35 36 40 35 36 40 35 36 40 
35 36 40 35 36 40 35 36 40 33 35 39 34 34 39 35 34 39 35 34 39 33 35 39 
33 35 39 33 35 39 35 36 40 35 36 40 35 36 40 35 34 39 35 34 39 35 34 39 
34 35 39 33 35 39 34 36 40 35 36 40 34 35 39 33 35 39 33 35 39 35 36 40 
35 35 43 36 35 45 36 35 45 34 36 41 34 35 40 35 36 40 34 36 40 33 35 39 
33 35 40 35 35 43 34 36 45 33 33 43 33 35 40 34 35 39 35 36 40 33 35 39 
33 35 39 33 35 39 33 35 39 33 35 39 33 35 39 33 35 39 33 35 39 33 35 39 
33 35 39 33 35 39 33 35 39 33 35 39 33 35 39 33 35 39 33 35 39 33 35 39 
33 35 39 33 35 39 33 35 39 34 36 40 35 36 40 35 36 40 35 36 40 33 35 39 
33 35 39 33 35 39 34 36 40 34 36 40 33 35 39 33 35 39 33 35 39 33 35 39 
33 35 39 33 35 39 33 35 39 34 36 40 35 36 40 35 36 40 35 36 40 36 37 41 
35 36 40 35 36 40 36 37 41 36 37 41 36 37 41 36 37 41 36 37 41 36 37 41 
36 37 41 36 37 41 36 37 41 36 37 41 35 37 41 35 35 40 36 35 42 35 34 40 
34 35 40 34 36 40 34 35 39 35 36 40 
35 36 40 35 36 40 35 36 40 35 36 40 35 36 40 35 36 40 35 36 40 35 36 40 
35 36 40 35 36 41 35 36 45 35 36 45 35 36 41 35 36 40 35 36 40 35 36 40 
35 36 40 35 36 40 35 36 40 36 37 41 35 36 40 34 35 39 33 35 39 34 35 39 
35 36 40 36 37 41 35 36 40 35 36 40 35 36 40 35 36 40 35 37 41 37 38 42 
35 37 41 36 37 41 35 37 41 34 36 40 34 35 39 35 36 40 36 37 41 36 37 41 
35 36 40 35 36 40 36 37 41 35 36 40 35 36 40 35 36 40 35 36 40 35 36 40 
35 36 40 34 35 39 34 35 39 34 35 39 33 35 40 35 36 40 35 36 40 35 36 40 
35 36 40 35 36 40 35 36 40 34 35 39 33 35 39 33 35 39 33 35 39 34 35 39 
34 36 40 35 36 40 34 36 40 34 36 40 35 36 40 35 36 40 35 36 40 35 36 40 
35 36 40 35 36 40 35 36 40 35 36 40 34 35 39 34 35 39 35 34 40 35 34 40 
35 34 40 35 34 39 35 34 39 34 35 39 33 35 39 33 35 39 33 35 39 33 35 39 
34 35 39 34 35 39 34 35 39 34 35 39 33 35 39 33 35 39 33 35 39 33 35 39 
34 35 39 35 36 40 35 36 40 34 35 39 35 34 39 35 36 40 35 36 40 35 36 40 
35 36 40 34 36 40 35 36 40 35 36 40 35 36 40 35 36 40 34 35 39 34 35 39 
33 35 39 33 35 39 33 35 39 34 35 39 33 35 39 33 35 39 33 35 39 33 35 39 
33 35 39 34 35 39 34 35 39 34 35 39 34 35 39 33 35 39 33 35 39 33 35 39 
33 35 39 33 35 39 33 35 39 34 35 39 33 35 39 33 35 39 34 35 39 33 35 39 
33 35 39 33 35 39 33 35 39 34 35 39 35 36 40 34 36 40 34 36 40 35 36 40 
34 35 39 34 36 40 35 36 40 35 36 40 35 36 40 35 36 40 35 36 40 35 36 40 
35 36 40 35 36 40 35 36 40 35 36 40 35 36 40 35 36 40 35 35 40 35 34 40 
35 34 40 35 35 40 35 36 40 35 36 40 35 36 40 35 36 40 35 36 40 35 36 40 
35 36 40 35 36 40 35 36 40 35 36 40 35 36 40 36 37 41 36 37 41 36 37 41 
36 37 41 35 36 40 35 36 40 35 36 40 36 37 41 36 37 41 35 36 40 34 35 39 
35 36 40 36 37 41 36 37 41 36 37 41 35 36 40 34 35 39 34 35 39 34 36 40 
35 36 40 35 36 40 35 36 40 35 36 40 35 36 40 35 36 40 35 36 40 35 36 40 
35 36 40 35 36 40 35 36 40 34 36 40 35 34 40 35 34 40 35 34 40 34 35 39 
32 35 38 33 35 39 35 36 40 35 36 40 35 36 40 35 34 39 35 34 39 35 34 40 
34 35 39 33 35 39 34 36 40 35 36 40 34 35 39 33 35 39 33 35 39 34 37 38 
35 35 43 36 35 45 34 36 45 34 33 43 34 35 40 35 36 40 35 36 40 34 35 39 
33 35 40 35 35 43 34 36 45 34 36 45 34 35 40 34 35 39 34 35 39 33 35 39 
33 35 39 34 35 39 33 35 39 33 35 39 33 35 39 33 35 39 33 35 39 34 35 39 
34 35 39 33 35 39 33 35 39 33 35 39 33 35 39 33 35 39 33 35 39 33 35 39 
33 35 39 34 35 39 34 35 39 34 36 40 35 36 40 35 36 40 35 36 40 34 36 40 
34 35 39 34 35 39 34 36 40 34 36 40 34 35 39 33 35 39 33 35 39 33 35 39 
33 35 39 33 35 39 34 35 39 35 36 40 35 36 40 35 37 41 36 37 41 36 37 41 
35 36 40 35 36 40 36 37 41 36 37 41 36 37 41 36 37 41 36 37 41 36 37 41 
36 37 41 36 37 41 36 37 41 36 37 41 36 37 41 36 35 41 36 35 42 37 36 43 
36 37 42 35 36 40 36 37 41 37 38 42 
35 36 40 35 36 40 35 36 40 35 36 40 35 36 40 35 36 40 35 36 40 35 37 41 
36 37 41 35 36 41 37 36 43 36 37 42 35 36 41 35 36 40 35 36 40 35 36 40 
35 36 40 36 37 41 36 37 41 36 37 41 35 36 40 35 36 40 34 35 39 34 36 40 
35 36 40 35 36 40 35 36 40 35 36 40 35 36 40 35 36 40 34 36 40 36 37 41 
36 37 41 35 36 40 36 37 41 35 36 40 35 36 40 36 37 41 36 37 41 36 37 41 
35 36 40 35 36 40 35 36 40 35 36 40 35 36 40 35 36 40 35 36 40 35 36 40 
35 36 40 35 36 40 35 36 40 34 36 40 33 35 39 34 36 40 35 36 40 35 36 40 
35 36 40 35 36 40 35 36 40 35 36 40 34 35 39 33 35 39 33 35 39 33 35 39 
34 35 39 35 36 40 34 36 40 34 36 40 35 36 40 35 36 40 35 36 40 35 36 40 
35 36 40 35 36 40 35 36 40 35 36 40 35 36 40 35 36 40 35 34 39 35 35 40 
34 34 39 35 34 40 35 34 39 34 34 39 33 35 39 33 35 39 33 35 39 34 35 39 
35 36 40 35 36 40 35 36 40 35 36 40 34 35 39 33 35 39 33 35 39 33 35 39 
34 35 39 35 36 40 35 36 40 35 36 40 35 36 40 35 36 40 35 36 40 35 36 40 
35 36 40 33 35 39 34 35 39 35 36 40 35 36 40 35 36 40 35 36 40 34 35 39 
33 35 39 33 35 39 33 35 39 34 36 40 34 35 39 34 35 39 33 35 39 33 35 39 
33 35 39 35 36 40 35 36 40 35 36 40 34 36 40 34 36 40 33 35 39 34 35 39 
34 35 39 33 35 39 34 35 39 34 35 39 33 35 39 33 35 39 35 36 40 34 35 39 
33 35 39 33 35 39 33 35 39 34 35 39 35 36 40 33 35 40 34 36 40 35 36 40 
34 36 40 33 35 39 34 35 39 35 36 40 35 36 40 35 36 40 35 36 40 35 36 40 
35 36 40 35 36 40 35 36 40 35 36 40 35 36 40 35 36 40 35 35 40 35 34 40 
35 35 40 34 35 39 34 35 39 35 36 40 35 36 40 35 36 40 35 36 40 35 36 40 
35 36 40 35 36 40 35 36 40 35 36 40 36 37 41 36 37 41 36 37 41 36 37 41 
36 37 41 36 37 41 36 37 41 36 37 41 36 37 41 36 37 41 36 37 41 35 36 40 
35 36 40 35 36 40 35 36 40 35 36 40 35 36 40 35 36 40 35 36 40 35 36 40 
35 36 40 35 36 40 35 36 40 35 36 40 35 36 40 35 36 40 35 36 40 35 36 40 
35 36 40 35 36 40 35 36 40 35 36 40 35 35 40 35 34 40 36 35 39 35 35 40 
32 34 39 33 35 39 34 36 40 35 36 40 35 36 40 35 34 39 35 34 40 35 35 40 
34 35 40 33 35 39 34 36 40 35 36 40 34 35 39 33 35 39 33 35 39 33 35 39 
34 35 40 35 35 43 33 33 43 33 34 40 34 35 40 35 36 40 35 36 40 34 35 39 
33 35 39 34 36 41 35 35 43 35 35 43 35 36 41 35 36 40 33 35 39 33 35 39 
34 36 40 35 36 40 33 35 39 33 35 39 33 35 39 33 35 39 33 35 39 34 35 40 
35 36 40 34 35 39 33 35 39 33 35 39 34 36 40 34 36 40 33 35 39 33 35 39 
34 36 40 35 36 40 35 36 40 35 36 40 35 36 40 35 36 40 35 36 40 34 36 40 
35 36 40 35 36 40 34 35 39 34 35 39 35 36 40 33 35 39 33 35 39 33 35 39 
33 35 39 33 35 39 35 36 40 35 36 40 35 37 41 35 36 40 35 37 41 36 37 41 
35 37 41 35 36 40 36 37 41 36 37 41 36 37 41 36 37 41 36 37 41 36 37 41 
36 37 41 36 37 41 36 37 41 36 37 41 36 37 41 36 37 41 37 37 42 37 36 43 
36 35 41 35 36 40 36 37 41 37 38 42 
35 36 40 35 36 40 35 36 40 35 36 40 35 36 40 34 36 40 33 35 39 35 37 41 
36 37 41 35 36 40 36 37 41 36 37 41 34 36 40 35 36 40 36 37 41 36 37 41 
35 36 40 36 37 41 36 37 41 36 37 41 35 37 41 34 36 40 35 36 40 35 36 40 
35 36 40 35 36 41 36 35 42 35 34 40 35 34 39 35 34 39 35 34 39 35 34 39 
35 36 40 35 37 41 36 37 41 36 37 41 35 36 40 36 37 41 36 37 41 36 37 41 
35 36 40 34 36 40 33 35 39 36 35 42 36 35 41 35 34 39 36 35 42 36 35 39 
35 34 39 34 35 39 34 35 39 35 36 40 35 36 40 35 36 40 35 36 40 35 36 40 
35 36 40 35 36 40 35 36 40 35 36 40 35 36 40 35 36 40 35 36 40 34 36 40 
34 35 39 35 36 40 35 36 40 34 36 40 33 35 39 33 35 39 34 36 40 35 36 40 
35 36 40 35 36 40 35 36 40 35 36 40 35 36 40 35 36 40 34 35 39 33 35 39 
34 35 39 35 34 39 35 34 39 35 34 40 35 34 40 35 34 40 33 35 39 34 35 39 
35 36 40 36 35 42 36 35 42 36 35 42 35 34 40 35 34 39 35 34 39 34 35 39 
33 35 39 33 35 39 33 35 39 33 35 39 33 35 39 33 35 39 34 36 40 35 36 40 
35 36 40 33 35 39 33 35 39 33 35 39 35 36 40 35 36 40 35 36 40 35 36 40 
35 36 40 35 36 40 35 36 40 35 36 40 35 36 40 35 36 40 35 36 40 35 36 40 
35 36 40 35 36 40 35 36 40 34 36 40 33 35 39 33 35 39 33 35 39 33 35 39 
34 35 39 34 34 39 35 34 40 35 34 40 34 35 40 34 35 39 35 36 40 34 35 39 
33 35 39 35 36 40 35 34 39 35 34 40 35 35 40 34 35 40 34 36 40 35 36 40 
35 36 40 35 36 40 35 36 40 35 36 40 35 36 40 35 36 40 35 36 40 35 36 40 
35 36 40 35 36 40 35 36 40 35 36 40 35 36 40 35 36 40 35 36 40 34 36 40 
33 35 39 33 35 39 34 35 39 35 36 40 35 36 40 35 36 40 35 36 40 35 36 40 
35 36 40 34 36 40 35 36 40 35 36 40 36 37 41 36 37 41 36 37 41 36 37 41 
36 37 41 35 36 40 35 36 40 36 37 41 36 37 41 36 37 41 36 37 41 36 37 41 
36 37 41 36 37 41 35 36 40 35 36 40 35 36 40 35 36 40 35 36 40 35 36 40 
35 36 40 35 36 40 35 36 40 35 36 40 35 36 40 35 36 40 35 36 40 35 36 40 
35 36 40 35 36 40 35 36 40 35 36 40 35 35 40 35 34 40 35 34 39 35 34 40 
36 35 39 35 34 39 33 35 39 33 35 39 35 36 40 34 35 39 33 35 39 33 35 39 
34 36 40 34 36 40 34 36 40 34 36 40 35 36 40 35 36 40 35 36 40 33 35 39 
33 35 39 33 35 40 33 35 40 33 35 39 34 35 39 35 36 40 34 36 40 33 35 39 
33 35 39 33 35 39 34 36 40 35 36 41 35 36 40 35 36 40 35 36 40 35 36 40 
35 36 40 35 36 40 35 36 40 34 36 40 34 35 39 35 34 39 35 34 39 35 35 40 
35 36 40 35 36 40 34 35 39 35 36 40 35 36 40 33 35 39 33 35 39 35 36 40 
35 36 40 35 36 40 35 36 40 35 36 40 35 36 40 35 36 40 35 36 40 33 35 39 
34 35 39 35 36 40 35 36 40 35 36 40 35 36 40 35 36 40 35 36 40 35 36 40 
34 35 39 33 35 39 33 35 39 34 36 40 35 37 41 35 36 40 35 36 40 35 36 40 
36 37 41 35 36 40 36 37 41 36 37 41 37 38 42 36 37 41 36 37 41 36 37 41 
36 37 41 36 37 41 36 37 41 36 37 41 36 37 41 36 37 41 36 37 41 36 37 41 
36 37 41 36 37 41 36 37 41 37 38 42 
35 36 40 35 36 40 35 36 40 35 36 40 35 36 40 34 36 40 34 36 40 35 36 40 
36 37 41 36 37 41 36 37 41 35 36 40 34 35 39 35 36 40 36 37 41 36 37 41 
35 36 40 36 37 41 36 37 41 36 37 41 35 37 41 35 36 40 35 36 40 35 36 40 
34 36 40 34 36 40 36 35 42 35 34 40 35 34 39 35 34 39 35 34 39 35 34 39 
35 36 40 35 37 41 36 37 41 35 36 40 35 36 40 35 37 41 36 37 41 35 37 41 
35 36 40 34 36 40 34 35 39 35 34 40 36 35 41 35 34 39 36 35 39 36 35 39 
35 34 39 34 35 39 35 36 40 35 36 40 35 36 40 35 36 40 34 36 40 34 36 40 
34 36 40 34 36 40 34 35 39 34 36 40 34 36 40 34 36 40 34 36 40 34 36 40 
34 35 39 35 36 40 34 36 40 33 35 39 33 35 39 33 35 39 34 36 40 35 36 40 
34 36 40 35 36 40 35 36 40 34 36 40 34 36 40 34 36 40 34 35 39 33 35 39 
34 35 39 35 34 39 35 34 39 35 34 39 35 34 40 34 32 40 32 34 39 34 35 39 
34 36 40 36 35 39 36 35 39 36 35 39 35 34 40 35 34 39 35 34 39 34 35 39 
33 35 39 33 35 39 33 35 39 33 35 39 33 35 39 33 35 39 34 36 40 34 36 40 
34 36 40 33 35 39 33 35 39 33 35 39 34 36 40 35 36 40 35 36 40 34 36 40 
34 36 40 34 36 40 34 36 40 34 36 40 34 36 40 34 36 40 35 36 40 35 36 40 
34 36 40 34 36 40 34 36 40 34 36 40 33 35 39 33 35 39 33 35 39 33 35 39 
32 34 38 34 34 39 34 34 39 34 32 40 32 34 39 34 35 39 35 36 40 34 35 39 
33 35 39 34 36 40 35 34 39 35 34 39 35 35 40 34 35 39 34 36 40 35 36 40 
35 36 40 35 36 40 35 36 40 35 36 40 34 36 40 34 36 40 35 36 40 35 36 40 
35 36 40 35 36 40 35 36 40 35 36 40 35 36 40 35 36 40 35 36 40 35 36 40 
35 36 40 34 35 39 34 35 39 35 36 40 35 36 40 35 36 40 35 36 40 35 36 40 
35 36 40 35 36 40 35 36 40 35 36 40 36 37 41 36 37 41 35 36 40 35 36 40 
35 36 40 35 36 40 35 36 40 36 37 41 35 37 41 36 37 41 36 37 41 36 37 41 
36 37 41 35 36 40 35 36 40 35 36 40 35 36 40 35 36 40 35 36 40 35 36 40 
35 36 40 35 36 40 35 36 40 35 36 40 35 36 40 35 36 40 35 36 40 35 36 40 
35 36 40 35 36 40 35 36 40 34 36 40 35 35 40 35 34 40 35 34 39 35 34 40 
36 35 39 35 34 39 34 35 39 34 35 39 34 36 40 34 35 39 33 35 39 33 35 39 
34 36 40 33 35 39 33 35 39 34 36 40 34 36 40 34 36 40 35 36 40 34 36 40 
32 35 38 32 35 38 32 35 38 34 35 39 34 35 39 35 36 40 35 36 40 34 35 39 
34 35 39 34 35 39 34 35 39 35 36 40 35 36 40 35 36 40 35 36 40 35 36 40 
35 36 40 35 36 40 35 36 40 34 36 40 34 35 39 35 34 39 35 34 39 34 35 39 
34 36 40 34 36 40 34 35 39 34 36 40 35 36 40 34 35 39 33 35 39 34 36 40 
34 36 40 34 36 40 35 36 40 35 36 40 35 36 40 35 36 40 34 36 40 33 35 39 
34 35 39 35 36 40 34 36 40 34 36 40 34 36 40 34 36 40 34 36 40 34 36 40 
34 35 39 33 35 39 33 35 39 34 36 40 35 36 40 35 36 40 35 36 40 35 36 40 
36 37 41 36 37 41 35 36 40 35 37 41 37 38 42 36 37 41 36 37 41 36 37 41 
36 37 41 36 37 41 36 37 41 36 37 41 36 37 41 36 37 41 36 37 41 36 37 41 
36 37 41 36 37 41 36 37 41 37 38 42 
35 36 40 35 36 40 35 36 40 35 36 40 35 36 40 35 36 40 35 36 40 35 36 40 
36 37 41 36 37 41 36 37 41 35 36 40 35 36 40 35 36 40 36 37 41 36 37 41 
36 37 41 35 36 40 36 37 41 36 37 41 35 37 41 35 36 40 35 36 40 35 36 40 
34 35 39 33 35 39 35 35 40 35 35 40 35 34 39 34 34 39 35 34 39 35 34 39 
35 36 40 35 36 40 35 37 41 34 36 40 34 36 40 35 36 40 35 36 40 35 36 40 
35 36 40 35 36 40 35 36 40 35 35 40 35 34 40 35 34 39 34 34 39 35 34 39 
35 35 40 35 36 40 35 36 40 35 36 40 35 36 41 35 36 41 35 35 40 34 35 39 
34 35 39 34 36 40 35 36 40 34 35 39 34 35 39 33 35 39 34 35 39 33 35 39 
34 35 39 35 36 40 34 35 40 34 35 40 34 35 40 34 35 39 35 35 40 35 36 41 
34 35 40 34 36 40 35 36 40 34 35 40 34 35 40 34 35 40 34 35 40 34 35 40 
35 35 40 35 34 40 35 34 40 35 34 40 34 34 39 34 34 39 34 34 39 34 35 40 
34 35 40 35 35 40 35 34 39 34 34 39 35 34 40 35 34 40 35 34 39 34 35 39 
33 35 39 33 35 39 33 35 39 33 35 39 33 35 39 33 35 39 33 35 39 33 35 39 
33 35 39 33 35 39 33 35 39 33 35 39 33 35 39 34 35 40 35 35 40 34 35 40 
34 35 39 34 35 39 34 35 39 33 35 39 33 35 39 33 35 39 34 36 40 34 35 39 
33 35 39 33 35 39 33 35 39 33 35 39 33 35 39 33 35 39 33 35 39 33 35 39 
33 35 39 34 35 40 35 34 40 35 34 40 34 35 40 34 35 39 35 36 40 34 35 39 
33 35 39 33 35 39 34 34 39 34 34 39 35 34 39 34 35 39 34 36 40 35 36 40 
35 36 40 35 36 40 35 36 40 35 36 40 34 35 39 34 35 39 35 36 40 35 36 40 
35 36 40 35 36 40 35 36 40 35 36 40 35 36 40 35 36 40 35 36 40 35 36 40 
35 36 40 35 36 40 35 36 40 35 36 40 35 36 40 35 36 40 35 36 40 35 36 40 
35 36 40 35 36 40 35 36 40 35 36 40 35 36 40 35 36 40 35 36 40 35 36 40 
35 36 40 35 36 40 35 36 40 35 36 40 34 36 40 35 36 40 35 36 40 35 36 40 
35 36 40 35 36 40 35 36 40 35 36 40 35 36 40 35 36 40 35 36 40 35 36 40 
35 36 40 35 36 40 35 36 40 35 36 40 35 36 40 35 36 40 34 36 40 34 36 40 
35 36 40 35 36 40 35 36 40 34 35 40 35 36 41 35 35 40 35 34 39 35 34 39 
35 34 39 35 34 39 35 36 41 35 36 40 34 35 39 34 35 39 34 35 39 34 35 39 
33 35 39 33 35 39 33 35 39 33 35 39 34 35 39 34 36 40 35 35 40 34 35 40 
34 35 40 34 35 39 34 35 39 34 35 39 35 36 40 35 36 40 35 36 40 35 36 40 
35 36 40 35 36 40 35 36 40 35 36 40 35 36 40 35 36 40 35 36 40 35 36 40 
35 36 40 35 36 40 35 36 40 34 36 40 34 35 39 35 34 39 35 34 39 34 35 39 
34 35 39 34 35 40 33 35 39 33 35 39 34 36 40 34 35 39 33 35 39 34 35 39 
34 35 39 34 35 39 35 36 40 35 36 40 35 36 40 35 36 40 34 35 40 34 35 40 
34 35 39 35 36 40 34 36 40 34 35 39 34 35 39 33 35 39 33 35 39 33 35 39 
33 35 39 33 35 39 34 36 40 35 36 40 35 36 40 35 36 40 35 36 40 35 36 40 
36 37 41 35 36 40 35 36 40 35 36 40 36 37 41 35 36 40 35 36 40 36 37 41 
36 37 41 36 37 41 36 37 41 36 37 41 36 37 41 36 37 41 36 37 41 36 37 41 
36 37 41 36 37 41 36 37 41 36 37 41 
35 36 40 35 36 40 35 36 40 35 36 40 35 36 40 35 36 40 36 37 41 36 37 41 
36 37 41 36 37 41 36 37 41 36 37 41 36 37 41 36 37 41 36 37 41 36 37 41 
36 37 41 36 37 41 36 37 41 36 37 41 35 37 41 35 36 40 35 36 40 35 36 40 
34 35 39 33 35 39 33 35 39 35 36 40 35 36 40 34 35 39 34 36 40 35 36 40 
34 36 40 34 36 40 35 36 40 33 35 39 33 35 39 35 36 40 35 37 41 35 36 40 
35 36 40 35 36 40 35 36 40 35 35 40 35 34 40 35 34 39 33 35 39 34 35 39 
35 36 40 35 36 40 35 36 40 35 36 40 36 35 41 36 35 42 35 36 41 35 36 40 
35 36 40 35 36 40 35 36 40 35 36 40 35 36 40 34 36 40 34 36 40 34 36 40 
34 35 39 35 36 40 35 35 40 36 35 39 36 35 41 35 34 40 35 34 39 35 35 40 
35 36 40 35 36 40 35 36 40 36 35 42 36 35 42 36 35 42 36 35 42 36 35 42 
36 35 42 36 35 42 36 35 42 34 35 40 33 35 39 33 35 39 35 34 39 35 34 40 
36 35 41 35 36 41 34 36 40 33 35 39 35 35 40 36 35 41 35 34 39 34 35 39 
33 35 39 33 35 39 33 35 39 33 35 39 33 35 39 33 35 39 33 35 39 33 35 39 
33 35 39 33 35 39 33 35 39 33 35 39 33 35 39 35 35 40 36 35 42 36 35 41 
36 35 39 35 34 39 35 34 39 34 35 39 33 35 39 33 35 39 33 35 39 33 35 39 
33 35 39 33 35 39 33 35 39 33 35 39 33 35 39 33 35 39 33 35 39 33 35 39 
33 35 39 34 35 40 36 35 41 35 34 39 33 35 39 33 35 39 35 36 40 34 35 39 
33 35 39 33 35 39 33 35 39 34 35 39 35 36 40 34 35 39 34 36 40 35 36 40 
35 36 40 35 36 40 35 36 40 35 36 40 35 36 40 35 36 40 35 36 40 34 36 40 
34 36 40 35 36 40 35 36 40 35 36 40 35 36 40 35 36 40 35 36 40 35 36 40 
35 36 40 35 36 40 35 36 40 35 36 40 35 36 40 35 36 40 35 36 40 35 36 40 
35 36 40 35 36 40 35 36 40 35 36 40 35 36 40 35 36 40 35 36 40 35 36 40 
35 36 40 35 36 40 35 36 40 35 36 40 35 36 40 35 36 40 34 36 40 35 36 40 
35 36 40 35 36 40 35 36 40 35 36 40 35 36 40 35 36 40 35 36 40 34 36 40 
35 36 40 35 36 40 35 36 40 35 36 40 35 36 40 34 35 39 33 35 39 33 35 39 
35 36 40 35 36 41 36 35 42 36 35 42 35 36 41 35 36 40 35 36 40 35 34 39 
35 34 39 35 34 39 36 35 42 36 35 39 35 34 39 35 34 39 35 34 39 35 34 39 
34 35 39 33 35 39 33 35 39 34 35 39 34 36 40 35 34 39 35 34 39 36 35 41 
36 35 41 35 36 40 35 36 40 35 36 40 35 36 40 35 36 40 35 36 40 35 36 40 
35 36 40 35 36 40 35 36 40 35 36 40 35 36 40 35 36 40 35 36 40 35 36 40 
35 36 40 35 36 40 35 36 40 35 36 40 35 36 40 35 36 40 35 36 40 35 35 40 
35 34 40 35 35 40 34 35 40 33 35 39 33 35 39 33 35 39 33 35 39 35 36 40 
35 36 40 35 36 40 35 36 40 34 35 39 34 35 39 35 36 40 36 35 41 35 34 40 
35 34 39 35 36 40 35 36 40 35 36 40 35 36 40 34 35 39 33 35 39 33 35 39 
33 35 39 34 35 39 35 36 40 35 36 40 35 36 40 35 36 40 35 36 40 35 36 40 
35 36 40 35 36 40 35 36 40 35 36 40 36 37 41 35 36 40 35 36 40 36 37 41 
36 37 41 36 37 41 36 37 41 36 37 41 36 37 41 36 37 41 36 37 41 36 37 41 
36 37 41 36 37 41 36 37 41 36 37 41 
35 36 40 35 36 40 35 36 40 35 36 40 35 36 40 35 36 40 36 37 41 36 37 41 
36 37 41 36 37 41 36 37 41 36 37 41 36 37 41 36 37 41 36 37 41 36 37 41 
36 37 41 36 37 41 36 37 41 36 37 41 35 36 40 35 36 40 35 36 40 35 36 40 
35 36 40 35 36 40 35 36 40 35 36 40 35 36 40 35 36 40 35 36 40 35 36 40 
34 35 39 34 36 40 35 36 40 34 35 39 33 35 39 34 36 40 35 37 41 35 36 40 
35 36 40 35 36 40 35 36 40 35 34 40 35 34 40 35 34 39 33 35 39 34 35 39 
35 36 40 35 36 40 35 36 40 35 35 40 36 35 39 36 35 39 35 35 40 34 36 40 
35 36 40 35 36 40 35 36 40 35 36 40 35 36 40 34 36 40 34 36 40 34 36 40 
34 36 40 34 35 40 35 34 39 35 34 40 36 35 39 35 34 39 34 32 40 35 34 40 
35 36 40 35 36 40 34 36 40 36 35 39 36 35 39 36 35 39 36 35 39 36 35 39 
36 35 39 36 35 39 36 35 39 34 35 39 33 35 39 33 35 39 35 34 39 35 34 39 
35 34 40 34 35 40 33 35 39 33 35 39 36 35 41 35 34 40 35 34 39 34 35 39 
33 35 39 33 35 39 33 35 39 33 35 39 33 35 39 34 36 40 33 35 39 33 35 39 
33 35 39 33 35 39 33 35 39 33 35 39 33 35 39 34 35 40 36 35 39 36 35 39 
35 34 39 35 34 39 35 34 39 34 35 39 33 35 39 33 35 39 33 35 39 33 35 39 
33 35 39 33 35 39 33 35 39 33 35 39 33 35 39 33 35 39 33 35 39 33 35 39 
33 35 39 34 35 40 35 35 40 35 34 39 34 35 39 33 35 39 33 35 39 34 36 40 
33 35 39 33 35 39 34 36 40 34 36 40 35 36 40 35 36 40 35 36 40 35 36 40 
35 36 40 35 36 40 35 36 40 35 36 40 35 36 40 35 36 40 35 36 40 34 35 39 
34 35 39 35 36 40 35 36 40 35 36 40 35 36 40 35 36 40 35 36 40 35 36 40 
35 36 40 35 36 40 35 36 40 35 36 40 35 36 40 35 36 40 35 36 40 35 36 40 
35 36 40 35 36 40 35 36 40 35 36 40 35 36 40 35 36 40 35 36 40 35 36 40 
36 37 41 35 36 40 35 36 40 35 36 40 35 36 40 35 36 40 35 36 40 35 36 40 
35 36 40 35 36 40 35 36 40 35 36 40 35 36 40 35 36 40 35 36 40 35 36 40 
35 36 40 35 36 40 35 36 40 35 36 40 35 36 40 34 36 40 34 35 39 33 35 39 
34 36 40 34 35 40 36 35 39 36 35 39 34 35 40 34 36 40 34 36 40 35 34 39 
35 34 39 35 34 39 36 35 39 35 34 39 35 34 39 35 34 39 35 34 40 35 35 40 
34 35 39 33 35 39 34 36 40 35 36 40 34 36 40 34 35 39 35 34 39 35 34 40 
36 35 39 35 36 40 35 36 40 35 36 40 35 36 40 35 36 40 34 36 40 34 36 40 
34 36 40 34 36 40 34 36 40 34 36 40 34 36 40 34 36 40 35 36 40 35 36 40 
35 36 40 35 36 40 35 36 40 35 36 40 35 36 40 35 36 40 35 36 40 35 35 40 
35 34 39 36 35 39 34 35 40 34 35 40 35 36 40 34 35 39 33 35 39 34 36 40 
34 36 40 34 36 40 35 36 40 34 35 39 33 35 39 34 35 40 35 35 40 35 34 39 
35 34 39 35 36 40 35 36 40 35 36 40 35 36 40 35 36 40 33 35 39 33 35 39 
33 35 39 34 35 39 34 36 40 35 36 40 35 36 40 35 36 40 35 36 40 35 36 40 
35 36 40 35 36 40 35 36 40 35 36 40 36 37 41 36 37 41 36 37 41 36 37 41 
36 37 41 36 37 41 36 37 41 35 37 41 35 37 41 36 37 41 37 38 42 36 37 41 
37 38 42 37 38 42 37 38 42 36 37 41 
35 36 40 35 36 40 35 36 40 35 36 40 35 36 40 36 37 41 36 37 41 36 37 41 
36 37 41 36 37 41 36 37 41 36 37 41 36 37 41 36 37 41 36 37 41 36 37 41 
36 37 41 36 37 41 36 37 41 36 37 41 35 36 40 35 36 40 35 36 40 35 36 40 
35 36 40 35 36 40 35 36 40 35 36 40 35 36 40 35 36 40 35 36 40 35 36 40 
34 36 40 35 36 40 35 36 40 35 36 40 34 36 40 35 36 40 35 36 40 35 36 40 
35 36 40 35 36 40 35 36 40 35 34 39 35 34 39 35 34 39 33 35 39 34 35 39 
34 35 39 34 35 39 35 36 40 35 35 40 34 35 39 35 34 39 35 35 40 34 36 40 
35 36 40 35 36 40 35 36 40 35 36 40 35 36 40 34 36 40 34 36 40 35 36 40 
35 36 40 34 36 40 34 35 39 34 34 39 34 34 39 34 34 39 32 34 39 35 34 39 
35 36 40 35 36 40 34 36 40 35 34 39 35 34 40 35 34 39 35 34 39 35 34 39 
35 34 39 35 34 39 35 34 40 35 34 40 34 34 39 34 34 39 34 35 39 34 35 39 
35 34 39 33 35 39 33 35 39 33 35 39 36 35 42 35 34 40 35 34 39 34 35 40 
34 36 40 34 35 39 33 35 39 33 35 39 33 35 39 34 35 39 33 35 39 33 35 39 
33 35 39 33 35 39 33 35 39 33 35 39 33 35 39 34 35 39 35 35 40 35 35 40 
35 34 39 35 34 39 35 34 39 34 35 39 34 35 39 33 35 39 33 35 39 33 35 39 
34 36 40 34 36 40 33 35 39 33 35 39 33 35 39 34 35 39 34 35 39 34 34 39 
34 34 39 35 35 40 36 35 39 35 34 39 34 35 39 33 35 39 34 36 40 34 35 39 
33 35 39 34 36 40 35 36 40 35 36 40 35 36 40 35 36 40 35 36 40 35 36 40 
35 36 40 35 36 40 35 36 40 35 36 40 35 36 40 35 36 40 35 36 40 35 36 40 
35 36 40 35 36 40 35 36 40 35 36 40 35 36 40 35 36 40 35 36 40 35 36 40 
35 36 40 35 36 40 35 36 40 35 36 40 36 37 41 36 37 41 35 36 40 35 36 40 
35 36 40 35 36 40 35 36 40 35 36 40 35 36 40 35 36 40 35 36 40 35 36 40 
35 36 40 35 36 40 35 36 40 35 36 40 35 36 40 35 36 40 35 36 40 34 35 39 
34 35 39 35 36 40 35 36 40 35 36 40 35 36 40 35 36 40 35 36 40 35 36 40 
35 36 40 35 36 40 35 36 40 35 36 40 35 36 40 35 36 40 35 36 40 34 34 39 
34 34 39 35 34 39 35 34 39 35 34 40 35 35 40 33 35 39 33 35 39 35 35 40 
36 35 41 35 34 39 35 35 40 34 35 39 34 35 39 35 35 40 35 35 40 35 35 40 
35 35 40 34 35 40 34 36 40 35 36 40 34 36 40 35 35 40 35 35 40 35 34 39 
34 34 39 34 35 39 34 35 39 35 34 39 35 34 39 34 35 39 34 35 39 34 36 40 
34 36 40 34 36 40 34 35 39 33 35 39 34 35 39 35 35 40 36 35 41 35 35 40 
36 35 41 35 35 40 34 35 39 35 36 40 35 36 40 35 36 40 35 36 40 34 35 40 
34 35 39 34 35 39 34 35 39 33 35 39 34 35 39 34 36 40 34 36 40 34 36 40 
34 36 40 34 36 40 35 36 40 34 35 39 34 36 40 34 35 39 35 34 39 35 34 39 
35 34 39 35 36 40 35 36 40 35 36 40 35 36 40 35 36 40 35 36 40 34 36 40 
34 36 40 34 36 40 34 36 40 35 36 40 35 36 40 35 36 40 35 36 40 35 36 40 
35 36 40 35 36 40 36 37 41 36 37 41 36 37 41 36 37 41 36 37 41 36 37 41 
35 37 41 36 37 41 36 37 41 36 37 41 35 37 41 36 37 41 36 37 41 35 37 41 
36 37 41 36 37 41 36 37 41 36 37 41 
35 36 40 35 36 40 35 36 40 35 36 40 35 36 40 36 37 41 36 37 41 36 37 41 
36 37 41 36 37 41 36 37 41 36 37 41 36 37 41 36 37 41 36 37 41 36 37 41 
36 37 41 36 37 41 36 37 41 36 37 41 35 36 40 35 36 40 35 36 40 35 36 40 
35 36 40 35 36 40 35 36 40 35 36 40 35 36 40 35 36 40 35 36 40 35 36 40 
35 36 40 35 36 40 35 36 40 35 36 40 36 37 41 36 37 41 36 37 41 36 37 41 
35 36 40 35 36 40 35 36 40 35 34 39 35 34 39 35 34 39 33 35 39 33 35 39 
33 35 39 33 35 39 34 35 39 34 36 40 33 35 39 34 36 40 35 36 40 35 36 40 
35 36 40 35 36 40 35 36 40 35 36 40 35 36 40 35 36 40 35 36 40 35 36 40 
35 36 40 35 36 40 34 35 40 32 34 39 32 34 38 34 35 39 34 35 40 34 36 40 
34 36 40 35 36 40 35 36 40 35 34 39 35 34 40 35 34 40 35 34 39 35 34 39 
35 34 39 35 34 39 36 35 41 35 34 40 35 34 39 35 34 39 34 35 39 34 35 39 
34 36 40 33 35 39 33 35 39 34 35 39 36 35 42 35 34 40 35 34 39 35 35 40 
35 36 40 35 36 40 34 35 39 34 35 39 33 35 39 33 35 39 33 35 39 33 35 39 
33 35 39 33 35 39 33 35 39 34 35 39 33 35 39 34 35 39 35 36 40 35 36 40 
35 35 40 35 34 39 35 34 39 35 35 40 34 35 39 33 35 39 33 35 39 35 36 40 
35 36 40 35 36 40 34 36 40 33 35 39 33 35 39 34 36 40 34 35 39 35 34 39 
35 34 40 36 35 41 36 35 41 35 34 40 34 35 39 33 35 39 35 36 40 35 36 40 
35 36 40 35 36 40 35 36 40 35 36 40 35 36 40 35 36 40 35 36 40 34 35 39 
35 36 40 35 36 40 35 36 40 35 36 40 35 36 40 35 36 40 35 36 40 35 36 40 
35 36 40 36 37 41 35 36 40 35 36 40 35 36 40 35 36 40 35 36 40 35 36 40 
35 36 40 35 36 40 35 36 40 35 36 40 36 37 41 36 37 41 36 37 41 35 36 40 
35 36 40 34 36 40 34 36 40 35 36 40 35 36 40 34 36 40 35 36 40 35 34 39 
35 34 39 35 36 40 35 36 40 35 36 40 35 36 40 35 36 40 35 36 40 35 36 40 
35 36 40 35 36 40 35 36 40 35 36 40 35 36 40 35 36 40 35 36 40 34 36 40 
35 36 40 35 36 40 35 36 40 34 36 40 35 36 40 35 36 40 35 36 40 35 34 39 
35 34 39 35 34 39 35 34 40 36 35 42 36 35 41 34 36 40 33 35 39 36 35 41 
36 35 41 35 34 39 34 36 40 34 36 40 33 35 39 34 36 40 35 36 40 35 36 40 
36 35 41 35 35 40 35 35 40 35 36 40 35 36 40 36 35 41 36 35 42 35 34 40 
34 34 39 33 35 39 33 35 39 34 35 39 35 34 39 35 34 39 35 35 40 35 36 40 
35 36 40 35 36 40 34 35 39 33 35 39 35 34 39 36 35 41 36 35 42 35 34 39 
36 35 41 36 35 41 33 35 39 34 35 39 35 36 40 35 34 39 35 36 40 34 36 40 
33 35 39 33 35 39 34 36 40 33 35 39 33 35 39 35 36 40 35 36 40 35 36 40 
35 36 40 35 36 40 36 37 41 34 35 39 35 36 40 35 36 40 35 34 39 35 34 39 
35 34 39 35 36 40 36 37 41 35 36 40 35 36 40 35 36 40 35 36 40 35 36 40 
35 36 40 35 36 40 35 36 40 35 36 40 35 36 40 35 36 40 35 36 40 35 36 40 
36 37 41 36 37 41 36 37 41 36 37 41 36 37 41 36 37 41 36 37 41 36 37 41 
36 37 41 36 37 41 36 37 41 36 37 41 36 37 41 36 37 41 36 37 41 35 36 40 
36 37 41 36 37 41 36 37 41 36 37 41 
35 36 40 35 36 40 35 36 40 35 36 40 35 36 40 35 36 40 35 36 40 36 37 41 
36 37 41 36 37 41 36 37 41 36 37 41 36 37 41 36 37 41 36 37 41 36 37 41 
36 37 41 37 38 42 37 38 42 36 37 41 36 37 41 35 36 40 35 36 40 35 36 40 
35 36 40 35 36 40 35 36 40 35 36 40 35 36 40 35 36 40 36 37 41 36 37 41 
35 36 40 34 36 40 35 36 40 35 36 40 35 36 40 35 36 40 36 37 41 36 37 41 
35 36 40 35 36 40 35 36 40 36 35 39 35 34 40 35 34 39 33 35 39 33 35 39 
33 35 39 33 35 39 33 35 39 33 35 39 34 36 40 35 36 40 35 36 40 35 36 40 
35 36 40 35 36 40 35 36 40 35 36 40 35 36 40 35 36 40 35 36 40 35 36 40 
36 37 41 35 36 40 35 36 40 34 36 40 34 36 40 35 36 40 35 36 40 34 36 40 
33 35 39 34 36 40 35 36 40 36 35 42 36 35 41 35 34 39 35 34 39 35 34 39 
35 34 39 35 34 39 35 34 39 35 34 39 35 34 39 35 34 40 34 35 39 33 35 39 
33 35 39 33 35 39 34 35 39 35 36 40 36 35 42 35 34 40 35 34 39 34 35 39 
34 35 39 34 36 40 34 36 40 35 36 40 34 35 39 33 35 39 33 35 39 33 35 39 
33 35 39 33 35 39 34 35 39 34 36 40 33 35 39 34 35 39 35 36 40 35 36 40 
35 35 40 35 34 40 35 34 39 35 35 40 35 36 40 34 36 40 33 35 39 34 35 39 
34 35 39 35 36 40 35 36 40 34 35 39 33 35 39 33 35 39 34 35 39 35 34 39 
35 34 40 35 34 40 35 34 40 35 34 40 34 34 39 33 35 39 34 36 40 36 37 41 
35 36 40 34 35 39 34 36 40 35 36 40 35 36 40 35 36 40 35 36 40 35 36 40 
35 36 40 35 36 40 34 36 40 35 36 40 35 36 40 35 36 40 35 36 40 34 36 40 
35 36 40 35 36 40 35 36 40 35 36 40 35 36 40 35 36 40 35 36 40 35 36 40 
35 36 40 35 36 40 35 36 40 35 36 40 35 36 40 35 36 40 35 36 40 35 36 40 
34 36 40 34 36 40 35 36 40 34 36 40 33 35 39 33 35 39 33 35 39 33 35 39 
33 35 39 35 36 40 35 36 40 35 36 40 35 36 40 35 36 40 35 36 40 36 37 41 
36 37 41 36 37 41 35 36 40 35 36 40 35 36 40 36 37 41 36 37 41 35 37 41 
36 37 41 35 36 40 35 36 40 35 36 40 35 36 40 34 35 39 34 35 40 36 35 41 
35 34 39 35 34 39 35 34 40 36 35 42 36 35 42 34 36 40 34 36 40 35 35 40 
35 34 40 35 34 39 33 35 39 33 35 39 34 36 40 33 35 39 34 36 40 35 36 41 
36 35 41 35 34 40 35 34 39 34 35 39 34 35 39 34 35 40 35 34 40 35 34 40 
35 34 40 33 35 39 33 35 39 34 35 39 35 34 39 35 34 40 35 35 40 34 36 40 
34 35 39 34 36 40 34 35 39 33 35 39 35 34 39 36 35 41 36 35 42 35 34 39 
35 34 40 35 34 40 33 35 39 34 35 39 34 36 40 33 35 39 33 35 39 34 36 40 
34 36 40 34 36 40 35 36 40 34 36 40 35 36 40 35 36 40 35 36 40 35 36 40 
35 36 40 35 36 40 35 36 40 35 36 40 34 36 40 34 35 39 35 34 39 35 34 40 
35 34 40 34 35 40 35 36 40 35 36 40 35 36 40 35 36 40 35 36 40 36 37 41 
35 36 40 35 36 40 35 36 40 36 37 41 35 36 40 35 36 40 35 36 40 35 36 40 
35 36 40 35 36 40 36 37 41 37 38 42 36 37 41 36 37 41 36 37 41 36 37 41 
36 37 41 36 37 41 36 37 41 36 37 41 36 37 41 36 37 41 36 37 41 35 37 41 
36 37 41 36 37 41 36 37 41 36 37 41 
35 36 40 35 36 40 35 36 40 36 37 41 35 37 41 35 36 40 35 36 40 36 37 41 
36 37 41 36 37 41 36 37 41 36 37 41 36 37 41 36 37 41 36 37 41 36 37 41 
36 37 41 37 38 42 37 38 42 36 37 41 35 36 40 35 36 40 35 36 40 35 36 40 
36 37 41 36 37 41 35 36 40 35 36 40 35 36 40 35 36 40 35 37 41 37 38 42 
35 36 40 35 36 40 36 37 41 35 36 40 35 36 40 35 36 40 35 36 40 35 36 40 
35 36 40 34 35 39 35 36 40 35 34 40 36 35 39 35 34 39 33 35 39 33 35 39 
33 35 39 33 35 39 34 35 39 34 36 40 35 36 40 35 36 40 35 36 40 35 36 40 
34 36 40 35 36 40 35 36 40 35 36 40 35 36 40 35 36 40 35 36 40 35 36 40 
36 37 41 35 36 40 35 36 40 35 36 40 35 36 40 35 36 40 34 36 40 35 36 40 
34 36 40 35 36 40 35 37 41 35 36 41 34 34 39 34 34 39 34 35 39 34 35 39 
34 35 39 34 35 39 35 34 39 35 35 40 35 35 40 35 35 40 34 35 39 33 35 39 
33 35 39 33 35 39 34 35 39 35 36 40 36 35 42 35 34 40 35 34 39 34 34 39 
34 34 39 34 35 40 35 36 40 35 36 40 35 36 40 35 36 40 34 36 40 34 36 40 
33 35 39 33 35 39 33 35 39 34 35 39 33 35 39 33 35 39 34 36 40 35 36 40 
35 35 40 35 34 40 35 34 39 34 35 39 34 36 40 35 36 40 33 35 39 33 35 39 
33 35 39 34 35 39 33 35 39 33 35 39 33 35 39 33 35 39 34 35 39 34 35 39 
34 35 40 34 35 39 34 35 39 34 35 40 33 35 39 33 35 39 34 36 40 36 35 41 
36 35 41 35 35 40 35 35 40 35 34 39 35 34 39 35 36 40 35 36 40 35 36 40 
35 36 40 35 36 40 35 36 40 35 37 41 36 37 41 36 37 41 35 36 40 35 36 40 
35 36 40 36 37 41 35 36 40 35 36 40 35 36 40 36 37 41 35 36 40 35 36 40 
35 36 40 36 37 41 36 37 41 34 36 40 35 37 41 36 37 41 36 37 41 35 36 40 
35 36 40 34 36 40 35 36 40 34 36 40 34 36 40 34 36 40 33 35 39 33 35 39 
34 36 40 34 35 39 34 36 40 35 36 40 35 36 40 35 36 40 35 36 40 36 37 41 
36 37 41 36 37 41 35 36 40 35 36 40 35 36 40 35 36 40 35 36 40 35 36 40 
35 36 40 35 36 40 35 36 40 35 36 40 36 37 41 35 36 40 35 36 40 35 35 40 
34 35 39 34 35 39 34 35 39 35 35 40 35 36 41 34 35 39 35 36 40 35 34 39 
35 34 40 35 34 40 33 35 40 33 35 39 35 36 40 34 35 39 33 35 39 35 36 40 
35 35 40 35 35 40 34 35 39 33 35 39 33 35 39 34 35 40 35 36 40 35 35 40 
35 35 40 34 36 40 34 36 40 35 36 40 35 35 40 34 35 40 35 36 40 34 35 39 
33 35 39 34 35 39 33 35 39 33 35 39 35 35 40 35 36 40 35 36 41 35 36 40 
35 35 40 35 35 40 35 36 40 35 36 40 34 35 39 33 35 39 34 36 40 34 36 40 
35 36 40 35 36 40 35 36 40 35 36 40 35 36 40 35 36 40 35 36 40 35 36 40 
36 37 41 36 37 41 36 37 41 36 37 41 34 36 40 33 35 39 35 34 39 35 35 40 
35 35 40 33 35 39 35 36 40 35 36 40 34 36 40 35 36 40 35 36 40 36 37 41 
35 36 40 35 36 40 35 36 40 35 36 40 35 36 40 35 36 40 35 36 40 34 36 40 
34 36 40 34 36 40 35 36 40 36 37 41 37 38 42 36 37 41 36 37 41 36 37 41 
36 37 41 36 37 41 36 37 41 36 37 41 36 38 42 37 39 43 36 37 41 36 37 41 
36 37 41 36 37 41 37 38 42 37 38 42 
35 36 40 35 36 40 35 36 40 36 37 41 36 37 41 36 37 41 35 36 40 36 37 41 
36 37 41 36 37 41 36 37 41 36 37 41 36 37 41 36 37 41 36 37 41 36 37 41 
36 37 41 36 37 41 36 37 41 36 37 41 35 36 40 35 36 40 35 36 40 36 37 41 
36 37 41 36 37 41 35 36 40 35 36 40 35 36 40 35 36 40 35 37 41 37 38 42 
36 37 41 36 37 41 36 37 41 36 37 41 35 36 40 35 36 40 35 36 40 35 36 40 
35 36 40 35 37 41 35 36 40 35 34 40 36 35 39 35 34 40 33 35 39 33 35 39 
33 35 39 33 35 39 34 35 39 35 36 40 35 36 40 35 36 40 35 36 40 35 36 40 
34 36 40 35 36 40 35 36 40 35 36 40 35 36 40 35 36 40 35 36 40 35 36 40 
36 37 41 35 36 40 35 36 40 35 36 40 35 36 40 35 36 40 34 36 40 35 36 40 
35 36 40 35 36 40 35 37 41 34 36 40 34 35 39 34 36 40 34 36 40 35 36 40 
35 37 41 35 37 41 35 36 40 35 36 40 35 36 40 35 36 40 34 35 39 33 35 39 
33 35 39 33 35 39 34 35 39 35 36 40 36 35 41 35 34 40 35 34 39 35 34 39 
35 34 39 35 35 40 35 36 40 35 36 40 35 36 40 35 36 40 35 36 40 34 36 40 
33 35 39 33 35 39 33 35 39 33 35 39 33 35 39 33 35 39 33 35 39 34 36 40 
35 35 40 35 34 39 35 34 39 34 35 39 34 36 40 35 36 40 33 35 39 33 35 39 
33 35 39 33 35 39 33 35 39 33 35 39 33 35 39 33 35 39 33 35 39 33 35 39 
33 35 39 33 35 39 33 35 39 33 35 39 33 35 39 33 35 39 35 36 40 35 35 40 
35 34 40 36 35 41 35 34 40 35 34 39 35 34 39 35 36 40 36 37 41 35 36 40 
35 36 40 35 36 40 34 36 40 34 36 40 34 36 40 35 36 40 35 36 40 34 35 39 
35 36 40 35 36 40 35 36 40 35 36 40 35 36 40 36 37 41 35 36 40 35 36 40 
35 36 40 36 37 41 36 37 41 34 36 40 36 37 41 36 37 41 35 36 40 35 36 40 
35 36 40 35 36 40 35 36 40 35 36 40 35 36 40 35 36 40 34 35 39 33 35 39 
35 36 40 36 37 41 35 36 40 35 36 40 35 36 40 35 36 40 34 35 39 34 36 40 
34 35 39 35 36 40 35 36 40 35 36 40 35 36 40 35 36 40 35 36 40 34 36 40 
35 36 40 34 35 39 35 36 40 35 36 40 36 37 41 35 36 40 34 36 40 33 35 39 
33 35 39 33 35 39 34 35 39 35 36 40 35 36 40 34 35 39 35 36 40 35 34 39 
35 34 40 35 34 40 33 35 39 34 35 39 36 37 41 36 37 41 35 37 41 35 36 40 
35 36 40 34 35 40 33 35 39 33 35 39 33 35 39 34 36 40 36 37 41 35 36 40 
35 36 40 36 37 41 35 36 40 35 36 40 35 36 40 35 37 41 35 37 41 34 35 39 
33 35 39 33 35 39 33 35 39 33 35 39 35 36 40 35 36 40 35 36 40 35 36 40 
35 36 40 35 36 40 36 37 41 35 36 40 33 35 39 34 35 39 35 36 40 35 36 40 
35 36 40 35 36 40 35 36 40 35 36 40 35 36 40 35 36 40 35 36 40 35 36 40 
36 37 41 36 37 41 36 37 41 35 36 40 35 36 40 36 37 41 35 36 40 35 36 40 
34 36 40 33 35 39 35 36 40 35 36 40 34 36 40 35 36 40 35 36 40 34 36 40 
34 36 40 35 36 40 35 36 40 35 36 40 35 36 40 35 36 40 35 36 40 35 36 40 
35 36 40 35 36 40 35 36 40 35 36 40 36 37 41 36 37 41 36 37 41 36 37 41 
36 37 41 36 37 41 36 37 41 36 37 41 37 38 42 37 39 43 36 37 41 36 37 41 
36 37 41 36 37 41 37 39 43 37 38 42 
35 36 40 35 36 40 35 36 40 36 37 41 36 37 41 35 37 41 35 36 40 36 37 41 
36 37 41 36 37 41 36 37 41 36 37 41 36 37 41 36 37 41 36 37 41 36 37 41 
37 39 43 36 37 41 36 37 41 36 37 41 35 36 40 35 36 40 35 36 40 35 36 40 
36 37 41 36 37 41 36 37 41 36 37 41 36 37 41 35 36 40 35 36 40 35 36 40 
36 37 41 35 36 40 35 36 40 35 36 40 35 36 40 35 36 40 35 36 40 36 37 41 
36 37 41 37 38 42 36 37 41 36 35 42 36 35 42 36 35 42 35 36 40 35 36 40 
35 36 40 35 36 40 35 36 40 35 36 40 35 36 40 35 36 40 35 36 40 35 36 40 
34 36 40 35 36 40 35 36 40 35 36 40 36 37 41 36 37 41 35 36 40 35 36 40 
35 36 40 35 36 40 35 36 40 35 36 40 36 37 41 35 36 40 34 36 40 35 36 40 
35 36 40 35 36 40 35 36 40 35 36 40 34 36 40 35 36 40 34 36 40 35 36 40 
35 36 40 35 37 41 35 36 40 35 36 40 35 36 40 35 36 40 34 35 39 33 35 39 
33 35 39 33 35 39 33 35 39 33 35 39 34 34 39 35 34 39 35 34 39 35 34 39 
35 34 39 35 35 40 35 36 40 35 36 40 35 36 40 35 36 40 35 36 40 34 36 40 
33 35 39 33 35 39 33 35 39 33 35 39 33 35 39 34 35 39 35 36 40 35 36 40 
35 35 40 35 34 39 35 34 39 35 35 40 35 36 40 35 36 40 35 36 40 33 35 39 
33 35 39 33 35 39 34 35 39 34 36 40 33 35 39 33 35 39 33 35 39 33 35 39 
33 35 39 34 36 40 35 36 40 33 35 39 33 35 39 33 35 39 35 36 40 35 34 39 
35 34 39 35 34 39 35 34 39 35 34 39 35 34 39 35 35 40 35 36 40 35 36 40 
34 35 39 33 35 39 34 35 39 35 36 40 35 36 40 35 36 40 35 36 40 33 35 39 
34 35 39 35 36 40 35 36 40 35 36 40 35 36 40 36 37 41 35 36 40 36 37 41 
36 37 41 36 37 41 36 37 41 35 36 40 36 37 41 36 37 41 35 36 40 35 36 40 
35 36 40 35 36 40 35 36 40 34 36 40 35 36 40 35 36 40 35 36 40 35 36 40 
35 36 40 35 36 40 36 37 41 34 36 40 34 36 40 36 37 41 35 36 40 35 36 40 
35 36 40 35 36 40 35 36 40 35 36 40 35 36 40 35 36 40 35 36 40 36 37 41 
36 37 41 36 37 41 35 36 40 35 36 40 35 36 40 35 36 40 34 36 40 35 36 40 
35 36 40 35 36 40 35 36 40 35 36 40 36 37 41 35 36 40 35 36 40 35 34 39 
35 34 40 35 34 40 33 35 39 34 35 39 36 37 41 35 36 40 34 36 40 35 36 40 
35 36 40 35 36 40 35 36 40 35 36 40 35 36 40 35 36 40 35 36 40 35 36 40 
35 36 40 35 36 40 35 36 40 35 36 40 35 36 40 36 37 41 36 37 41 35 36 40 
35 36 40 35 36 40 35 36 40 35 36 40 35 36 40 36 37 41 36 37 41 33 35 39 
34 35 39 37 38 42 36 37 41 35 36 40 34 35 39 35 36 40 35 36 40 35 36 40 
35 36 40 35 36 40 35 36 40 35 36 40 35 36 40 35 36 40 34 36 40 35 36 40 
36 37 41 36 37 41 36 37 41 36 37 41 35 36 40 35 36 40 35 36 40 35 36 40 
34 36 40 33 35 39 35 36 40 35 36 40 35 36 40 35 36 40 35 36 40 35 36 40 
35 36 40 35 36 40 35 36 40 35 36 40 35 36 40 35 36 40 35 36 40 35 36 40 
35 36 40 35 36 40 35 36 40 35 36 40 36 37 41 36 37 41 36 37 41 36 37 41 
36 37 41 36 37 41 36 37 41 36 37 41 37 38 42 37 38 42 36 37 41 37 38 42 
37 38 42 37 38 42 36 37 41 37 38 42 
35 36 40 35 36 40 35 36 40 36 37 41 36 37 41 36 37 41 35 37 41 36 37 41 
36 37 41 36 37 41 36 37 41 36 37 41 36 37 41 36 37 41 36 37 41 36 37 41 
36 38 42 35 36 40 36 37 41 36 37 41 36 37 41 35 36 40 35 37 41 35 36 40 
35 36 40 35 36 40 36 37 41 35 36 40 35 36 40 35 36 40 36 37 41 36 37 41 
36 37 41 36 37 41 36 37 41 35 36 40 35 37 41 35 36 40 36 37 41 36 37 41 
35 36 40 36 37 41 35 36 40 35 36 41 34 35 40 35 36 41 36 37 41 34 35 39 
34 35 39 34 35 39 34 35 39 35 36 40 35 36 40 34 35 39 34 36 40 35 36 40 
35 36 40 35 36 40 35 36 40 35 36 40 36 37 41 36 37 41 35 36 40 35 36 40 
35 36 40 35 36 40 35 36 40 35 36 40 35 36 40 35 36 40 35 36 40 35 36 40 
35 36 40 36 37 41 36 37 41 35 36 40 35 36 40 35 36 40 35 36 40 35 36 40 
35 36 40 35 36 40 35 36 40 34 35 39 34 35 39 34 36 40 33 35 39 33 35 39 
33 35 39 33 35 39 34 35 39 34 36 40 34 35 39 34 35 39 34 35 39 34 35 39 
34 35 39 34 35 39 34 35 39 34 35 39 34 35 39 35 36 40 34 36 40 34 36 40 
33 35 39 33 35 39 33 35 39 33 35 39 33 35 39 34 35 39 34 36 40 34 35 39 
34 35 39 34 35 39 34 35 39 35 36 40 35 36 40 35 36 40 36 37 41 33 35 39 
33 35 39 34 36 40 35 36 40 35 36 40 34 35 39 33 35 39 33 35 39 33 35 39 
33 35 39 34 35 39 33 35 39 33 35 39 33 35 39 33 35 39 35 36 40 35 36 40 
35 35 40 35 35 40 35 35 40 35 35 40 35 35 40 35 34 39 35 34 39 34 35 39 
33 35 39 33 35 39 34 35 39 35 36 40 36 37 41 35 36 40 34 35 39 35 36 40 
34 36 40 33 35 39 34 36 40 35 36 40 35 37 41 36 37 41 35 36 40 36 37 41 
36 37 41 35 36 40 35 36 40 35 36 40 35 36 40 35 36 40 35 36 40 35 36 40 
35 36 40 35 36 40 35 36 40 34 36 40 35 37 41 36 37 41 35 37 41 35 36 40 
35 36 40 34 36 40 36 37 41 34 36 40 34 35 39 36 37 41 34 36 40 35 36 40 
35 36 40 34 36 40 35 36 40 35 36 40 35 36 40 35 36 40 35 36 40 35 36 40 
35 36 40 35 38 42 33 37 42 34 36 41 35 36 40 35 36 40 35 36 40 34 35 39 
34 36 40 35 36 40 35 36 40 35 36 40 35 36 40 34 35 39 35 36 40 35 35 40 
35 35 40 36 35 41 34 36 40 35 36 40 36 37 41 35 36 40 35 36 40 35 36 40 
35 36 40 35 36 40 35 36 40 35 36 40 36 37 41 36 37 41 35 36 40 34 36 40 
35 36 40 35 36 40 35 36 40 35 36 40 35 36 40 36 37 41 36 37 41 35 36 40 
35 36 40 35 36 40 35 36 40 35 36 40 35 36 40 35 36 40 35 36 40 34 36 41 
34 36 41 33 37 42 35 36 40 35 36 40 35 36 40 35 36 40 35 36 40 35 36 40 
35 36 40 35 36 40 35 36 40 35 36 40 35 36 40 35 36 40 35 36 40 35 36 40 
35 36 40 35 36 40 35 36 40 35 36 40 35 36 40 35 36 40 35 36 40 35 36 40 
35 36 40 34 35 39 34 35 39 34 36 40 34 35 39 35 36 40 35 36 40 35 36 40 
35 36 40 35 36 40 35 36 40 35 36 40 35 36 40 35 36 40 35 36 40 35 36 40 
35 36 40 35 36 40 35 36 40 35 36 40 35 36 40 35 36 40 35 36 40 35 36 40 
35 36 40 35 36 40 35 36 40 36 37 41 36 37 41 36 37 41 36 37 41 37 38 42 
37 38 42 37 38 42 36 37 41 37 38 42 
35 36 40 35 36 40 35 36 40 36 37 41 36 37 41 36 37 41 36 37 41 36 37 41 
36 37 41 36 37 41 36 37 41 36 37 41 36 37 41 36 37 41 36 37 41 36 37 41 
36 37 41 36 37 41 36 37 41 36 37 41 36 37 41 35 36 40 35 37 41 35 36 40 
35 36 40 35 36 40 35 36 40 35 36 40 35 36 40 35 36 40 36 37 41 36 37 41 
36 37 41 36 37 41 36 37 41 36 37 41 36 37 41 36 37 41 36 37 41 36 37 41 
35 36 40 35 36 40 35 36 40 35 36 40 33 35 39 35 36 40 36 37 41 33 35 39 
33 35 39 33 35 39 34 35 39 35 36 40 35 36 40 33 35 39 34 35 39 35 36 40 
35 36 40 35 36 40 35 36 40 35 36 40 36 37 41 36 37 41 35 36 40 35 36 40 
35 36 40 35 36 40 35 36 40 35 36 40 35 36 40 35 36 40 35 36 40 35 36 40 
35 36 40 36 37 41 36 37 41 35 36 40 35 36 40 35 36 40 36 37 41 35 36 40 
35 36 40 35 36 40 34 36 40 33 35 39 33 35 39 33 35 39 33 35 39 34 36 40 
35 36 40 34 35 39 34 35 39 35 36 40 34 35 39 33 35 39 33 35 39 33 35 39 
33 35 39 33 35 39 33 35 39 33 35 39 34 36 40 35 37 41 34 36 40 34 36 40 
33 35 39 33 35 39 33 35 39 33 35 39 33 35 39 34 35 39 34 36 40 34 35 39 
35 36 40 34 35 39 33 35 39 34 36 40 35 36 40 35 36 40 36 37 41 33 35 39 
33 35 39 35 36 40 35 36 40 34 36 40 33 35 39 34 36 40 35 37 41 35 36 40 
34 35 39 33 35 39 33 35 39 33 35 39 33 35 39 33 35 39 35 36 40 35 36 40 
35 36 40 35 36 40 35 36 40 35 36 40 35 36 40 35 34 39 35 34 39 35 34 39 
34 35 39 33 35 39 34 35 39 35 36 40 36 37 41 35 36 40 33 35 39 35 36 40 
35 36 40 33 35 39 34 36 40 35 36 40 34 36 40 34 36 40 35 36 40 35 36 40 
34 35 39 35 36 40 35 36 40 35 36 40 35 36 40 35 36 40 35 36 40 35 36 40 
35 36 40 35 36 40 35 36 40 35 36 40 35 36 40 36 37 41 36 37 41 35 36 40 
35 36 40 35 36 40 36 37 41 34 36 40 34 35 39 36 37 41 34 36 40 35 36 40 
35 37 41 34 36 40 35 36 40 35 36 40 35 36 40 35 36 40 35 36 40 35 36 40 
35 36 40 33 37 42 33 37 42 33 37 42 35 36 40 35 36 40 35 36 40 33 35 39 
34 36 40 35 36 40 35 36 40 35 36 40 35 36 40 34 35 39 35 36 40 35 36 40 
35 36 40 36 37 41 35 36 40 35 36 40 36 37 41 35 36 40 35 36 40 35 36 40 
35 36 40 35 36 40 35 36 40 35 36 40 36 37 41 36 37 41 35 36 40 34 36 40 
35 36 40 35 36 40 35 36 40 35 36 40 35 36 40 36 37 41 36 37 41 35 36 40 
35 36 40 35 36 40 35 36 40 35 36 40 35 36 40 35 36 40 35 36 40 33 37 42 
33 37 42 33 37 42 35 36 40 35 36 40 35 36 40 35 36 40 35 36 40 35 36 40 
35 36 40 35 36 40 35 36 40 35 36 40 35 36 40 35 36 40 35 36 40 35 36 40 
35 36 40 35 36 40 35 36 40 35 36 40 35 36 40 35 36 40 35 36 40 34 36 40 
35 37 41 35 36 40 34 35 39 32 34 38 33 35 39 35 36 40 35 36 40 35 36 40 
35 36 40 35 36 40 35 36 40 35 36 40 35 36 40 35 36 40 35 36 40 35 36 40 
35 36 40 35 36 40 35 36 40 35 36 40 36 37 41 35 36 40 35 36 40 35 36 40 
35 36 40 35 36 40 35 36 40 36 37 41 36 37 41 36 37 41 36 37 41 37 38 42 
37 38 42 37 38 42 36 37 41 37 38 42 
36 37 41 36 37 41 36 37 41 36 37 41 36 37 41 36 37 41 36 37 41 36 38 42 
36 38 42 36 37 41 36 37 41 36 37 41 36 37 41 36 37 41 37 38 42 35 37 41 
36 37 41 35 36 40 35 36 40 35 37 41 36 37 41 36 37 41 35 37 41 35 36 40 
36 37 41 36 37 41 36 37 41 36 37 41 36 37 41 36 37 41 36 37 41 36 37 41 
36 37 41 36 37 41 36 37 41 36 37 41 36 37 41 36 37 41 36 37 41 36 37 41 
35 36 40 34 36 40 35 36 40 35 36 40 32 34 38 34 35 39 36 37 41 33 35 39 
33 35 39 33 35 39 33 35 39 34 36 40 35 36 40 35 36 40 35 36 40 35 36 40 
35 36 40 35 36 40 35 36 40 35 36 40 36 37 41 36 37 41 35 36 40 35 36 40 
36 37 41 36 37 41 36 37 41 36 37 41 35 36 40 36 37 41 36 37 41 36 37 41 
36 37 41 36 37 41 36 37 41 35 36 40 35 36 40 36 37 41 36 37 41 35 36 40 
35 36 40 35 36 40 34 36 40 33 35 39 33 35 39 33 35 39 33 35 39 33 35 39 
33 35 39 35 36 40 35 36 40 35 36 40 35 36 40 35 36 40 35 36 40 34 36 40 
33 35 39 33 35 39 33 35 39 33 35 39 33 35 39 33 35 39 33 35 39 33 35 39 
33 35 39 33 35 39 33 35 39 33 35 39 33 35 39 34 35 39 35 36 40 35 36 40 
35 36 40 35 36 40 34 36 40 35 36 40 36 37 41 36 37 41 35 36 40 33 35 39 
33 35 39 35 36 40 35 36 40 35 36 40 35 36 40 35 36 40 35 36 40 35 36 40 
34 35 39 34 36 40 35 36 40 34 35 39 34 35 39 32 34 38 33 35 39 34 36 40 
35 36 40 35 36 40 34 35 39 34 35 39 35 36 40 34 35 39 35 35 40 36 35 41 
35 36 40 35 36 40 35 36 40 35 36 40 35 36 40 34 36 40 33 35 39 33 35 39 
33 35 39 35 36 40 35 36 40 34 36 40 34 36 40 35 36 40 35 36 40 35 36 40 
35 36 40 35 36 40 35 36 40 35 36 40 35 36 40 35 36 40 35 36 40 35 36 40 
34 36 40 34 35 39 35 36 40 35 36 40 35 36 40 35 36 40 35 36 40 36 37 41 
36 37 41 35 36 40 35 36 40 35 36 40 35 36 40 35 36 40 34 36 40 35 36 40 
35 36 40 35 36 40 35 36 40 35 36 40 35 36 40 35 36 40 35 36 40 35 36 40 
35 36 40 33 37 42 33 37 42 33 37 42 35 36 40 35 36 40 35 36 40 35 36 40 
35 36 40 35 36 40 35 36 40 35 36 40 35 36 40 35 36 40 35 36 40 35 36 40 
35 36 40 35 36 40 36 37 41 36 37 41 35 36 40 35 36 40 35 36 40 35 36 40 
35 36 40 35 36 40 35 36 40 35 36 40 35 36 40 34 35 39 35 36 40 35 36 40 
35 36 40 36 37 41 35 36 40 35 36 40 35 36 40 36 37 41 34 36 40 34 36 40 
35 36 40 35 36 40 35 36 40 35 36 40 35 36 40 35 36 40 35 36 40 35 36 41 
35 36 41 35 36 41 35 36 40 35 36 40 35 36 40 35 36 40 35 36 40 35 36 40 
36 37 41 36 37 41 36 37 41 35 36 40 33 35 39 34 36 40 35 36 40 35 36 40 
35 36 40 35 36 40 36 37 41 36 37 41 36 37 41 35 36 40 35 36 40 35 36 40 
35 36 40 35 36 40 34 36 40 32 34 38 32 34 38 33 35 39 34 35 39 35 36 40 
35 36 40 35 36 40 35 36 40 35 36 40 35 36 40 35 36 40 36 37 41 36 37 41 
35 36 40 35 36 40 36 37 41 36 37 41 36 37 41 35 36 40 35 36 40 36 37 41 
35 36 40 35 36 40 36 37 41 36 37 41 36 37 41 36 37 41 35 36 40 36 37 41 
36 37 41 36 37 41 36 37 41 37 38 42 
33 37 42 33 37 42 33 37 42 36 37 41 36 37 41 36 37 41 35 36 40 36 37 41 
36 37 41 36 37 41 36 37 41 37 38 42 37 38 42 37 38 42 36 37 41 36 37 41 
36 37 41 35 36 40 35 36 40 34 36 40 35 36 40 36 37 41 36 37 41 36 37 41 
36 37 41 36 37 41 36 37 41 36 37 41 36 37 41 36 37 41 36 37 41 36 37 41 
36 37 41 36 37 41 36 37 41 36 37 41 36 37 41 36 37 41 36 37 41 36 37 41 
35 36 40 35 36 40 35 36 40 35 36 40 33 35 39 33 35 39 35 36 40 33 35 39 
33 35 39 34 36 40 34 36 40 34 36 40 35 36 40 35 36 40 35 36 40 35 36 40 
35 36 40 35 36 40 35 36 40 35 36 40 36 37 41 36 37 41 35 36 40 35 36 40 
35 36 40 36 37 41 35 37 41 36 37 41 36 37 41 36 37 41 36 37 41 36 37 41 
35 36 40 36 37 41 36 37 41 35 36 40 34 36 40 35 36 40 36 37 41 35 36 40 
35 36 40 35 36 40 34 36 40 33 35 39 33 35 39 33 35 39 33 35 39 34 35 39 
34 36 40 35 36 40 35 36 40 35 36 40 35 36 40 35 36 40 35 36 40 35 36 40 
34 36 40 34 36 40 33 35 39 34 36 40 34 36 40 34 36 40 34 36 40 34 36 40 
34 36 40 34 36 40 34 35 39 34 36 40 34 36 40 34 35 39 34 35 39 34 36 40 
35 36 40 35 36 40 35 36 40 35 36 40 35 36 40 35 36 40 35 36 40 34 36 40 
34 36 40 34 36 40 33 35 39 35 36 40 36 37 41 36 37 41 35 36 40 35 36 40 
35 36 40 34 36 40 34 36 40 33 35 39 33 35 40 33 35 40 33 35 40 33 35 40 
33 35 40 34 36 41 34 36 40 34 36 40 34 35 39 33 35 39 34 35 39 35 36 40 
34 35 39 35 36 40 35 36 40 35 36 40 35 36 40 35 36 40 34 36 40 34 36 40 
34 36 40 35 36 40 35 36 40 35 36 40 35 36 40 35 36 40 35 36 40 35 36 40 
35 36 40 35 36 40 35 36 40 35 36 40 35 36 40 35 36 40 35 36 40 36 35 41 
35 35 40 35 35 40 35 36 40 35 36 40 35 36 40 35 36 40 35 36 40 36 37 41 
36 37 41 35 36 40 35 36 40 35 36 40 35 36 40 35 37 41 34 36 40 35 36 40 
35 36 40 35 36 40 35 36 40 35 36 40 35 36 40 35 36 40 35 36 40 35 36 40 
35 36 40 34 36 41 34 36 41 34 36 41 35 36 40 36 37 41 36 37 41 35 36 40 
35 36 40 35 36 40 36 37 41 36 37 41 35 36 40 35 36 40 35 36 40 35 36 40 
35 36 40 34 36 40 36 37 41 36 37 41 36 37 41 35 36 40 35 36 40 35 36 40 
35 36 40 35 36 40 35 36 40 35 36 40 35 36 40 35 36 40 36 37 41 35 36 40 
35 36 40 35 36 40 35 36 40 35 36 40 35 36 40 35 36 40 35 36 40 35 36 40 
35 36 40 35 36 40 35 36 40 35 36 40 35 36 40 35 36 40 35 36 40 36 35 42 
36 35 42 36 35 42 35 36 40 35 36 40 35 36 40 35 36 40 35 36 40 35 36 40 
35 36 40 35 36 40 35 36 40 35 36 40 34 36 40 35 36 40 35 36 40 35 36 40 
35 36 40 35 36 40 35 36 40 35 36 40 35 36 40 34 35 39 34 35 39 34 35 39 
34 35 39 34 35 39 34 36 40 32 34 38 33 35 39 34 36 40 35 36 40 35 36 40 
34 35 39 34 35 39 35 36 40 35 36 40 35 36 40 35 36 40 35 36 40 35 36 40 
35 36 40 35 36 40 36 37 41 36 37 41 35 36 40 35 36 40 35 36 40 36 37 41 
35 36 40 35 36 40 36 37 41 35 36 40 36 37 41 36 37 41 35 36 40 35 36 40 
36 37 41 36 37 41 36 37 41 36 37 41 
33 37 42 33 37 42 33 37 42 36 37 41 36 37 41 35 36 40 35 36 40 36 37 41 
36 37 41 36 37 41 36 37 41 37 38 42 37 38 42 37 38 42 36 37 41 36 37 41 
36 37 41 37 38 42 36 38 42 36 37 41 36 37 41 36 37 41 36 37 41 36 37 41 
36 37 41 36 37 41 36 37 41 36 37 41 36 37 41 36 37 41 36 37 41 36 37 41 
36 37 41 36 37 41 36 37 41 36 37 41 36 37 41 35 36 40 35 36 40 36 37 41 
35 36 40 35 36 40 35 36 40 35 36 40 34 36 40 33 35 39 34 36 40 33 35 39 
34 35 39 35 36 40 35 36 40 35 36 40 35 36 40 35 36 40 35 36 40 35 36 40 
35 36 40 35 36 40 35 36 40 35 36 40 36 37 41 36 37 41 35 36 40 35 36 40 
35 36 40 35 37 41 35 37 41 36 37 41 36 37 41 36 37 41 36 37 41 36 37 41 
35 36 40 36 37 41 36 37 41 35 36 40 34 36 40 35 36 40 36 37 41 35 36 40 
35 36 40 35 36 40 34 36 40 33 35 39 33 35 39 33 35 39 33 35 39 34 35 39 
35 36 40 35 36 40 35 36 40 35 36 40 35 36 40 35 36 40 35 36 40 35 36 40 
35 36 40 35 36 40 33 35 39 34 36 40 35 36 40 35 36 40 35 36 40 35 36 40 
35 36 40 35 36 40 35 36 40 36 37 41 35 36 40 34 35 39 33 35 39 35 36 40 
35 36 40 35 36 40 35 36 40 35 36 40 35 36 40 35 36 40 35 36 40 35 36 40 
35 36 40 34 36 40 33 35 39 35 36 40 36 37 41 35 36 40 35 36 40 35 36 40 
35 36 40 34 35 39 33 35 39 33 35 39 33 35 40 32 35 41 32 35 41 32 35 41 
32 35 41 33 37 42 34 36 41 34 36 40 33 35 39 33 35 39 33 35 39 34 35 39 
33 35 39 34 36 40 35 36 40 35 36 40 35 36 40 35 36 40 35 36 40 35 36 40 
35 36 40 35 36 40 35 36 40 35 36 40 35 36 40 35 36 40 35 36 40 35 36 40 
35 36 40 35 36 40 35 36 40 35 36 40 35 36 40 35 36 40 35 36 40 36 35 41 
36 35 41 35 35 40 35 36 40 35 36 40 35 36 40 35 36 40 35 36 40 36 37 41 
36 37 41 35 36 40 35 36 40 35 36 40 35 36 40 35 37 41 34 36 40 35 36 40 
35 36 40 36 37 41 35 36 40 35 36 40 35 36 40 35 36 40 35 36 40 35 36 40 
35 36 40 35 36 40 35 36 40 35 36 40 35 36 40 36 37 41 36 37 41 35 36 40 
35 36 40 35 36 40 36 37 41 36 37 41 35 36 40 35 36 40 35 36 40 35 36 40 
35 36 40 34 36 40 36 37 41 36 37 41 36 37 41 35 36 40 35 36 40 35 36 40 
35 36 40 35 36 40 35 36 40 35 36 40 35 36 40 36 37 41 36 37 41 35 36 40 
35 36 40 35 36 40 35 36 40 35 36 40 35 36 40 35 36 40 35 36 40 35 36 40 
35 36 40 35 36 40 35 36 40 35 36 40 35 36 40 35 36 40 35 36 40 36 35 42 
36 35 42 36 35 42 35 36 40 35 36 40 35 36 40 35 36 40 35 36 40 35 36 40 
35 36 40 35 36 40 35 36 40 35 36 40 35 36 40 35 36 40 35 36 40 35 36 40 
35 36 40 35 36 40 35 36 40 34 36 40 34 36 40 33 35 39 33 35 39 33 35 39 
33 35 39 33 35 39 34 36 40 33 35 39 33 35 39 34 35 39 35 36 40 35 36 40 
33 35 39 34 35 39 35 36 40 35 36 40 35 36 40 35 36 40 35 36 40 35 36 40 
35 36 40 35 36 40 34 36 40 35 36 40 35 36 40 35 36 40 35 36 40 36 37 41 
35 36 40 35 36 40 35 36 40 35 36 40 36 37 41 36 37 41 35 36 40 34 36 40 
36 37 41 36 37 41 36 37 41 36 37 41 
33 37 42 33 37 42 33 37 42 36 37 41 36 37 41 35 36 40 35 36 40 36 37 41 
36 37 41 36 37 41 36 37 41 36 37 41 36 37 41 36 37 41 36 37 41 36 37 41 
36 37 41 36 37 41 36 37 41 37 38 42 36 37 41 36 37 41 36 37 41 36 37 41 
35 37 41 36 37 41 36 37 41 36 37 41 36 37 41 36 37 41 36 37 41 36 37 41 
36 37 41 36 37 41 36 37 41 36 37 41 35 36 40 35 36 40 35 36 40 35 36 40 
35 37 41 35 36 41 35 36 41 35 36 40 34 36 40 33 35 39 33 35 39 34 35 39 
35 36 40 35 36 40 35 36 40 35 36 40 35 36 40 35 36 40 35 36 40 35 36 40 
35 36 40 35 36 40 35 36 40 35 36 40 36 37 41 36 37 41 35 36 40 35 36 40 
35 36 40 35 36 40 36 37 41 36 37 41 35 36 40 36 37 41 36 37 41 36 37 41 
35 36 40 36 37 41 36 37 41 35 36 40 34 35 39 35 37 41 36 37 41 35 36 40 
35 36 40 34 36 40 33 35 39 33 35 39 33 35 39 33 35 39 33 35 39 34 35 39 
34 36 40 35 36 40 35 36 40 35 36 40 35 36 40 35 36 40 35 36 40 35 36 40 
35 36 40 35 36 40 34 35 39 34 36 40 35 36 40 35 36 40 35 36 40 35 36 40 
35 36 40 35 36 40 35 36 40 35 36 40 35 36 40 35 36 40 34 36 40 35 36 40 
35 36 40 35 36 40 35 36 40 35 36 40 35 36 40 35 36 40 35 36 40 35 36 40 
35 36 40 35 36 40 35 36 40 35 36 40 35 36 40 35 36 40 35 36 40 35 36 40 
34 35 39 33 35 39 33 35 39 34 35 39 33 35 40 32 35 41 33 37 42 33 37 42 
34 36 41 32 35 41 34 35 40 34 36 40 33 35 39 33 35 39 33 35 39 33 35 39 
33 35 39 33 35 39 34 35 39 35 36 40 35 36 40 35 36 40 35 36 40 35 36 40 
34 36 40 35 36 40 35 36 40 35 36 40 35 36 40 35 36 40 35 36 40 34 35 39 
33 35 39 35 36 40 34 36 40 33 35 39 33 35 39 33 35 39 33 35 39 35 34 39 
35 34 39 34 34 39 33 35 39 34 35 39 35 36 40 35 36 40 35 36 40 35 36 40 
36 35 41 35 36 40 35 36 40 35 36 40 35 36 40 35 36 40 35 36 40 35 36 40 
35 36 40 35 36 40 35 36 40 35 36 40 34 35 39 33 35 39 33 35 39 35 35 40 
35 36 40 33 35 39 33 35 39 33 35 39 35 36 40 35 36 40 35 36 40 34 36 40 
34 36 40 34 36 40 35 36 40 35 36 40 34 36 40 34 36 40 35 36 40 35 36 40 
35 36 40 34 36 40 35 36 40 34 36 40 34 36 40 34 36 40 35 36 40 35 36 40 
35 36 40 35 36 40 35 36 40 35 36 40 35 36 40 35 36 40 35 36 40 35 36 40 
35 36 40 35 36 40 35 36 40 35 36 40 35 36 40 35 36 40 35 36 40 35 36 40 
35 36 40 35 36 40 34 36 40 34 35 39 34 36 40 35 36 40 35 36 40 36 35 41 
36 35 42 36 35 42 35 36 40 35 36 40 35 36 40 35 36 40 35 36 40 35 36 40 
35 36 40 35 36 40 35 36 40 35 36 40 35 36 40 35 36 40 35 36 40 35 36 40 
35 36 40 35 36 40 35 36 40 35 36 40 35 36 40 35 36 40 34 35 39 33 35 39 
34 35 39 35 36 40 36 37 41 35 36 40 33 35 39 32 34 38 35 36 40 34 35 39 
34 35 39 34 35 39 35 36 40 35 36 40 35 36 40 35 36 40 35 36 40 35 36 40 
35 36 40 35 36 40 35 36 40 35 36 40 36 37 41 35 36 40 35 36 40 35 36 40 
35 36 40 35 36 40 35 36 40 35 36 40 35 36 40 35 36 40 35 36 40 35 36 40 
35 37 41 35 37 41 36 37 41 36 37 41 
34 36 41 34 36 41 34 36 41 35 36 40 35 36 40 36 37 41 36 37 41 36 37 41 
36 37 41 36 37 41 36 37 41 36 37 41 36 37 41 37 38 42 37 38 42 37 38 42 
37 38 42 36 37 41 36 37 41 37 38 42 36 37 41 36 37 41 37 38 42 36 37 41 
35 36 40 35 36 40 36 37 41 37 38 42 37 38 42 36 37 41 36 37 41 36 37 41 
36 37 41 36 37 41 36 37 41 36 37 41 35 36 40 35 36 40 36 37 41 36 37 41 
33 37 42 33 37 42 33 37 42 35 36 40 34 35 39 33 35 39 33 35 39 34 35 39 
35 36 40 35 36 40 35 36 40 35 36 40 35 36 40 35 36 40 35 36 40 35 36 40 
34 36 40 35 37 41 35 37 41 35 36 40 35 36 40 35 36 40 36 37 41 36 37 41 
35 36 40 36 37 41 36 37 41 36 37 41 36 37 41 36 37 41 36 37 41 36 37 41 
36 37 41 36 37 41 36 37 41 35 36 40 34 36 40 35 36 40 35 36 40 35 36 40 
34 36 40 33 35 39 33 35 39 34 34 39 35 34 39 35 34 40 34 35 40 33 35 39 
33 35 39 34 35 39 34 35 39 35 36 40 35 36 40 35 36 40 35 36 40 35 36 40 
35 36 40 35 36 40 35 36 40 35 36 40 35 36 40 35 36 40 35 36 40 35 36 40 
35 36 40 35 36 40 35 36 40 35 36 40 35 36 40 35 36 40 36 37 41 36 37 41 
36 37 41 35 36 40 35 36 40 35 36 40 35 36 40 35 36 40 35 36 40 35 36 40 
35 36 40 35 36 40 35 36 40 35 36 40 35 36 40 35 36 40 35 36 40 35 36 40 
35 36 40 34 36 40 34 36 40 34 36 40 34 35 40 33 35 40 33 35 40 33 35 40 
33 35 40 33 35 40 34 36 40 34 36 40 33 35 39 34 36 40 34 36 40 33 35 39 
33 35 39 33 35 39 33 35 39 34 35 39 34 35 39 34 35 39 34 35 39 34 35 39 
33 35 39 34 35 39 34 35 39 34 35 39 34 35 39 35 36 40 35 36 40 34 35 39 
34 35 39 34 35 39 34 36 40 33 35 39 33 35 39 33 35 39 33 35 39 35 34 39 
35 34 39 34 34 39 33 35 39 33 35 39 34 35 39 35 34 39 35 34 39 35 35 40 
35 36 40 34 35 39 34 36 40 34 35 39 34 35 39 34 35 39 34 35 39 35 36 40 
35 36 40 35 36 40 35 36 40 35 35 40 34 34 39 34 34 39 34 34 39 35 34 39 
35 34 39 33 35 39 33 35 39 33 35 39 35 34 39 35 34 39 34 34 39 33 35 39 
33 35 39 33 35 39 34 35 39 34 35 39 34 35 39 33 35 39 33 35 39 34 35 39 
34 35 39 33 35 39 33 35 39 33 35 39 33 35 39 33 35 39 34 35 39 35 36 40 
36 37 41 36 37 41 35 36 40 35 36 40 35 36 40 36 37 41 36 37 41 35 36 40 
35 36 40 35 36 40 35 36 40 35 36 40 35 36 40 35 36 40 35 36 40 35 36 40 
34 36 40 35 36 40 35 36 40 34 36 40 34 35 39 34 35 39 34 35 39 35 34 40 
36 35 41 36 35 42 34 35 39 34 35 39 35 36 40 34 35 39 34 36 40 35 36 40 
35 36 40 35 36 40 35 36 40 35 36 40 34 35 39 34 36 40 35 36 40 35 36 40 
35 36 40 35 36 40 35 36 40 35 36 40 35 36 40 35 36 40 35 36 40 34 36 40 
35 36 40 35 36 40 35 36 40 35 36 40 34 36 40 34 35 39 35 36 40 34 36 40 
34 36 40 35 36 40 35 36 40 35 36 40 35 36 40 35 36 40 35 36 40 34 36 40 
35 36 40 35 36 40 35 36 40 35 36 40 35 36 40 35 36 40 35 36 40 35 36 40 
35 36 40 35 36 40 34 36 40 34 35 39 34 36 40 35 36 40 35 36 40 36 37 41 
35 37 41 33 37 42 35 38 42 35 38 42 
35 36 40 35 36 40 35 36 40 35 36 40 34 35 39 35 36 40 36 37 41 36 37 41 
36 37 41 36 37 41 36 37 41 36 37 41 36 37 41 36 37 41 37 38 42 37 38 42 
37 39 43 36 37 41 37 38 42 37 39 43 36 37 41 36 37 41 37 38 42 37 38 42 
36 37 41 35 37 41 36 37 41 36 37 41 37 38 42 36 37 41 36 37 41 36 37 41 
36 37 41 36 37 41 36 37 41 36 37 41 35 36 40 35 36 40 35 36 40 36 37 41 
33 37 42 33 37 42 33 37 43 35 36 40 34 35 39 33 35 39 33 35 39 34 35 39 
35 36 40 35 36 40 35 36 40 35 36 40 35 36 40 35 36 40 34 36 40 34 36 40 
34 36 40 35 36 40 34 36 40 35 36 40 35 36 40 35 36 40 36 37 41 35 36 40 
35 36 40 36 37 41 36 37 41 36 37 41 36 37 41 36 37 41 36 37 41 36 37 41 
36 37 41 36 37 41 36 37 41 35 36 40 35 36 40 35 36 40 35 36 40 35 36 40 
35 36 40 34 35 39 34 35 39 35 34 39 35 34 40 36 35 42 35 35 40 34 35 40 
34 35 39 34 35 39 34 35 39 35 36 40 35 36 40 35 36 40 35 36 40 35 36 40 
35 36 40 35 36 40 35 36 40 35 36 40 35 36 40 35 36 40 35 36 40 35 36 40 
35 36 40 35 36 40 35 36 40 35 36 40 35 36 40 35 36 40 36 37 41 36 37 41 
36 37 41 35 36 40 34 36 40 35 36 40 35 36 40 35 36 40 35 36 40 35 36 40 
35 36 40 35 36 40 35 36 40 35 36 40 35 36 40 35 36 40 35 36 40 35 36 40 
35 36 40 35 36 40 34 36 40 34 35 39 34 35 39 33 35 39 33 35 39 33 35 39 
33 35 39 34 35 39 34 36 40 35 36 40 34 36 40 35 36 40 34 36 40 33 35 39 
33 35 39 33 35 39 33 35 39 33 35 39 33 35 39 33 35 39 33 35 39 33 35 39 
33 35 39 33 35 39 33 35 39 33 35 39 33 35 39 34 36 40 34 36 40 34 35 39 
34 35 39 33 35 39 33 35 39 33 35 39 33 35 39 33 35 39 34 35 39 35 34 39 
35 34 39 34 34 39 33 35 39 33 35 39 34 35 39 35 34 39 35 34 39 35 35 40 
35 36 40 34 36 40 34 36 40 33 35 39 33 35 39 33 35 39 33 35 39 34 36 40 
34 36 40 34 36 40 34 35 40 35 34 39 35 34 39 35 34 39 35 34 39 35 34 40 
35 34 40 34 35 40 33 35 39 33 35 39 35 34 40 35 34 40 35 35 40 34 35 39 
34 35 39 34 35 39 34 35 39 35 36 40 34 35 39 33 35 39 33 35 39 33 35 39 
33 35 39 33 35 39 34 35 39 34 35 39 34 35 39 34 35 39 34 35 39 35 36 40 
35 37 41 35 36 40 36 37 41 36 37 41 36 37 41 36 37 41 36 37 41 35 36 40 
35 36 40 35 36 40 35 36 40 35 36 40 35 36 40 35 36 40 35 36 40 34 35 39 
33 35 39 34 36 40 35 36 40 35 36 40 34 35 39 33 35 39 33 35 39 35 34 39 
36 35 41 36 35 42 33 35 39 34 35 39 34 35 39 33 35 39 33 35 39 34 36 40 
35 36 40 35 36 40 35 36 40 35 36 40 35 36 40 35 36 40 35 36 40 34 36 40 
35 36 40 35 36 40 35 36 40 35 36 40 35 36 40 35 36 40 35 36 40 35 36 40 
35 36 40 35 36 40 35 36 40 35 36 40 35 36 40 35 36 40 35 36 40 35 36 40 
35 36 40 35 36 40 35 36 40 35 36 40 35 36 40 35 36 40 35 36 40 34 36 40 
35 36 40 35 36 40 35 36 40 35 36 40 35 36 40 35 36 40 35 36 40 35 36 40 
35 36 40 35 36 40 35 36 40 34 35 39 34 36 40 35 36 40 35 36 40 35 36 40 
34 36 41 33 37 42 34 38 43 34 38 41 
35 36 40 35 36 40 35 37 41 35 36 40 34 36 40 35 36 40 35 36 40 36 37 41 
36 37 41 36 37 41 36 37 41 36 37 41 36 37 41 36 37 41 36 37 41 36 37 41 
37 38 42 37 38 42 37 38 42 36 38 42 36 37 41 36 37 41 36 37 41 36 37 41 
36 37 41 36 37 41 36 37 41 36 37 41 36 37 41 36 37 41 36 37 41 36 37 41 
36 37 41 36 37 41 36 37 41 36 37 41 36 37 41 36 37 41 35 36 40 35 36 40 
34 36 41 33 37 42 33 37 42 35 36 40 34 36 40 34 35 39 34 35 39 34 35 39 
35 36 40 35 36 40 35 36 40 35 36 40 35 36 40 35 36 40 34 35 39 34 35 39 
35 36 40 35 36 40 34 35 39 35 36 40 34 36 40 36 37 41 35 36 40 35 36 40 
35 36 40 36 37 41 36 37 41 36 37 41 36 37 41 36 37 41 36 37 41 36 37 41 
35 37 41 35 36 40 35 36 40 35 36 40 35 36 40 35 36 40 35 36 40 35 36 40 
35 36 40 36 37 41 35 36 40 35 34 39 35 35 40 35 35 40 35 36 40 35 36 40 
35 36 40 35 36 40 35 36 40 35 36 40 35 36 40 35 36 40 35 36 40 35 36 40 
35 36 40 35 36 40 35 36 40 35 36 40 35 36 40 35 36 40 35 36 40 35 36 40 
35 36 40 35 36 40 35 36 40 35 36 40 35 36 40 35 36 40 35 36 40 36 37 41 
36 37 41 35 36 40 34 35 39 35 36 40 35 36 40 35 36 40 35 36 40 35 36 40 
34 36 40 34 36 40 35 36 40 35 36 40 35 36 40 35 36 40 35 36 40 35 36 40 
35 36 40 35 36 40 35 36 40 34 35 39 34 35 39 33 35 39 33 35 39 33 35 39 
33 35 39 34 35 39 34 36 40 35 36 40 35 36 40 35 36 40 34 36 40 33 35 39 
33 35 39 33 35 39 33 35 39 33 35 39 33 35 39 33 35 39 33 35 39 33 35 39 
33 35 39 33 35 39 33 35 39 33 35 39 34 35 39 34 35 39 34 35 39 34 35 39 
34 35 39 33 35 39 33 35 39 33 35 39 33 35 39 34 35 39 35 36 40 35 34 39 
35 34 39 34 34 39 33 35 39 33 35 39 34 35 39 34 34 39 35 34 39 35 35 40 
35 36 40 35 36 40 34 36 40 33 35 39 33 35 39 33 35 39 33 35 39 33 35 39 
33 35 39 33 35 39 33 35 39 34 35 39 35 34 39 35 34 39 35 34 39 36 35 41 
36 35 41 35 36 40 33 35 39 33 35 39 36 35 42 36 35 42 36 35 41 35 36 40 
35 36 40 35 36 40 35 36 40 35 36 40 34 35 39 34 35 39 34 35 39 34 35 39 
34 35 39 35 36 40 35 36 40 35 36 40 35 36 40 35 36 40 34 36 40 33 35 39 
34 36 40 35 36 40 35 36 40 35 36 40 36 37 41 36 37 41 36 37 41 35 36 40 
35 36 40 35 36 40 35 36 40 35 36 40 35 36 40 35 36 40 35 36 40 35 36 40 
34 35 39 35 36 40 35 36 40 35 36 40 34 35 39 33 35 39 33 35 39 34 34 39 
36 35 41 36 35 41 34 35 39 33 35 39 33 35 39 34 35 40 34 36 40 34 36 40 
35 36 40 34 36 40 34 36 40 35 36 40 35 36 40 35 36 40 35 36 40 34 35 39 
34 36 40 35 36 40 35 36 40 35 36 40 35 36 40 35 36 41 35 36 40 35 36 40 
35 36 40 35 36 40 35 36 40 35 36 40 35 36 40 35 36 40 35 36 40 35 36 40 
35 36 40 35 36 40 35 36 40 35 36 40 35 36 40 35 36 40 35 36 40 34 36 40 
35 36 40 35 36 40 35 36 40 35 36 40 35 36 40 35 36 40 35 36 40 35 36 40 
35 36 40 35 36 40 35 36 40 35 36 40 35 36 40 35 36 40 35 36 40 35 36 40 
34 36 41 34 36 41 34 38 41 35 38 42 
35 36 40 35 36 40 35 36 40 35 36 40 35 36 40 35 36 40 35 36 40 35 36 40 
36 37 41 36 37 41 36 37 41 36 37 41 36 37 41 36 37 41 36 37 41 36 37 41 
36 37 41 37 38 42 37 38 42 36 37 41 36 37 41 36 37 41 36 37 41 36 37 41 
36 37 41 36 37 41 36 37 41 36 37 41 36 37 41 36 37 41 36 37 41 36 37 41 
36 37 41 36 37 41 36 37 41 36 37 41 36 37 41 36 37 41 35 36 40 35 36 40 
35 36 40 35 36 40 35 36 40 35 36 40 35 36 40 35 36 40 34 36 40 34 35 39 
34 35 39 35 36 40 35 36 40 35 36 40 35 36 40 35 36 40 35 36 40 35 36 40 
35 36 40 35 36 40 35 36 40 35 36 40 34 36 40 36 37 41 35 36 40 35 36 40 
35 36 40 36 37 41 36 37 41 36 37 41 35 36 40 35 36 40 35 36 40 35 36 40 
35 36 40 35 36 40 35 36 40 35 36 40 35 36 40 35 36 40 35 35 40 35 35 40 
36 35 41 35 36 40 35 36 40 35 36 40 34 36 40 35 36 40 35 36 40 35 36 40 
36 37 41 36 37 41 36 37 41 35 36 40 36 37 41 35 36 40 35 36 40 36 37 41 
36 37 41 35 36 40 35 36 40 35 36 40 35 36 40 35 36 40 35 36 40 35 36 40 
35 36 40 35 36 40 35 36 40 35 36 40 35 36 40 35 36 40 35 36 40 36 37 41 
36 37 41 35 36 40 35 36 40 35 36 40 35 36 40 35 36 40 35 36 40 34 35 39 
33 35 39 33 35 39 33 35 39 33 35 39 34 35 39 35 36 40 35 36 40 35 36 40 
35 36 40 35 36 40 35 36 40 35 36 40 34 35 39 33 35 39 33 35 39 33 35 39 
33 35 39 33 35 39 33 35 39 33 35 39 33 35 39 33 35 39 33 35 39 33 35 39 
33 35 39 33 35 39 33 35 39 33 35 39 33 35 39 33 35 39 33 35 39 33 35 39 
33 35 39 33 35 39 33 35 39 34 35 39 35 34 39 35 34 39 35 34 39 35 34 39 
35 34 39 33 35 39 33 35 39 33 35 39 33 35 39 33 35 39 33 35 39 33 35 39 
33 35 39 33 35 39 33 35 39 33 35 39 33 35 39 33 35 39 33 35 39 33 35 39 
33 35 39 35 36 40 34 36 40 33 35 39 33 35 39 33 35 39 33 35 39 33 35 39 
34 35 39 34 35 39 33 35 39 33 35 39 34 35 39 35 36 40 35 36 40 35 36 40 
35 36 40 35 36 40 34 35 39 33 35 39 35 36 40 35 36 40 35 36 40 35 36 40 
35 36 40 35 36 40 35 36 40 35 36 40 35 36 40 35 36 40 35 36 40 35 36 40 
35 36 40 35 36 40 35 36 40 35 36 40 35 36 40 35 36 40 34 36 40 33 35 39 
34 36 40 35 36 40 35 36 40 34 36 40 35 36 40 35 36 40 35 36 40 35 36 40 
35 36 40 35 36 40 35 36 40 35 36 40 35 36 40 35 36 40 35 36 40 35 36 40 
35 36 40 35 36 40 34 36 40 34 35 39 33 35 39 33 35 39 33 35 39 33 35 39 
35 36 40 35 35 40 33 35 39 33 35 39 33 35 39 35 35 40 35 35 40 35 35 40 
34 36 40 33 35 39 34 35 39 35 34 40 35 35 40 35 35 40 35 34 39 35 34 39 
35 34 39 35 35 40 35 35 40 35 34 40 35 35 40 36 35 41 36 35 41 35 36 40 
35 36 40 35 36 40 35 36 40 35 36 40 35 36 40 35 36 40 35 36 40 35 36 40 
35 36 40 35 36 40 35 36 40 35 36 40 35 36 40 35 36 40 35 36 40 35 36 40 
35 36 40 35 36 40 35 36 40 35 36 40 35 36 40 35 36 40 35 36 40 35 36 40 
35 36 40 35 36 40 35 36 40 35 36 40 35 36 40 35 36 40 35 36 40 35 36 40 
35 36 40 35 36 40 35 37 41 36 37 41 
35 36 40 35 36 40 35 36 40 35 36 40 35 36 40 35 36 40 35 36 40 35 36 40 
36 37 41 36 37 41 36 37 41 36 37 41 37 38 42 36 37 41 36 37 41 36 37 41 
36 37 41 36 37 41 36 37 41 36 37 41 36 37 41 36 37 41 36 37 41 36 37 41 
36 37 41 36 37 41 36 37 41 36 37 41 36 37 41 36 37 41 36 37 41 36 37 41 
36 37 41 36 37 41 36 37 41 36 37 41 36 37 41 36 37 41 35 36 40 35 36 40 
35 36 40 35 36 40 35 36 40 35 36 40 35 36 40 35 36 40 35 36 40 34 36 40 
34 36 40 35 36 40 35 36 40 35 36 40 35 36 40 35 36 40 35 36 40 35 36 40 
35 36 40 35 36 40 35 36 40 35 36 40 35 36 40 35 36 40 35 36 40 35 36 40 
35 36 40 35 36 40 35 36 40 35 36 40 35 36 40 35 36 40 35 36 40 35 36 40 
35 36 40 35 36 40 35 36 40 35 36 40 35 36 40 35 36 40 34 36 41 34 36 41 
35 36 41 35 36 40 34 35 39 34 36 40 35 36 40 35 36 40 35 36 40 35 36 40 
35 36 40 36 37 41 36 37 41 35 36 40 36 37 41 36 37 41 35 36 40 36 37 41 
36 37 41 36 37 41 36 37 41 35 36 40 35 36 40 35 36 40 35 36 40 35 36 40 
35 36 40 35 36 40 35 36 40 35 36 40 35 36 40 35 36 40 35 36 40 36 37 41 
36 37 41 35 36 40 35 36 40 35 36 40 35 36 40 35 36 40 35 36 40 35 36 40 
34 36 40 33 35 39 33 35 39 33 35 39 34 36 40 35 36 40 35 36 40 35 36 40 
35 36 40 34 36 40 34 35 39 35 36 40 34 35 39 33 35 39 33 35 39 33 35 39 
33 35 39 33 35 39 33 35 39 33 35 39 33 35 39 33 35 39 33 35 39 33 35 39 
33 35 39 33 35 39 33 35 39 33 35 39 33 35 39 33 35 39 33 35 39 33 35 39 
33 35 39 33 35 39 33 35 39 34 35 39 35 34 39 35 34 39 35 34 39 35 34 39 
35 34 40 34 35 40 34 36 40 34 36 40 33 35 39 33 35 39 33 35 39 33 35 39 
33 35 39 33 35 39 33 35 39 33 35 39 33 35 39 33 35 39 33 35 39 33 35 39 
33 35 39 34 35 39 34 35 39 32 34 38 33 35 39 33 35 39 33 35 39 33 35 39 
33 35 39 33 35 39 33 35 39 33 35 39 33 35 39 34 36 40 35 36 40 36 37 41 
35 36 40 35 36 40 35 36 40 34 36 40 35 36 40 35 36 40 35 36 40 35 36 40 
35 36 40 35 36 40 35 36 40 35 36 40 35 36 40 35 36 40 34 36 40 34 35 39 
34 35 39 35 36 40 35 36 40 35 36 40 34 36 40 34 36 40 34 36 40 33 35 39 
34 36 40 35 36 40 35 36 40 35 36 40 35 36 40 35 36 40 35 36 40 35 36 40 
35 36 40 35 36 40 35 36 40 35 36 40 35 36 40 35 36 40 35 36 40 35 36 40 
35 36 40 35 36 40 35 36 40 34 36 40 33 35 39 33 35 39 34 35 39 33 35 39 
34 36 40 35 36 40 33 35 39 33 35 39 32 34 39 35 35 40 36 35 39 34 35 39 
34 35 39 33 35 39 34 34 39 35 34 39 35 34 40 35 34 39 35 34 39 35 34 39 
35 34 39 35 34 39 35 34 40 35 34 39 35 34 39 35 35 40 34 35 40 34 35 39 
34 35 39 34 35 39 34 35 39 34 35 39 35 36 40 34 35 39 34 35 39 35 36 40 
35 36 40 35 36 40 35 36 40 35 36 40 35 36 40 35 36 40 35 36 40 35 36 40 
35 36 40 35 36 40 35 36 40 35 36 40 35 36 40 35 36 40 35 36 40 35 36 40 
35 36 40 35 36 40 35 36 40 35 36 40 35 36 40 35 36 40 35 36 40 35 36 40 
35 36 40 35 36 40 36 37 41 36 37 41 
35 36 40 34 36 40 35 36 40 35 36 40 35 36 40 35 36 40 35 36 40 35 36 40 
36 37 41 36 37 41 35 36 40 35 36 40 36 37 41 36 37 41 36 37 41 36 37 41 
36 37 41 36 37 41 36 37 41 36 37 41 36 37 41 36 37 41 36 37 41 36 37 41 
36 37 41 36 37 41 36 37 41 36 37 41 36 37 41 36 37 41 36 37 41 36 37 41 
36 35 41 36 37 42 36 37 41 36 37 41 35 36 40 36 37 41 35 36 40 35 36 40 
35 36 40 35 36 40 35 36 40 35 36 40 35 36 40 35 36 40 35 36 40 35 36 40 
34 36 40 35 36 40 35 36 40 35 36 40 35 36 40 35 36 40 35 36 40 35 36 40 
34 36 40 35 36 40 35 36 40 35 36 40 35 36 40 35 36 40 34 35 39 34 36 40 
35 36 40 35 36 40 35 36 40 35 36 40 35 36 40 35 36 40 35 36 40 35 36 40 
35 36 40 35 36 40 34 36 40 35 36 40 35 36 40 35 36 40 33 37 42 33 37 43 
35 37 41 35 36 40 34 35 39 34 35 39 34 35 39 34 36 40 35 36 40 35 36 40 
35 36 40 36 37 41 36 37 41 35 36 40 36 37 41 36 37 41 35 36 40 36 37 41 
36 37 41 36 37 41 36 37 41 35 36 40 35 36 40 35 36 40 35 36 40 35 36 40 
35 36 40 35 36 40 35 36 40 35 36 40 35 36 40 35 36 40 35 36 40 36 37 41 
35 37 41 34 36 40 35 36 40 35 36 40 35 36 40 35 36 40 35 36 40 35 36 40 
35 36 40 34 35 39 34 35 39 34 35 39 35 36 40 35 36 40 35 36 40 35 36 40 
35 36 40 34 35 39 33 35 39 33 35 39 33 35 39 33 35 39 33 35 39 33 35 39 
33 35 39 33 35 39 33 35 39 33 35 39 33 35 39 33 35 39 33 35 39 33 35 39 
33 35 39 33 35 39 33 35 39 33 35 39 33 35 39 33 35 39 34 35 39 33 35 39 
33 35 39 34 35 40 34 35 39 34 34 39 35 34 39 35 34 39 35 34 39 35 34 39 
35 34 40 35 36 40 35 36 40 35 36 40 33 35 39 33 35 39 33 35 39 33 35 39 
33 35 39 33 35 39 33 35 39 33 35 39 34 35 39 33 35 39 33 35 39 33 35 39 
33 35 39 34 35 39 34 35 39 32 34 38 33 35 39 33 35 39 33 35 39 33 35 39 
33 35 39 33 35 39 33 35 39 33 35 39 33 35 39 33 35 39 34 36 40 34 36 40 
34 36 40 35 36 40 35 36 40 35 36 40 35 36 40 35 36 40 35 36 40 35 36 40 
35 36 40 35 36 40 35 36 40 35 36 40 35 36 40 35 36 40 33 35 39 33 35 39 
33 35 39 34 36 40 35 36 40 35 36 40 33 35 39 33 35 39 33 35 39 33 35 39 
34 36 40 35 36 40 35 36 40 35 36 40 35 36 40 34 36 40 34 35 39 35 36 40 
35 36 40 34 35 39 34 35 39 35 36 40 36 35 41 35 36 40 35 36 40 35 36 40 
35 36 40 35 36 40 35 36 40 35 36 40 34 35 39 34 36 40 35 36 40 34 35 39 
34 36 40 35 36 40 34 35 39 34 35 39 34 34 39 35 34 40 35 34 39 34 35 39 
34 35 40 34 35 39 34 34 39 35 34 39 35 34 39 35 34 39 35 34 39 35 34 39 
35 34 39 35 34 39 34 34 39 35 34 39 35 34 39 35 34 39 34 35 39 34 35 39 
34 35 39 34 35 39 34 35 39 34 35 39 35 36 40 33 35 39 33 35 39 35 36 40 
35 36 40 35 36 40 35 36 40 35 36 40 35 36 40 35 36 40 36 37 41 35 36 40 
35 36 40 35 36 40 35 36 40 35 36 40 35 36 40 34 36 40 35 36 40 35 36 40 
35 36 40 35 36 40 34 36 40 35 36 40 35 36 40 35 36 40 35 36 40 35 36 40 
35 36 40 35 36 40 36 37 41 36 37 41 
35 36 40 35 36 40 35 36 40 34 36 40 35 36 40 35 36 40 35 36 40 36 37 41 
36 37 41 36 37 41 35 36 40 34 36 40 35 36 40 36 37 41 36 37 41 36 37 41 
36 37 41 36 37 41 36 37 41 36 37 41 36 37 41 36 37 41 36 37 41 36 37 41 
36 37 41 36 37 41 36 37 41 36 37 41 36 37 41 36 37 41 36 37 41 36 37 41 
36 35 42 37 36 43 36 35 42 35 36 40 35 36 40 35 36 40 35 36 40 35 36 40 
35 36 40 35 36 40 35 36 40 35 36 40 35 36 40 35 36 40 35 36 40 35 36 40 
35 36 40 35 36 40 35 36 40 35 36 40 35 36 40 35 36 40 35 36 40 35 36 40 
34 36 40 35 36 40 35 36 40 36 37 41 36 37 41 35 36 40 35 36 40 35 36 40 
35 36 40 35 36 40 35 36 40 35 36 40 35 36 40 35 36 40 35 36 40 35 36 40 
35 36 40 35 36 40 35 36 40 35 36 40 35 36 40 35 36 40 35 36 40 35 36 40 
35 36 41 35 36 40 35 36 40 34 35 39 33 35 39 33 35 39 35 36 40 35 36 40 
35 36 40 35 36 40 35 36 40 35 36 40 35 36 40 35 36 40 35 36 40 35 36 40 
36 37 41 36 37 41 35 36 40 35 36 40 35 36 40 35 36 40 35 36 40 35 36 40 
35 36 40 35 36 40 35 36 40 35 36 40 35 36 40 35 36 40 35 36 40 35 36 40 
35 36 40 35 36 40 35 36 40 35 36 40 35 36 40 35 36 40 35 36 40 35 36 40 
35 36 40 35 36 40 35 36 40 35 36 40 35 36 40 35 36 40 35 36 40 35 36 40 
35 36 40 34 35 39 33 35 39 33 35 39 33 35 39 33 35 39 33 35 39 33 35 39 
33 35 39 33 35 39 33 35 39 33 35 39 33 35 39 33 35 39 33 35 39 33 35 39 
33 35 39 33 35 39 34 36 40 33 35 39 33 35 39 33 35 39 33 35 39 33 35 39 
33 35 39 35 34 40 35 34 40 35 34 39 35 34 39 35 34 39 35 34 39 35 34 39 
35 34 39 35 36 40 34 36 40 34 35 39 33 35 39 33 35 39 33 35 39 33 35 39 
33 35 39 33 35 39 33 35 39 33 35 39 33 35 39 33 35 39 33 35 39 33 35 39 
33 35 39 33 35 39 33 35 39 33 35 39 33 35 39 33 35 39 33 35 39 33 35 39 
33 35 39 33 35 39 33 35 39 33 35 39 33 35 39 33 35 39 33 35 39 32 34 38 
34 36 40 35 36 40 35 36 40 35 36 40 34 35 39 34 35 39 35 36 40 35 36 40 
35 36 40 35 36 40 35 36 40 35 36 40 35 36 40 33 35 39 33 35 39 33 35 39 
33 35 39 33 35 39 35 36 40 35 36 40 33 35 39 33 35 39 33 35 39 33 35 39 
34 36 40 35 36 40 35 36 40 35 36 40 35 36 40 35 36 40 35 36 40 35 36 40 
35 36 40 33 35 39 33 35 39 35 35 40 36 35 41 36 35 42 35 36 41 35 36 40 
35 36 40 35 36 40 35 36 40 35 36 40 35 36 40 35 36 40 35 36 40 35 36 40 
35 36 40 35 36 40 35 36 40 35 36 40 35 35 40 35 34 39 35 34 39 35 35 40 
36 35 41 35 35 40 34 35 39 34 35 39 35 36 40 35 34 39 35 34 39 35 34 39 
35 35 40 35 36 40 34 35 39 34 34 39 35 34 39 35 34 39 35 34 39 35 34 39 
35 34 39 35 34 39 35 34 39 35 34 39 35 36 40 33 35 39 33 35 39 35 36 40 
35 36 40 35 36 40 35 36 40 35 36 40 35 36 40 35 36 40 35 36 40 35 36 40 
35 36 40 35 36 40 35 36 40 35 36 40 35 36 40 35 36 40 35 36 40 35 36 40 
35 36 40 35 36 40 34 36 40 34 36 40 35 36 40 35 36 40 35 36 40 36 37 41 
36 37 41 36 37 41 36 37 41 36 37 41 
36 37 41 36 37 41 35 36 40 35 36 40 35 36 40 35 36 40 35 36 40 36 37 41 
36 37 41 36 37 41 35 36 40 34 36 40 35 36 40 36 37 41 36 37 41 36 37 41 
36 37 41 36 37 41 36 37 41 36 37 41 36 37 41 36 37 41 36 37 41 36 37 41 
36 37 41 36 37 41 36 37 41 36 37 41 36 37 41 36 37 41 36 37 41 36 37 41 
37 36 43 37 36 43 36 35 42 35 36 40 35 36 40 35 36 40 35 36 40 36 37 41 
35 36 40 35 36 40 35 36 40 35 37 41 36 37 41 35 36 40 36 37 41 35 37 41 
34 36 40 35 36 40 35 36 40 35 36 40 36 37 41 36 37 41 35 36 40 35 36 40 
34 36 40 35 36 40 35 36 40 36 37 41 36 37 41 35 36 40 35 36 40 35 36 40 
35 36 40 35 36 40 35 36 40 35 36 40 35 36 40 35 36 40 35 36 40 35 36 40 
35 36 40 35 36 40 35 36 40 35 36 40 35 36 40 35 36 40 35 36 40 36 37 41 
36 37 41 35 36 40 35 36 40 35 36 40 34 36 40 33 35 39 33 35 39 33 35 39 
33 35 39 33 35 39 33 35 39 34 35 39 35 36 40 35 36 40 33 35 39 33 35 39 
33 35 39 34 36 40 35 36 40 35 36 40 35 36 40 35 36 40 35 36 40 35 36 40 
35 36 40 35 36 40 35 36 40 35 36 40 35 36 40 35 36 40 35 36 40 35 36 40 
35 36 40 35 36 40 35 36 40 35 36 40 35 36 40 35 36 40 35 36 40 34 35 39 
33 35 39 33 35 39 33 35 39 33 35 39 34 35 39 34 35 39 34 36 40 33 35 39 
33 35 39 33 35 39 33 35 39 33 35 39 33 35 39 33 35 39 35 36 40 34 35 39 
33 35 39 33 35 39 33 35 39 33 35 39 33 35 39 33 35 39 33 35 39 33 35 39 
33 35 39 33 35 39 34 36 40 33 35 39 33 35 39 33 35 39 33 35 39 34 36 40 
35 35 40 35 34 39 35 34 39 35 34 39 35 34 39 35 34 39 35 34 39 35 34 39 
35 34 39 35 36 40 34 36 40 34 35 39 34 35 39 34 36 40 33 35 39 33 35 39 
33 35 39 33 35 39 33 35 39 33 35 39 33 35 39 34 35 39 33 35 39 33 35 39 
33 35 39 33 35 39 33 35 39 33 35 39 33 35 39 33 35 39 33 35 39 33 35 39 
33 35 39 33 35 39 33 35 39 33 35 39 33 35 39 34 35 39 33 35 39 33 35 39 
33 35 39 33 35 39 35 36 40 35 36 40 33 35 39 33 35 39 33 35 39 33 35 39 
33 35 39 33 35 39 33 35 39 33 35 39 33 35 39 33 35 39 34 35 39 33 35 39 
33 35 39 33 35 39 33 35 39 33 35 39 33 35 39 33 35 39 33 35 39 33 35 39 
34 36 40 34 36 40 34 36 40 35 36 40 35 36 40 35 36 40 35 36 40 35 36 40 
34 36 40 33 35 39 33 35 39 34 35 39 35 34 40 35 34 40 35 35 40 33 35 39 
33 35 39 33 35 39 33 35 39 33 35 39 33 35 39 33 35 39 33 35 39 33 35 39 
33 35 39 33 35 39 33 35 39 33 35 39 34 35 39 35 34 39 35 34 39 35 34 39 
35 34 40 35 34 40 34 35 40 33 35 39 33 35 39 34 34 39 35 34 39 35 34 40 
34 35 39 33 35 39 33 35 39 35 35 40 35 34 40 35 34 39 35 34 39 35 34 39 
35 34 39 35 34 39 35 34 39 35 34 39 35 36 40 35 36 40 35 36 40 35 36 40 
35 36 40 35 36 40 35 36 40 35 36 40 35 36 40 35 36 40 35 36 40 36 37 41 
35 36 40 35 36 40 35 36 40 35 36 40 35 36 40 34 36 40 36 37 41 36 37 41 
35 36 40 35 36 40 34 35 39 33 35 39 35 36 40 35 36 40 35 36 40 36 37 41 
36 37 41 36 37 41 36 37 41 36 37 41 
35 37 41 35 37 41 35 37 41 35 36 40 34 35 39 34 35 39 34 36 40 35 37 41 
36 37 41 35 37 41 34 36 41 35 37 41 36 37 41 36 37 41 36 37 41 36 37 41 
36 37 41 36 37 41 36 37 41 36 37 41 36 37 41 36 37 41 36 37 41 36 37 41 
36 37 41 36 37 41 36 37 41 36 37 41 36 37 41 36 37 41 36 37 41 36 37 41 
36 35 42 37 37 42 36 35 41 35 36 40 35 36 40 36 37 41 36 37 41 36 37 41 
35 36 40 35 36 40 35 36 40 35 37 41 36 37 41 35 36 40 36 37 41 36 37 41 
35 36 40 35 36 40 35 36 40 35 36 40 36 37 41 36 37 41 36 37 41 36 37 41 
35 36 40 35 36 40 35 36 40 34 36 40 35 36 40 36 37 41 35 36 40 35 36 40 
35 36 40 35 36 40 35 36 40 35 36 40 35 36 40 35 36 40 35 36 40 35 36 40 
35 36 40 35 36 40 35 36 40 35 36 40 36 37 41 36 37 41 35 36 40 36 37 41 
36 37 41 35 36 40 34 36 40 35 36 40 34 36 40 33 35 39 33 35 39 33 35 39 
33 35 39 33 35 39 33 35 39 33 35 39 35 36 40 35 36 40 34 35 39 34 35 39 
34 35 39 34 36 40 35 36 40 35 36 40 35 36 40 35 36 40 35 36 40 35 36 40 
35 36 40 35 36 40 35 36 40 35 36 40 35 36 40 35 36 40 35 36 40 35 36 40 
35 36 40 35 36 40 35 36 40 35 36 40 35 36 40 35 36 40 35 36 40 34 35 39 
34 35 39 34 35 39 33 35 39 33 35 39 33 35 39 33 35 39 33 35 39 33 35 39 
33 35 39 33 35 39 33 35 39 33 35 39 33 35 39 33 35 39 34 36 40 34 35 39 
33 35 39 32 34 38 32 34 38 32 34 38 33 35 39 33 35 39 33 35 39 33 35 39 
33 35 39 33 35 39 34 36 40 33 35 39 33 35 39 33 35 39 33 35 39 34 36 40 
34 36 40 34 34 39 34 34 39 34 34 39 34 34 39 34 34 39 34 34 39 35 34 39 
34 34 39 32 34 38 32 34 38 32 34 38 32 34 38 32 35 38 33 35 39 33 35 39 
33 35 39 33 35 39 33 35 39 33 35 39 33 35 39 32 34 38 32 34 38 33 35 39 
33 35 39 34 35 39 33 35 39 33 35 39 34 35 39 33 35 39 33 35 39 33 35 39 
33 35 39 33 35 39 33 35 39 33 35 39 33 35 39 34 35 39 33 35 39 33 35 39 
33 35 39 33 35 39 33 35 39 34 35 39 33 35 39 33 35 39 33 35 39 33 35 39 
33 35 39 33 35 39 33 35 39 33 35 39 33 35 39 33 35 39 34 35 39 33 35 39 
33 35 39 33 35 39 33 35 39 33 35 39 33 35 39 33 35 39 33 35 39 33 35 39 
34 36 40 34 36 40 34 36 40 35 36 40 35 36 40 35 36 40 35 36 40 35 36 40 
34 36 40 33 35 39 33 35 39 34 35 39 34 34 39 34 34 39 34 34 39 33 35 39 
33 35 39 33 35 39 33 35 39 33 35 39 33 35 39 34 35 39 34 35 39 33 35 39 
33 35 39 34 35 39 34 35 39 34 35 39 34 35 39 34 34 39 34 34 39 35 34 39 
35 34 39 34 34 39 33 35 39 33 35 39 33 35 39 34 35 39 35 34 39 34 34 39 
34 34 39 33 35 39 34 35 39 34 34 39 34 34 39 35 34 39 35 34 40 35 34 39 
35 34 39 34 34 39 34 34 39 34 35 39 34 36 40 35 36 40 35 36 40 35 36 40 
34 36 40 35 36 40 35 36 40 35 36 40 35 36 40 35 36 40 35 36 40 34 36 40 
34 36 40 35 36 40 35 36 40 35 36 40 35 36 40 34 36 40 36 37 41 36 37 41 
35 36 40 35 36 40 34 35 39 32 34 38 33 35 39 34 36 40 34 36 40 34 35 39 
36 37 41 36 37 41 36 37 41 36 37 41 
34 38 43 34 38 43 34 38 43 35 36 40 34 35 39 35 36 40 35 36 40 35 37 41 
35 38 42 34 38 43 34 38 43 35 37 41 36 37 41 36 37 41 36 37 41 36 37 41 
36 37 41 36 37 41 36 37 41 36 37 41 36 37 41 36 37 41 36 37 41 36 37 41 
36 37 41 36 37 41 36 37 41 36 37 41 36 37 41 36 37 41 37 38 42 37 38 42 
36 37 41 36 37 41 36 37 41 36 37 41 36 37 41 36 37 41 36 37 41 36 37 41 
35 36 40 35 36 40 36 37 41 36 37 41 36 37 41 35 36 40 36 37 41 36 37 41 
36 37 41 36 37 41 36 37 41 36 37 41 36 37 41 36 37 41 36 37 41 36 37 41 
36 37 41 36 37 41 36 37 41 35 36 40 36 37 41 36 37 41 35 36 40 35 36 40 
35 36 40 35 36 40 35 36 40 35 36 40 35 36 40 35 36 40 35 36 40 35 36 40 
35 36 40 35 36 40 35 36 40 35 36 40 36 37 41 36 37 41 36 37 41 36 37 41 
36 37 41 34 36 40 33 35 39 33 35 39 33 35 39 33 35 39 33 35 39 33 35 39 
33 35 39 33 35 39 33 35 39 33 35 39 35 35 40 36 35 41 35 34 39 35 35 40 
35 36 40 35 36 40 35 36 40 35 36 40 35 36 40 35 36 40 35 36 40 35 36 40 
35 36 40 35 36 40 35 36 40 35 36 40 35 36 40 35 36 40 35 36 40 35 36 40 
35 36 40 35 36 40 35 36 40 35 36 40 35 36 40 35 36 40 35 36 40 35 36 40 
35 36 40 35 36 40 34 36 40 33 35 39 33 35 39 33 35 39 33 35 39 33 35 39 
33 35 39 33 35 39 33 35 39 33 35 39 33 35 39 33 35 39 33 35 39 33 35 39 
33 35 39 32 35 38 34 36 40 34 36 40 34 35 39 33 35 39 33 35 39 33 35 39 
33 35 39 33 35 39 33 35 39 33 35 39 33 35 39 33 35 39 33 35 39 33 35 39 
33 35 39 33 35 39 33 35 39 33 35 39 33 35 39 33 35 39 33 35 39 34 36 40 
35 36 40 35 36 40 35 36 40 35 36 40 35 36 40 34 36 40 33 35 39 33 35 39 
33 35 39 33 35 39 34 36 40 35 36 40 34 35 39 34 35 39 34 35 39 34 35 39 
33 35 39 35 36 40 34 35 39 33 35 39 36 37 41 35 37 41 35 36 40 35 36 40 
35 36 40 35 36 40 35 36 40 35 36 40 34 35 39 33 35 39 33 35 39 33 35 39 
33 35 39 33 35 39 33 35 39 33 35 39 33 35 39 33 35 39 33 35 39 33 35 39 
33 35 39 33 35 39 33 35 39 33 35 39 34 35 39 33 35 39 34 36 40 33 35 39 
33 35 39 33 35 39 33 35 39 33 35 39 33 35 39 33 35 39 33 35 39 33 35 39 
34 36 40 35 36 40 35 36 40 35 36 40 35 36 40 35 36 40 35 36 40 35 36 40 
34 36 40 33 35 39 33 35 39 33 35 39 33 35 39 33 35 39 33 35 39 33 35 39 
33 35 39 34 36 40 34 35 39 33 35 39 33 35 39 35 36 40 35 36 40 33 35 39 
34 36 40 35 36 40 35 36 40 35 36 40 34 36 40 33 35 39 33 35 39 34 35 39 
34 35 39 33 35 39 33 35 39 33 35 39 33 35 39 35 36 40 35 36 40 33 35 39 
33 35 39 33 35 39 33 35 39 32 34 38 33 35 39 34 35 40 35 35 40 35 34 40 
34 34 39 33 35 39 33 35 39 33 35 39 33 35 39 35 36 40 35 36 40 35 36 40 
34 35 39 36 37 41 35 36 40 35 36 40 35 36 40 35 36 40 35 36 40 34 35 39 
34 35 39 35 36 40 35 36 40 35 36 40 36 37 41 35 36 40 35 36 40 36 37 41 
35 36 40 35 36 40 35 36 40 35 36 40 35 36 40 35 37 41 34 36 40 35 36 40 
36 37 41 36 37 41 36 37 41 36 37 41 
34 38 43 34 38 43 33 37 42 35 36 40 34 36 40 35 36 40 35 36 40 35 36 40 
34 36 41 33 37 42 34 38 43 35 37 41 35 36 40 36 37 41 36 37 41 36 37 41 
35 36 40 35 36 40 35 36 40 36 37 41 36 37 41 36 37 41 36 37 41 36 37 41 
36 37 41 36 37 41 36 37 41 36 37 41 36 37 41 36 37 41 36 37 41 34 36 40 
36 37 41 36 37 41 36 37 41 36 37 41 36 37 41 35 36 40 35 36 40 35 36 40 
35 36 40 35 36 40 35 36 40 35 36 40 35 36 40 35 36 40 36 37 41 36 37 41 
35 36 40 35 36 40 35 36 40 35 36 40 35 36 40 35 37 41 35 36 40 35 36 40 
35 36 40 35 36 40 35 36 40 35 36 40 36 37 41 35 36 40 35 36 40 35 36 40 
34 36 40 33 35 39 34 35 39 34 36 40 33 35 39 33 35 39 34 36 40 35 36 40 
35 36 40 35 36 40 35 36 40 35 36 40 35 37 41 36 37 41 35 36 40 35 36 40 
35 36 40 35 36 40 34 36 40 33 35 39 33 35 39 34 36 40 33 35 39 33 35 39 
33 35 39 33 35 39 33 35 39 33 35 39 35 35 40 36 35 41 35 34 39 34 35 39 
33 35 39 33 35 39 33 35 39 34 36 40 34 36 40 33 35 39 33 35 39 33 35 39 
33 35 39 33 35 39 33 35 39 33 35 39 33 35 39 34 35 39 35 36 40 35 36 40 
34 36 40 33 35 39 33 35 39 34 36 40 35 36 40 35 36 40 34 36 40 34 35 39 
34 36 40 35 36 40 34 36 40 33 35 39 33 35 39 33 35 39 34 35 39 35 36 40 
33 35 39 33 35 39 33 35 39 33 35 39 33 35 39 33 35 39 33 35 39 33 35 39 
33 35 39 33 35 39 33 35 39 34 35 39 33 35 39 33 35 39 33 35 39 33 35 39 
33 35 39 33 35 39 33 35 39 33 35 39 33 35 39 33 35 39 33 35 39 33 35 39 
33 35 39 33 35 39 34 36 40 34 36 40 33 35 39 33 35 39 33 35 39 34 36 40 
35 36 40 35 36 40 35 36 40 35 36 40 35 36 40 34 36 40 33 35 39 33 35 39 
33 35 39 34 35 39 35 36 40 35 36 40 35 36 40 35 36 40 35 36 40 35 36 40 
34 35 39 33 35 39 34 36 40 35 36 40 34 35 39 35 36 40 35 36 40 35 36 40 
35 36 40 34 36 40 34 36 40 33 35 39 33 35 39 33 35 39 33 35 39 33 35 39 
33 35 39 33 35 39 33 35 39 33 35 39 33 35 39 33 35 39 33 35 39 33 35 39 
33 35 39 33 35 39 33 35 39 33 35 39 34 35 39 33 35 39 33 35 39 33 35 39 
33 35 39 33 35 39 33 35 39 33 35 39 33 35 39 33 35 39 33 35 39 33 35 39 
33 35 39 34 36 40 35 36 40 35 36 40 35 36 40 35 36 40 35 36 40 35 36 40 
35 36 40 35 36 40 35 36 40 35 36 40 35 36 40 33 35 39 33 35 39 33 35 39 
33 35 39 33 35 39 33 35 39 33 35 39 33 35 39 33 35 39 33 35 39 33 35 39 
33 35 39 34 35 39 33 35 39 33 35 39 33 35 39 33 35 39 33 35 39 33 35 39 
33 35 39 33 35 39 33 35 39 34 35 39 35 36 40 35 36 40 35 36 40 32 34 38 
33 35 39 33 35 39 32 34 38 33 35 39 34 36 40 34 35 39 34 34 39 35 34 39 
34 34 39 33 35 39 33 35 39 33 35 39 33 35 39 33 35 39 35 34 39 35 36 40 
33 35 39 34 35 39 35 36 40 35 36 40 35 36 40 34 35 39 34 35 39 35 36 40 
34 35 39 33 35 39 35 36 40 35 36 40 35 36 40 35 36 40 35 36 40 35 36 40 
35 36 40 35 36 40 35 36 40 36 37 41 36 37 41 35 36 40 35 36 40 35 36 40 
36 37 41 36 37 41 36 37 41 36 37 41 
34 38 43 34 38 43 33 37 42 35 36 40 35 36 40 35 36 40 35 36 40 35 36 40 
34 36 40 33 37 42 34 36 41 35 37 41 35 36 40 36 37 41 36 37 41 36 37 41 
35 36 40 35 36 40 35 36 40 34 36 40 35 36 40 36 37 41 36 37 41 35 36 40 
36 37 41 36 37 41 36 37 41 36 37 41 36 37 41 36 37 41 35 37 41 34 35 39 
35 36 40 34 36 40 35 36 40 36 37 41 35 36 40 35 36 40 35 36 40 35 36 40 
35 36 40 35 36 40 35 36 40 35 36 40 35 36 40 35 36 40 34 36 40 35 36 40 
35 36 40 35 36 40 35 36 40 34 36 40 34 36 40 34 36 40 35 36 40 35 36 40 
34 36 40 35 36 40 36 35 41 34 35 39 35 34 39 35 36 40 35 36 40 35 36 40 
34 35 40 34 35 39 34 35 39 33 35 39 33 35 39 33 35 39 34 35 40 35 35 40 
35 35 40 35 35 40 35 35 40 35 35 40 34 35 39 34 35 39 34 36 40 35 36 40 
35 36 40 35 36 40 34 36 40 33 35 39 33 35 39 34 36 40 34 35 39 34 35 39 
34 35 39 34 35 39 34 35 39 34 35 39 35 35 40 36 35 39 35 34 39 34 35 39 
33 35 39 33 35 39 33 35 39 34 36 40 34 36 40 33 35 39 33 35 39 33 35 39 
33 35 39 33 35 39 33 35 39 33 35 39 33 35 39 34 35 39 34 36 40 34 36 40 
33 35 39 33 35 39 33 35 39 34 36 40 34 35 39 33 35 39 33 35 39 32 34 38 
33 35 39 34 36 40 34 36 40 33 35 39 33 35 39 33 35 39 34 35 39 35 36 40 
34 36 40 33 35 39 33 35 39 33 35 39 33 35 39 34 36 40 33 35 39 33 35 39 
33 35 39 34 36 40 34 35 39 33 35 39 33 35 39 33 35 39 33 35 39 33 35 39 
33 35 39 33 35 39 33 35 39 33 35 39 34 35 39 33 35 39 32 35 38 33 35 39 
33 35 39 33 35 39 34 36 40 34 36 40 33 35 39 32 34 38 33 35 39 34 36 40 
35 36 40 35 36 40 35 36 40 34 36 40 35 36 40 34 36 40 34 35 39 34 36 40 
34 36 40 34 35 39 35 36 40 33 35 39 32 34 38 32 34 38 33 35 39 32 34 39 
32 34 38 33 35 39 34 36 40 35 36 40 33 35 39 34 35 39 34 36 40 35 36 40 
34 36 40 33 35 39 33 35 39 33 35 39 33 35 39 33 35 39 33 35 39 33 35 39 
33 35 39 33 35 39 33 35 39 33 35 39 33 35 39 33 35 39 33 35 39 33 35 39 
33 35 39 33 35 39 33 35 39 33 35 39 33 35 39 33 35 39 33 35 39 33 35 40 
33 35 40 33 35 40 33 35 39 33 35 39 34 35 39 34 35 39 34 35 39 33 35 39 
33 35 39 34 36 40 34 36 40 34 36 41 34 36 41 35 36 40 35 36 40 34 36 40 
35 36 40 35 36 40 35 36 40 35 36 40 35 36 40 34 35 39 33 35 39 33 35 39 
33 35 39 33 35 39 33 35 39 33 35 39 33 35 39 33 35 39 33 35 39 33 35 39 
33 35 39 32 35 38 33 35 39 33 35 39 34 35 39 34 35 39 34 35 39 34 35 39 
34 35 39 35 36 40 35 36 40 35 36 40 35 36 40 35 36 40 35 36 40 35 36 40 
32 34 38 32 34 38 34 36 40 34 36 40 33 35 39 33 35 39 34 34 39 34 34 39 
34 34 39 33 35 39 33 35 39 33 35 39 33 35 39 33 35 39 34 35 39 34 36 40 
33 35 39 34 35 39 35 36 40 35 36 40 34 36 40 35 37 41 35 37 41 36 37 41 
35 36 40 33 35 39 35 36 40 35 36 40 35 36 40 35 36 40 35 36 40 35 36 40 
35 36 40 36 37 41 37 38 42 36 37 41 35 37 41 35 36 40 35 36 40 35 36 40 
35 37 41 35 37 41 35 37 41 35 37 41 
33 37 42 34 38 43 33 37 42 35 36 40 35 36 40 36 37 41 35 36 40 35 36 40 
35 36 40 35 36 40 35 36 40 35 36 40 35 36 40 35 36 40 35 36 40 35 36 40 
36 37 41 35 36 40 35 36 40 34 36 40 34 35 39 35 36 40 36 37 41 36 37 41 
35 36 40 35 36 40 35 36 40 35 36 40 35 36 40 35 36 40 35 36 40 34 36 40 
35 36 40 35 36 40 35 36 40 35 36 40 35 36 40 35 36 40 35 36 40 35 36 40 
35 36 40 35 36 40 35 36 40 35 36 40 35 36 40 35 36 40 35 36 40 35 36 40 
35 36 40 35 36 40 34 36 40 33 35 39 33 35 39 34 36 40 35 36 40 35 36 40 
34 35 39 34 35 40 36 35 41 35 34 39 35 34 39 35 36 40 35 36 40 35 35 40 
35 34 39 35 34 39 34 35 39 33 35 39 34 35 39 35 34 39 35 34 39 35 34 39 
35 34 39 35 34 39 35 34 39 35 34 39 35 34 39 34 34 39 33 35 39 34 36 40 
35 36 40 35 36 40 35 36 40 34 35 39 33 35 39 34 36 40 35 34 39 35 34 39 
35 34 39 35 34 39 35 34 39 35 34 39 35 34 39 35 34 39 35 34 39 34 35 39 
33 35 39 33 35 39 33 35 39 33 35 39 33 35 39 33 35 39 33 35 39 33 35 39 
33 35 39 33 35 39 33 35 39 33 35 39 33 35 39 33 35 39 34 35 39 33 35 39 
33 35 39 33 35 39 33 35 39 34 36 40 34 35 39 33 35 39 33 35 39 33 35 39 
33 35 39 33 35 39 33 35 39 33 35 39 33 35 39 33 35 39 34 36 40 35 36 40 
35 36 40 34 35 39 33 35 39 33 35 39 33 35 39 34 35 39 33 35 39 33 35 39 
33 35 39 33 35 39 33 35 39 33 35 39 33 35 39 33 35 39 33 35 39 33 35 39 
33 35 39 33 35 39 33 35 39 33 35 39 35 36 40 35 34 39 33 35 39 35 36 40 
34 36 40 33 35 39 34 36 40 34 36 40 33 35 39 33 35 39 34 36 40 35 36 40 
35 36 40 35 36 40 34 36 40 33 35 39 35 36 40 35 36 40 35 36 40 33 35 39 
34 35 39 35 36 40 35 36 40 33 35 39 32 34 38 32 34 38 33 35 39 33 35 40 
33 35 39 35 34 39 34 35 39 33 35 39 35 36 40 34 35 39 34 35 39 35 36 40 
35 36 40 35 36 40 34 36 40 34 36 40 33 35 39 33 35 39 33 35 39 33 35 39 
33 35 39 33 35 39 33 35 39 33 35 39 33 35 39 33 35 39 33 35 39 33 35 39 
33 35 39 33 35 39 33 35 39 33 35 39 33 35 39 33 35 39 33 35 39 33 33 43 
33 33 43 33 33 43 33 35 40 34 35 39 35 36 40 35 36 40 35 36 40 35 36 40 
35 36 40 34 36 40 33 35 40 33 37 42 33 37 42 34 36 41 35 36 40 33 35 39 
34 35 39 35 36 40 33 35 39 33 35 39 34 35 39 35 36 40 34 36 40 33 35 39 
33 35 39 33 35 39 33 35 39 33 35 39 33 35 39 34 36 40 35 36 40 33 35 39 
33 35 39 34 35 39 33 35 39 34 35 39 35 36 40 35 36 40 35 36 40 35 36 40 
35 36 40 35 36 40 35 36 40 35 36 40 35 36 40 35 36 40 35 36 40 35 36 40 
34 36 40 32 34 38 33 35 39 33 35 39 33 35 39 34 36 40 33 35 39 33 35 39 
33 35 39 33 35 39 33 35 39 33 35 39 33 35 39 33 35 39 33 35 39 33 35 39 
33 35 39 33 35 39 35 36 40 34 36 40 34 36 40 35 36 40 35 36 40 35 36 40 
34 36 40 33 35 39 35 36 40 36 37 41 35 36 40 35 36 40 35 36 40 35 36 40 
35 36 40 35 36 40 36 37 41 35 36 40 36 37 41 36 37 41 36 37 41 36 37 41 
35 38 42 33 38 43 33 37 42 34 38 41 
33 37 42 33 37 42 33 37 42 35 36 40 35 36 40 35 36 40 35 36 40 35 36 40 
35 36 40 35 36 40 35 36 40 35 36 40 35 36 40 35 36 40 34 36 40 35 36 40 
35 36 40 35 36 40 35 36 40 35 36 40 34 36 40 35 37 41 36 37 41 36 37 41 
35 36 40 35 36 40 36 37 41 35 36 40 35 36 40 36 37 41 36 37 41 35 37 41 
35 36 40 35 36 40 35 36 40 35 36 40 35 36 40 35 36 40 35 36 40 35 36 40 
35 36 40 35 36 40 35 36 40 35 36 40 34 36 40 35 36 40 35 36 40 35 36 40 
35 36 40 35 36 40 35 36 40 34 36 40 34 36 40 34 35 39 34 35 39 35 36 40 
34 35 39 34 34 39 35 34 39 36 35 41 36 35 41 35 36 40 35 36 40 36 35 41 
36 35 41 36 35 41 34 35 40 33 35 39 34 35 39 35 34 39 35 34 39 35 34 39 
35 34 39 36 35 39 36 35 41 35 34 39 35 34 40 34 34 39 33 35 39 33 35 39 
34 35 39 35 36 40 35 36 40 34 35 39 33 35 39 33 35 39 35 34 39 35 34 39 
35 34 39 35 34 39 35 34 39 35 34 39 36 35 41 36 35 41 34 34 39 32 34 39 
34 35 39 34 36 40 34 36 40 33 35 39 33 35 39 33 35 39 33 35 39 33 35 39 
33 35 39 34 35 39 34 35 39 34 36 40 34 35 39 33 35 39 34 35 39 35 36 40 
34 36 40 33 35 39 33 35 39 34 36 40 34 35 39 33 35 39 33 35 39 33 35 39 
32 34 38 33 35 39 33 35 39 33 35 39 34 35 39 34 35 39 35 36 40 35 36 40 
35 36 40 35 36 40 34 36 40 33 35 39 34 35 39 34 35 39 34 35 40 34 36 40 
35 36 40 33 35 39 33 35 39 33 35 39 33 35 39 33 35 39 33 35 39 34 35 39 
34 36 40 34 36 40 34 36 40 33 35 39 35 36 40 35 36 40 35 36 40 35 36 40 
35 36 40 34 36 40 35 36 40 34 36 40 33 35 39 35 36 40 35 36 40 35 36 40 
35 36 40 35 36 40 35 36 40 34 36 40 35 36 40 35 36 40 35 36 40 34 36 40 
35 36 40 35 36 40 35 36 40 34 35 39 33 35 39 33 35 39 33 35 39 33 35 40 
33 35 40 35 34 39 35 35 40 35 36 40 35 36 40 35 36 40 34 36 40 35 36 40 
34 36 40 34 36 40 33 35 39 34 36 40 34 35 39 33 35 39 33 35 39 33 35 39 
33 35 39 33 35 39 33 35 39 33 35 39 33 35 39 33 35 39 33 35 39 33 35 39 
34 36 40 34 36 40 34 36 40 34 36 40 34 36 40 34 36 40 34 36 40 34 36 41 
33 33 43 33 33 43 34 36 41 35 36 40 35 36 40 35 36 40 35 36 40 35 36 40 
35 36 40 35 36 40 34 36 41 33 37 42 33 37 42 34 36 41 35 36 40 34 36 40 
35 36 40 35 36 40 34 36 40 34 36 40 34 36 40 34 36 40 33 35 39 33 35 39 
33 35 39 34 36 40 34 36 40 34 36 40 34 36 40 35 36 40 35 36 40 34 36 40 
35 36 40 35 36 40 34 36 40 33 35 39 34 35 39 33 35 39 34 35 39 34 36 40 
35 36 40 35 36 40 35 36 40 35 36 40 35 36 40 35 36 40 35 36 40 35 36 40 
33 35 39 33 35 39 35 36 40 34 36 40 34 36 40 34 36 40 34 36 40 34 36 40 
34 36 40 34 36 40 33 35 39 33 35 39 33 35 39 33 35 39 33 35 39 33 35 39 
34 36 40 34 35 39 34 35 39 34 36 40 35 36 40 35 36 40 35 36 40 36 37 41 
35 36 40 34 36 40 35 36 40 35 36 40 35 36 40 35 36 40 35 36 40 35 36 40 
35 36 40 35 36 40 35 37 41 35 36 40 35 37 41 35 36 40 35 36 40 35 37 41 
35 38 42 33 37 42 33 37 42 33 37 42 
34 36 41 34 36 41 35 37 41 35 36 40 35 36 40 35 36 40 36 37 41 35 36 40 
35 36 40 35 36 40 34 36 40 34 36 40 34 36 40 34 36 40 35 37 41 35 36 40 
35 36 40 35 36 40 35 36 40 35 36 40 34 36 40 35 37 41 36 37 41 36 37 41 
35 36 40 35 36 40 36 37 41 35 36 40 35 36 40 36 37 41 36 37 41 36 37 41 
35 36 40 35 36 40 35 36 40 35 36 40 35 36 40 35 36 40 34 36 40 34 36 40 
34 36 40 34 36 40 35 36 40 35 36 40 35 37 41 35 36 40 35 36 40 35 36 40 
35 36 40 35 36 40 35 36 40 35 36 40 35 36 40 33 35 39 33 35 39 34 35 39 
34 35 39 34 35 39 35 34 39 36 35 41 36 35 41 35 36 40 36 35 41 36 35 41 
36 35 41 36 35 41 35 36 40 33 35 39 34 35 39 34 35 39 34 34 39 34 34 39 
34 34 39 35 35 40 36 35 41 35 34 39 35 34 40 34 35 40 33 35 39 33 35 39 
34 35 39 34 35 39 33 35 39 33 35 39 33 35 39 33 35 39 35 34 39 35 34 39 
35 34 40 35 35 40 35 34 39 35 34 39 35 35 40 35 35 40 34 35 40 33 35 39 
34 35 39 35 36 40 35 37 41 34 36 40 34 35 39 34 35 39 34 35 39 33 35 39 
33 35 39 32 34 38 34 35 39 35 36 40 34 35 39 33 35 39 34 35 39 34 36 40 
34 36 40 33 35 39 33 35 39 34 36 40 34 35 39 34 35 39 34 35 39 32 34 38 
32 34 38 33 35 39 33 35 39 33 35 39 32 34 38 34 35 39 35 36 40 34 36 41 
34 36 41 35 36 40 35 36 40 34 35 39 34 36 40 34 36 41 34 36 41 34 36 41 
34 36 41 33 35 40 33 35 40 33 35 40 33 35 40 34 36 40 34 36 40 34 35 39 
35 36 40 35 36 40 34 36 40 34 35 39 35 36 40 35 36 40 35 36 40 35 36 40 
35 36 40 35 36 40 35 36 40 34 36 40 34 36 40 35 36 40 35 36 40 35 36 40 
35 36 40 35 36 40 35 36 40 35 36 40 35 36 40 35 36 40 35 36 40 35 36 40 
35 36 40 35 36 40 35 36 40 35 36 40 35 36 40 35 36 40 35 36 40 35 36 40 
34 35 40 34 35 39 34 35 40 34 36 40 35 36 40 35 36 40 35 36 40 35 36 40 
35 36 40 34 36 40 34 35 39 35 36 40 34 35 39 33 35 39 33 35 39 33 35 39 
33 35 39 33 35 39 33 35 39 33 35 39 33 35 39 33 35 39 33 35 39 33 35 39 
34 36 40 35 36 40 36 37 41 36 37 41 36 37 41 36 37 41 35 36 40 36 35 42 
35 35 43 34 36 41 35 36 41 35 36 40 35 36 40 34 36 40 35 36 40 35 36 40 
35 36 40 35 36 40 35 36 40 34 36 41 34 36 41 34 36 41 35 36 40 35 36 40 
35 36 40 35 36 40 35 36 40 35 36 40 35 36 40 35 36 40 34 35 39 33 35 39 
33 35 39 34 36 40 35 36 40 35 36 40 35 36 40 35 36 40 34 35 39 35 36 40 
35 36 40 35 36 40 34 36 40 33 35 39 33 35 39 33 35 39 33 35 39 34 36 40 
35 36 40 35 36 40 35 36 40 35 36 40 35 36 40 35 36 40 35 36 40 35 36 40 
34 36 41 34 36 41 35 36 41 35 36 40 34 36 40 34 36 40 35 37 41 36 37 41 
36 37 41 35 36 40 34 35 39 34 35 39 33 35 39 33 35 39 33 35 39 34 36 40 
35 37 41 35 37 41 34 36 40 35 36 40 35 36 40 35 36 40 35 36 40 35 36 40 
36 37 41 35 36 40 35 36 40 35 36 40 35 36 40 34 36 41 34 36 41 35 37 41 
34 36 41 34 36 41 35 37 41 35 37 41 35 37 41 34 36 41 34 36 41 34 36 41 
34 38 41 33 38 43 34 38 43 33 37 42 
35 36 40 35 36 40 36 37 41 35 36 40 35 36 40 35 36 40 35 36 40 35 36 40 
36 37 41 36 37 41 35 37 41 35 36 40 35 36 40 35 36 40 36 37 41 36 37 41 
36 37 41 35 36 40 35 36 40 35 36 40 35 36 40 36 37 41 36 37 41 36 37 41 
35 37 41 35 36 40 36 37 41 36 37 41 36 37 41 36 37 41 36 37 41 35 36 40 
35 36 40 35 36 40 35 36 40 35 36 40 35 36 40 34 36 40 33 35 39 33 35 39 
33 35 39 33 35 39 35 36 40 35 36 40 34 36 40 35 36 40 35 36 40 35 36 40 
35 36 40 35 36 40 35 36 40 35 36 40 34 36 40 33 35 39 33 35 39 33 35 39 
34 35 39 34 36 40 35 36 40 35 36 40 35 36 40 35 36 40 36 37 41 36 37 41 
35 36 40 35 36 40 34 36 40 33 35 39 34 35 39 34 36 40 34 35 39 33 35 39 
33 35 39 34 36 40 35 36 40 35 36 40 34 35 39 33 35 39 34 35 39 33 35 39 
33 35 39 33 35 39 34 35 39 33 35 39 33 35 39 33 35 39 35 34 39 35 34 40 
36 35 41 35 36 41 35 36 40 35 36 40 35 36 40 35 36 40 34 36 40 33 35 39 
34 36 40 35 36 40 35 36 40 35 36 40 35 36 40 35 36 40 35 36 40 34 36 40 
34 35 39 34 35 39 34 35 39 35 36 40 33 35 39 33 35 39 33 35 39 33 35 39 
34 36 40 35 36 40 34 36 40 34 36 40 35 36 40 35 36 40 35 36 40 34 35 39 
33 35 39 33 35 39 34 36 40 34 36 40 32 34 38 34 35 39 34 36 41 33 37 42 
33 37 42 34 36 41 35 36 40 35 36 40 34 36 41 33 37 42 33 37 42 33 37 42 
33 36 42 32 35 41 32 35 41 32 35 41 34 36 41 34 36 41 35 36 40 35 36 40 
35 36 40 35 36 40 35 36 40 35 36 40 35 36 40 35 36 40 35 36 40 35 36 40 
35 36 40 35 36 40 35 36 40 35 36 40 35 36 40 35 36 40 35 36 40 35 36 40 
35 36 40 35 36 40 35 36 40 35 36 40 35 36 40 35 36 40 35 36 40 35 36 40 
35 36 40 35 36 40 35 36 40 35 36 40 35 36 40 35 36 40 35 36 40 35 36 40 
35 36 40 33 35 39 33 35 39 33 35 39 35 36 40 35 36 40 35 36 40 36 37 41 
35 36 40 35 36 40 35 36 40 35 36 40 34 35 39 33 35 39 33 35 39 33 35 39 
33 35 39 33 35 39 33 35 39 33 35 39 33 35 39 33 35 39 33 35 39 33 35 39 
34 36 40 35 36 40 35 36 40 35 36 40 35 36 40 35 36 40 35 36 40 35 36 40 
35 36 40 35 36 40 35 36 40 35 36 40 35 36 40 33 35 39 34 36 40 35 36 40 
35 36 40 35 36 40 35 36 40 35 36 40 35 36 40 35 36 40 35 36 40 35 36 40 
35 36 40 35 36 40 35 36 40 35 36 40 35 36 40 35 36 40 35 36 40 34 36 40 
33 35 39 34 36 40 35 36 40 35 36 40 35 36 40 35 36 40 35 36 40 35 36 40 
35 36 40 35 36 40 33 35 39 33 35 39 33 35 39 32 35 38 33 35 39 35 36 40 
35 36 40 35 36 40 35 36 40 35 36 40 36 37 41 35 36 40 35 36 40 36 37 41 
33 37 42 33 37 42 33 37 42 35 36 41 35 36 40 35 36 40 35 36 40 35 36 40 
35 36 40 35 36 40 35 36 40 35 36 40 35 36 40 34 36 40 35 36 40 35 36 40 
36 37 41 35 37 41 35 37 41 36 37 41 36 37 41 36 37 41 35 36 40 35 36 40 
35 36 40 35 36 40 35 36 40 35 36 40 35 36 40 33 37 42 33 37 42 34 38 43 
33 37 42 33 37 42 34 38 43 34 38 43 34 38 43 34 38 43 34 38 43 34 38 43 
34 38 43 34 38 43 34 38 43 34 38 41 
35 36 40 35 36 40 35 36 40 35 36 40 35 36 40 35 36 40 36 37 41 36 37 41 
36 37 41 37 38 42 36 37 41 36 37 41 36 37 41 36 37 41 36 37 41 36 37 41 
36 37 41 35 36 40 35 36 40 35 36 40 35 36 40 36 37 41 36 37 41 36 37 41 
36 37 41 35 37 41 36 37 41 36 37 41 36 37 41 36 37 41 36 37 41 36 37 41 
36 37 41 35 36 40 35 36 40 35 36 40 35 36 40 34 36 40 34 35 39 33 35 39 
34 36 40 34 36 40 36 37 41 35 36 40 35 36 40 35 36 40 35 36 40 35 36 40 
35 36 40 35 36 40 35 36 40 35 36 40 34 36 40 33 35 39 33 35 39 33 35 39 
33 35 39 33 35 39 34 35 39 35 36 40 35 36 40 35 36 40 35 36 40 35 36 40 
35 36 40 35 36 40 35 36 40 33 35 39 33 35 39 34 36 40 35 36 40 34 35 39 
34 36 40 34 36 40 34 36 40 34 36 40 34 35 39 33 35 39 33 35 39 33 35 39 
33 35 39 33 35 39 33 35 39 33 35 39 33 35 39 33 35 39 35 34 39 35 34 39 
35 34 40 35 35 40 35 36 40 36 37 41 35 36 40 35 36 40 35 36 40 34 36 40 
35 36 40 35 36 40 35 36 40 35 36 40 35 36 40 35 36 40 35 36 40 35 36 40 
35 36 40 35 36 40 35 36 40 35 36 40 34 35 39 34 35 39 34 36 40 33 35 39 
34 36 40 36 37 41 34 36 40 34 36 40 36 37 41 35 36 40 35 36 40 35 36 40 
34 36 40 33 35 39 34 36 40 35 36 40 33 35 39 34 36 40 34 36 41 33 37 42 
33 37 42 34 36 41 35 36 40 35 36 40 34 36 41 33 37 42 33 37 42 33 37 42 
33 37 42 33 37 42 33 37 42 33 37 42 33 36 42 34 36 41 35 36 40 35 36 40 
35 36 40 35 36 40 35 36 40 35 36 40 35 36 40 35 36 40 35 36 40 35 36 40 
35 36 40 35 36 40 35 36 40 35 36 40 35 36 40 35 36 40 35 36 40 34 35 39 
34 35 39 35 36 40 34 36 40 34 35 39 34 35 39 34 35 39 35 36 40 34 35 39 
34 35 39 35 36 40 35 36 40 35 36 40 35 36 40 35 36 40 35 36 40 35 36 40 
35 36 40 33 35 39 33 35 39 33 35 39 35 36 40 35 36 40 35 36 40 35 36 40 
35 36 40 35 36 40 35 36 40 35 36 40 34 35 39 33 35 39 34 36 40 34 35 39 
33 35 39 33 35 39 33 35 39 33 35 39 33 35 39 33 35 39 33 35 39 33 35 39 
33 35 39 34 35 39 34 35 39 35 36 40 35 36 40 35 36 40 35 36 40 35 36 40 
35 36 40 35 36 40 35 36 40 35 36 40 35 36 40 34 36 40 35 36 40 35 36 40 
35 36 40 34 36 40 34 35 39 34 35 39 35 36 40 35 36 40 35 36 40 35 36 40 
35 36 40 35 36 40 35 36 40 35 36 40 35 36 40 35 36 40 35 36 40 35 36 40 
34 36 40 35 36 40 34 35 39 34 35 39 35 36 40 35 36 40 35 36 40 35 36 40 
35 36 40 35 36 40 33 35 39 33 35 39 33 35 39 32 34 38 33 35 39 35 36 40 
35 36 40 35 36 40 35 36 40 35 36 40 36 37 41 35 36 40 35 36 40 35 36 40 
33 37 42 34 38 43 33 37 42 34 36 41 35 36 40 35 36 40 35 36 40 35 36 40 
35 36 40 36 37 41 36 37 41 36 37 41 36 37 41 35 36 40 35 36 40 35 36 40 
35 36 40 35 36 40 36 37 41 37 38 42 36 37 41 36 37 41 35 36 40 35 36 40 
35 36 40 35 36 40 36 37 41 36 37 41 35 36 40 33 37 42 33 37 42 33 37 42 
34 38 43 33 37 42 34 38 43 34 38 43 34 38 43 34 38 43 34 38 43 34 38 43 
34 38 43 33 37 43 34 38 43 34 38 41 
35 36 40 35 36 40 35 36 40 35 36 40 35 36 40 35 36 40 36 37 41 36 37 41 
36 37 41 36 37 41 36 37 41 36 37 41 36 37 41 36 37 41 36 37 41 36 37 41 
36 37 41 35 36 40 35 36 40 35 36 40 35 36 40 36 37 41 36 37 41 35 37 41 
35 37 41 35 36 40 35 36 40 36 37 41 36 37 41 36 37 41 36 37 41 36 37 41 
35 36 40 35 36 40 35 36 40 35 36 40 36 37 41 35 36 40 34 35 39 33 35 39 
34 36 40 35 36 40 35 36 40 35 36 40 35 36 40 35 36 40 35 36 40 35 36 40 
35 36 40 35 36 40 35 36 40 35 36 40 35 36 40 34 36 40 33 35 39 33 35 39 
33 35 39 34 35 39 34 35 39 35 36 40 35 36 40 35 36 40 35 36 40 35 36 40 
35 36 40 35 36 40 35 36 40 35 36 40 34 36 40 35 36 40 35 36 40 35 36 40 
35 36 40 36 37 41 36 37 41 35 37 41 35 36 40 34 36 40 34 35 39 33 35 39 
33 35 39 34 35 39 34 35 39 33 35 39 33 35 39 33 35 39 35 35 40 35 35 40 
35 35 40 35 35 40 35 36 40 35 36 40 35 36 40 35 36 40 35 36 40 35 36 40 
35 36 40 35 36 40 35 36 40 35 36 40 35 36 40 35 36 40 35 36 40 35 36 40 
35 36 40 35 36 40 35 36 40 35 36 40 35 36 40 35 36 40 35 36 40 34 36 40 
35 36 40 35 36 40 34 36 40 34 36 40 35 36 40 35 36 40 35 36 40 35 36 40 
35 36 40 34 36 40 34 36 40 34 35 39 34 35 39 34 36 40 34 36 40 34 36 41 
34 36 41 34 36 41 34 36 41 34 36 41 34 36 41 33 37 42 33 37 42 33 37 42 
33 37 42 33 37 42 34 38 43 33 37 42 33 37 42 34 36 41 34 36 41 34 36 41 
35 36 40 35 36 40 35 36 40 35 36 40 35 36 40 35 36 40 34 36 40 34 36 40 
34 36 40 35 36 40 35 36 40 35 36 40 35 36 40 35 36 40 35 36 40 34 35 39 
33 35 39 34 35 39 34 36 40 33 35 39 33 35 39 34 35 39 34 35 39 33 35 39 
34 35 39 35 36 40 35 36 40 35 36 40 35 36 40 35 36 40 35 36 40 35 36 40 
35 36 40 33 35 39 33 35 39 33 35 39 34 36 40 35 36 40 35 36 40 35 36 40 
35 36 40 35 36 40 34 36 40 35 36 40 35 36 40 34 35 39 35 36 40 35 36 40 
34 36 40 34 35 39 33 35 39 33 35 39 33 35 39 33 35 39 33 35 39 34 36 40 
34 35 39 33 35 39 33 35 39 34 35 39 35 36 40 35 36 40 35 36 40 35 36 40 
35 36 40 35 36 40 35 36 40 35 36 40 35 36 40 35 36 40 35 36 40 35 36 40 
35 36 40 35 36 40 34 36 40 34 36 40 35 36 40 35 36 40 35 36 40 35 36 40 
35 36 40 35 36 40 35 36 40 35 36 40 35 36 40 35 36 40 35 36 40 35 36 40 
35 36 40 35 36 40 35 36 40 34 36 40 35 36 40 35 36 40 35 36 40 35 36 40 
35 36 40 35 36 40 34 36 40 34 36 40 34 36 40 34 36 40 34 36 40 35 36 40 
35 36 40 35 36 40 35 36 40 35 36 40 35 36 40 35 36 40 35 36 40 35 36 40 
35 37 41 34 36 41 34 36 41 35 36 40 35 36 40 35 36 40 35 36 40 35 36 40 
36 37 41 36 37 41 36 37 41 36 37 41 35 36 40 35 36 40 35 36 40 35 36 40 
35 36 40 36 37 41 36 37 41 36 37 41 36 37 41 36 37 41 35 36 40 36 37 41 
36 37 41 35 36 40 36 37 41 36 37 41 36 37 41 33 37 42 33 37 42 33 37 42 
34 38 43 34 38 43 34 38 43 34 38 43 34 38 43 34 38 43 34 38 43 35 39 44 
34 38 43 33 37 42 33 37 42 34 38 41 
35 36 41 34 35 40 34 35 40 34 35 40 34 35 39 35 36 40 35 36 40 36 37 41 
36 37 41 36 37 41 36 37 41 36 37 41 36 37 41 36 37 41 36 37 41 36 37 41 
36 37 41 35 36 40 35 36 40 35 36 40 36 37 41 36 37 41 35 37 41 35 36 40 
35 36 40 35 36 40 35 36 40 36 37 41 36 37 41 36 37 41 36 37 41 36 37 41 
35 36 40 35 36 40 35 36 40 35 36 40 35 36 40 35 36 40 35 36 40 34 36 40 
35 36 40 35 36 40 35 36 40 35 36 40 35 36 40 35 36 40 36 37 41 36 37 41 
35 36 40 35 36 40 35 36 40 35 36 40 35 37 41 35 36 40 35 37 41 35 37 41 
35 37 41 35 37 41 35 37 41 35 36 40 36 37 41 35 36 40 35 36 40 35 36 40 
35 36 40 35 36 40 35 36 40 35 36 40 35 36 40 35 36 40 35 36 40 36 37 41 
35 36 40 36 37 41 36 37 41 35 36 40 35 36 40 35 37 41 35 36 40 33 35 39 
34 35 39 35 34 39 35 34 39 34 35 39 34 36 40 35 36 40 35 36 40 35 36 40 
35 36 40 35 36 40 35 36 40 35 36 40 35 36 40 35 36 40 35 36 40 35 37 41 
35 36 40 35 36 40 35 36 40 35 36 40 35 36 40 35 36 40 35 36 40 35 36 40 
35 36 40 35 36 40 34 36 40 34 35 39 34 35 39 35 36 40 35 36 40 35 36 40 
35 36 40 35 36 40 35 36 40 35 36 40 35 36 40 35 36 40 35 36 40 35 36 40 
35 36 40 35 36 40 33 35 39 33 35 39 33 35 39 33 35 39 34 35 39 35 36 40 
34 36 40 34 36 41 33 37 42 33 37 42 33 37 42 33 37 42 33 37 42 33 37 42 
33 37 42 33 37 42 33 37 42 33 37 42 33 37 42 33 36 42 33 36 42 34 36 41 
35 36 40 35 36 40 35 36 40 35 36 40 35 36 40 35 36 40 35 36 40 33 35 39 
33 35 39 35 36 40 35 36 40 35 36 40 35 36 40 35 36 40 35 36 40 35 36 40 
34 36 40 34 36 40 34 36 40 34 36 40 34 36 40 34 36 40 33 35 39 33 35 39 
34 35 39 34 35 39 35 36 40 35 36 40 35 36 40 34 36 40 34 35 39 34 35 39 
34 35 39 33 35 39 33 35 39 33 35 39 33 35 39 34 36 40 35 36 40 35 36 40 
35 36 40 34 36 40 34 36 40 35 36 40 35 36 40 35 36 40 35 36 40 35 36 40 
34 36 40 33 35 39 34 36 40 34 36 40 34 36 40 34 36 40 34 36 40 34 35 39 
34 35 39 34 36 40 34 36 40 34 36 40 34 36 40 35 36 40 35 36 40 35 36 40 
35 36 40 35 36 40 35 36 40 35 36 40 35 36 40 35 36 40 35 36 40 35 36 40 
35 36 40 35 36 40 35 36 40 35 36 40 35 36 40 35 36 40 35 36 40 35 36 40 
35 36 40 34 35 39 34 35 39 34 35 39 34 35 39 34 36 40 35 36 40 35 36 40 
35 36 40 35 36 40 35 36 40 35 36 40 35 36 40 35 36 40 35 36 40 35 36 40 
35 36 40 35 36 40 35 36 40 35 36 40 35 36 40 35 36 40 35 36 40 35 36 40 
35 36 40 35 36 40 35 36 40 36 37 41 35 36 40 35 36 40 35 36 40 35 36 40 
35 36 40 35 36 40 36 37 41 36 37 41 35 36 40 35 36 40 35 36 40 35 36 40 
35 37 41 36 37 41 36 37 41 35 36 40 36 37 41 35 36 40 35 36 40 35 36 40 
35 36 40 36 37 41 36 37 41 36 37 41 36 37 41 36 37 41 35 36 40 36 37 41 
36 37 41 36 37 41 36 37 41 37 38 42 36 37 41 33 37 42 33 37 42 33 37 42 
34 38 43 34 38 43 34 38 43 34 38 43 34 38 43 35 39 44 34 38 43 34 38 43 
34 38 43 34 38 43 33 37 42 34 38 41 
35 35 43 33 33 43 33 33 43 33 35 40 33 35 39 34 35 39 35 36 40 36 37 41 
36 37 41 36 37 41 36 37 41 36 37 41 36 37 41 36 37 41 36 37 41 36 37 41 
36 37 41 36 37 41 36 37 41 36 37 41 36 37 41 36 37 41 35 37 41 35 36 40 
35 36 40 35 36 40 35 36 40 36 37 41 36 37 41 36 37 41 36 37 41 36 37 41 
36 37 41 35 36 40 35 36 40 35 36 40 35 36 40 35 36 40 35 36 40 35 36 40 
35 36 40 35 36 40 35 36 40 35 36 40 35 36 40 35 36 40 36 37 41 36 37 41 
35 36 40 35 36 40 35 36 40 35 36 40 36 37 41 36 37 41 36 37 41 36 37 41 
36 37 41 35 36 40 36 37 41 35 36 40 35 36 40 36 37 41 35 36 40 35 36 40 
34 36 40 35 36 40 35 36 40 35 36 40 35 36 40 35 36 40 36 37 41 36 37 41 
35 36 40 36 37 41 36 37 41 35 36 40 35 36 40 35 36 40 35 36 40 33 35 39 
34 35 39 35 34 39 35 34 39 34 35 39 35 36 40 35 37 41 35 36 40 35 36 40 
35 36 40 35 36 40 35 36 40 35 36 40 35 36 40 35 36 40 35 36 40 35 36 40 
35 36 40 35 36 40 35 36 40 35 36 40 35 36 40 35 36 40 35 36 40 35 36 40 
35 36 41 35 36 40 34 36 40 33 35 39 34 35 39 34 35 39 35 36 40 35 36 40 
35 36 40 35 36 40 35 36 40 35 36 40 35 36 40 35 36 40 35 36 40 35 36 41 
35 36 41 35 36 40 33 35 39 33 35 39 33 35 39 33 35 39 34 35 39 35 36 40 
34 35 39 33 35 40 33 37 42 33 37 42 33 37 42 33 37 42 33 37 42 33 37 42 
33 37 42 33 37 42 33 37 42 33 37 42 33 37 42 33 37 42 33 37 42 34 36 41 
35 36 40 35 36 40 35 36 40 35 36 40 35 36 41 35 36 40 34 36 40 33 35 39 
33 35 39 34 35 39 35 36 40 35 36 41 35 36 40 35 36 40 35 36 40 35 36 40 
35 36 40 35 36 40 35 36 40 35 36 41 35 36 41 34 36 41 33 35 39 32 34 38 
33 35 39 33 35 39 34 36 40 36 37 41 35 36 40 34 35 39 33 35 39 33 35 39 
33 35 39 33 35 39 33 35 39 33 35 39 33 35 39 34 36 40 35 36 40 35 36 40 
35 36 40 35 36 40 35 36 40 35 36 40 35 36 40 35 36 40 35 36 40 35 36 40 
33 35 39 33 35 39 35 36 40 35 36 40 35 36 40 35 36 40 34 36 40 33 35 39 
33 35 39 35 36 40 35 36 40 35 36 40 35 36 40 35 36 40 35 36 40 35 36 40 
35 36 40 35 36 40 35 36 40 35 36 40 35 36 40 35 36 40 35 36 40 35 36 40 
35 36 40 35 36 40 35 36 40 35 36 40 35 36 40 34 35 39 35 36 40 36 37 41 
34 35 39 33 35 39 33 35 39 33 35 39 33 35 39 33 35 39 34 35 39 35 36 40 
35 36 40 35 36 40 35 36 40 35 36 40 35 36 40 35 36 40 35 36 40 35 36 40 
35 36 40 35 36 40 34 36 40 35 36 40 35 36 40 35 36 40 36 37 41 36 37 41 
36 37 41 35 36 40 36 37 41 36 37 41 35 36 40 35 36 40 35 36 40 35 36 40 
35 36 40 35 36 40 36 37 41 36 37 41 36 37 41 35 36 40 36 37 41 35 36 40 
35 36 40 36 37 41 36 37 41 36 37 41 36 37 41 35 36 40 35 36 40 35 36 40 
35 36 40 35 36 40 36 37 41 36 37 41 36 37 41 36 37 41 35 36 40 36 37 41 
36 37 41 36 37 41 36 37 41 36 37 41 36 37 41 33 37 42 33 37 42 33 37 42 
34 38 43 34 38 43 34 38 43 34 38 43 34 38 43 34 38 43 34 38 43 34 38 43 
34 38 43 33 37 42 33 37 42 34 38 41 
34 36 45 34 36 45 32 33 43 33 34 40 33 35 39 34 35 39 35 36 40 35 36 40 
36 37 41 36 37 41 36 37 41 36 37 41 36 37 41 37 38 42 35 36 40 35 36 40 
36 37 41 36 37 41 36 37 41 36 37 41 36 37 41 36 37 41 35 37 41 34 36 40 
35 36 40 35 36 40 35 36 40 35 36 40 35 36 40 35 36 40 36 37 41 36 37 41 
36 37 41 35 36 40 35 36 40 35 36 40 35 36 40 35 36 40 35 36 40 35 36 40 
35 36 40 36 37 41 35 36 40 35 36 40 35 36 40 35 36 40 35 36 40 35 36 40 
35 36 40 35 36 40 35 36 40 35 36 40 35 36 40 35 36 40 35 36 40 34 36 40 
35 36 40 35 36 40 36 37 41 35 36 40 35 36 40 35 36 40 35 36 40 35 36 40 
35 36 40 35 36 40 35 36 40 35 36 40 35 36 40 35 36 40 36 37 41 35 37 41 
35 37 41 35 37 41 35 37 41 35 34 39 35 34 39 35 34 39 33 35 39 33 35 39 
34 35 39 35 34 39 35 34 39 34 35 39 34 36 40 35 36 40 35 36 40 35 36 40 
34 36 40 33 37 42 34 36 41 33 35 40 34 36 41 34 36 41 33 35 40 34 36 41 
34 36 41 34 36 41 34 36 40 34 35 39 34 35 39 34 35 39 34 35 39 34 36 40 
34 35 40 34 35 39 34 35 39 35 34 39 35 35 40 34 35 40 34 35 39 34 35 39 
34 35 39 34 36 40 34 36 40 34 35 40 34 35 40 34 35 40 35 35 40 36 35 42 
36 35 42 35 34 39 34 34 39 34 34 39 34 34 39 34 34 39 35 34 39 35 36 40 
33 35 39 33 35 40 34 36 41 33 35 40 33 35 40 33 35 40 34 36 40 34 36 41 
32 35 41 32 35 41 32 35 41 32 35 41 34 36 41 34 36 41 34 36 41 34 36 41 
34 35 40 34 35 39 34 35 39 34 35 40 34 36 41 35 35 40 34 34 39 34 34 39 
34 34 39 33 35 39 34 36 40 34 36 40 34 36 40 34 36 40 34 36 40 34 35 40 
34 35 40 34 35 40 34 35 40 34 36 41 34 36 41 34 36 41 34 36 40 33 35 39 
33 35 39 33 35 39 34 35 39 35 36 40 34 36 40 33 35 39 34 35 39 34 36 40 
35 36 40 35 36 40 34 35 39 33 35 39 33 35 39 34 35 39 34 36 40 34 35 39 
34 35 39 34 35 39 34 35 39 34 35 39 34 35 39 34 35 39 34 35 39 34 35 39 
33 35 39 33 35 39 34 35 39 34 35 39 34 35 39 34 35 39 33 35 39 32 34 39 
33 34 40 34 35 40 34 35 39 34 35 40 34 35 40 33 35 40 34 35 40 35 36 40 
34 36 40 34 35 39 34 36 40 34 36 40 34 36 40 34 35 39 34 35 39 34 35 39 
34 35 39 34 35 39 34 36 40 35 36 40 35 36 40 34 36 40 34 36 40 34 36 40 
34 35 39 34 34 39 34 34 39 34 34 39 34 34 39 34 34 39 34 35 39 34 35 39 
34 36 40 34 36 40 34 36 40 34 36 40 34 35 39 34 35 39 34 35 39 35 36 40 
35 36 40 34 36 40 34 35 39 35 36 40 35 36 40 35 36 40 35 36 40 36 37 41 
36 37 41 36 37 41 36 37 41 36 37 41 35 36 40 35 36 40 35 36 40 36 37 41 
36 37 41 36 37 41 36 37 41 36 37 41 36 37 41 36 37 41 36 37 41 36 37 41 
36 37 41 36 37 41 35 36 40 35 36 40 35 36 40 35 36 40 35 36 40 35 36 40 
35 36 40 35 36 40 36 37 41 36 37 41 36 37 41 36 37 41 36 37 41 37 38 42 
36 37 41 36 37 41 36 37 41 36 37 41 36 37 41 33 37 42 33 37 42 34 38 43 
34 38 43 34 38 43 34 38 43 34 38 43 34 38 43 34 38 43 34 38 43 34 38 43 
34 38 43 33 37 42 34 38 43 35 39 43 
35 36 48 35 36 48 34 36 45 35 36 40 34 35 39 35 36 40 35 37 41 35 36 40 
36 37 41 36 37 41 36 37 41 36 37 41 36 37 41 36 37 41 36 37 41 36 37 41 
36 37 41 36 37 41 36 37 41 36 37 41 37 38 42 36 37 41 36 37 41 35 37 41 
35 36 40 35 36 40 35 36 40 35 36 40 35 36 40 35 36 40 35 36 40 35 36 40 
36 37 41 36 37 41 36 37 41 35 36 40 35 36 40 35 36 40 35 36 40 34 36 40 
35 36 40 35 36 40 35 36 40 36 37 41 36 37 41 35 36 40 35 36 40 35 36 40 
35 36 40 35 36 40 35 36 40 35 36 40 35 36 40 35 36 40 35 36 40 34 35 39 
34 35 39 34 36 40 34 36 40 34 35 39 34 36 40 34 36 40 34 35 39 34 35 39 
34 35 39 34 36 40 34 36 40 34 35 39 34 35 39 34 35 39 34 35 39 35 36 40 
36 35 39 35 34 40 36 35 39 35 34 39 35 34 39 35 34 39 33 35 39 32 34 38 
32 34 39 35 34 39 35 34 39 32 34 39 33 35 39 33 35 39 34 35 39 34 35 39 
33 35 39 34 36 41 32 35 41 32 34 39 32 35 41 32 35 41 32 35 41 32 35 41 
32 35 41 32 35 41 33 35 39 32 34 38 32 34 38 33 35 39 33 35 39 34 35 40 
34 34 39 35 34 39 35 34 39 35 34 40 35 34 40 34 34 39 32 34 38 32 34 38 
32 34 38 32 34 38 32 34 38 32 34 39 34 34 39 34 34 39 35 34 40 35 34 40 
35 34 40 35 34 39 35 34 39 35 34 39 35 34 39 35 34 39 35 35 40 34 35 39 
33 35 39 32 35 38 33 35 39 32 35 38 32 34 38 32 34 38 32 34 38 31 35 39 
32 34 39 32 35 41 32 35 41 32 35 41 32 35 41 32 35 42 32 33 43 32 35 42 
33 34 40 32 35 38 34 35 39 34 35 40 35 35 40 35 34 40 35 34 39 35 34 39 
35 34 39 35 34 39 34 35 39 34 34 39 35 34 40 35 35 40 35 35 40 34 35 39 
34 35 39 34 35 40 34 34 39 32 34 39 32 34 39 33 34 40 32 34 39 33 35 39 
33 35 39 32 34 38 33 35 39 33 35 39 34 35 39 33 35 39 33 35 39 34 35 39 
34 35 39 34 35 39 34 35 39 33 35 39 33 35 39 32 34 38 33 35 39 34 35 39 
32 34 38 32 34 38 32 34 38 33 35 39 33 35 39 33 35 39 32 34 38 32 34 38 
33 35 39 33 35 39 33 35 39 33 35 39 32 34 38 32 34 38 32 34 38 32 34 38 
32 34 39 32 34 38 32 34 38 32 34 38 32 34 39 32 33 43 32 33 43 34 36 41 
35 36 40 34 35 39 33 35 39 33 35 39 32 34 38 32 34 38 33 35 39 32 34 38 
32 34 38 32 35 38 33 35 39 34 35 39 34 35 39 34 35 39 34 34 39 35 34 40 
35 34 39 35 34 39 35 34 39 35 34 39 35 34 40 35 34 39 34 34 39 33 35 39 
32 34 38 33 35 39 33 35 39 33 35 39 32 34 38 32 34 38 32 34 38 34 35 39 
35 36 40 33 35 39 32 34 38 34 35 39 35 36 40 35 36 40 35 36 40 36 37 41 
36 37 41 36 37 41 36 37 41 36 37 41 35 36 40 35 36 40 35 36 40 36 37 41 
36 37 41 36 37 41 36 37 41 36 37 41 36 37 41 37 38 42 36 37 41 36 37 41 
36 37 41 35 36 40 35 37 41 35 36 40 34 35 39 35 36 40 35 36 40 35 36 40 
34 35 39 35 36 40 36 37 41 36 37 41 36 37 41 36 37 41 36 37 41 37 38 42 
37 38 42 36 38 42 36 37 41 36 37 41 36 37 41 35 39 44 34 38 43 33 37 42 
34 38 43 33 37 42 33 37 43 33 37 43 33 37 42 34 38 43 34 38 43 34 38 43 
34 38 43 34 38 43 34 38 44 35 39 44 
34 36 45 34 36 45 33 37 43 35 36 41 35 36 40 35 36 40 36 37 41 36 37 41 
36 37 41 36 37 41 36 37 41 36 37 41 36 37 41 36 37 41 36 37 41 36 37 41 
36 37 41 36 37 41 36 37 41 36 37 41 37 38 42 37 38 42 36 37 41 36 37 41 
35 36 40 35 36 40 35 36 40 34 36 40 34 36 40 35 36 40 35 36 40 35 36 40 
35 36 40 36 37 41 35 37 41 34 36 40 35 36 40 35 36 40 36 37 41 35 36 40 
35 36 40 35 36 40 35 36 40 36 37 41 36 37 41 35 36 40 35 36 40 35 36 40 
35 36 40 35 36 40 35 36 40 35 36 40 35 36 40 36 37 41 36 37 41 34 36 40 
33 35 39 34 36 40 35 36 40 33 35 39 34 36 40 35 36 40 33 35 39 33 35 39 
34 35 39 35 36 40 34 36 40 33 35 39 33 35 39 33 35 39 33 35 39 34 34 39 
35 34 40 36 34 42 36 34 42 35 34 39 35 34 39 35 34 40 34 35 39 32 34 38 
32 34 38 35 34 39 35 34 39 34 34 39 33 35 39 33 35 39 33 35 39 33 35 39 
33 35 39 32 35 41 32 35 41 32 34 39 32 35 41 32 35 41 32 35 41 32 35 41 
32 35 41 32 35 41 32 34 39 32 34 38 33 35 39 33 35 39 33 35 39 34 34 39 
36 34 42 36 34 42 36 35 41 35 34 40 34 32 40 32 34 39 32 34 38 32 34 38 
32 34 38 32 34 38 32 34 38 33 34 40 35 34 40 35 34 39 35 34 39 35 34 39 
35 34 39 35 34 39 35 34 39 34 34 39 35 34 40 36 35 41 34 34 39 34 35 39 
32 35 38 32 34 38 33 35 39 32 34 38 32 34 38 32 34 38 32 34 38 32 34 39 
32 34 39 32 34 39 32 35 41 32 35 42 32 33 43 32 33 43 32 33 43 32 33 43 
32 34 39 34 35 39 36 37 41 36 35 41 35 34 39 35 34 39 35 34 39 35 34 39 
35 34 39 36 34 42 36 34 42 36 34 42 38 32 39 38 32 39 35 34 40 35 34 39 
36 34 38 35 34 40 35 34 40 34 32 40 34 32 40 34 32 40 32 34 39 34 35 40 
33 35 39 32 34 38 33 35 39 33 35 39 34 35 39 34 35 39 33 35 39 33 35 39 
32 34 38 32 34 38 33 35 39 33 35 39 34 36 40 32 34 38 33 35 39 34 35 39 
32 34 38 32 34 38 32 34 38 33 35 39 33 35 39 33 35 39 33 35 39 33 35 39 
33 35 39 33 35 39 34 36 40 34 35 39 32 34 38 32 34 38 32 34 38 32 29 37 
32 29 37 31 33 37 32 34 38 32 34 38 32 35 41 32 33 43 33 33 43 32 35 42 
35 36 40 35 36 40 34 36 40 31 33 37 31 33 37 31 33 37 32 34 38 32 34 38 
32 34 38 32 35 38 33 35 39 33 35 39 32 34 39 34 32 40 36 34 42 38 32 39 
38 32 39 35 34 39 35 34 39 35 34 39 34 32 40 35 34 39 34 34 39 33 35 39 
32 34 38 32 34 38 33 35 39 33 35 39 32 34 38 32 34 38 32 34 38 33 35 39 
33 35 39 34 35 39 33 35 39 34 35 39 35 36 40 35 36 40 35 36 40 36 37 41 
36 37 41 36 37 41 36 37 41 36 37 41 35 36 40 35 36 40 35 36 40 36 37 41 
36 37 41 36 37 41 36 37 41 36 37 41 36 37 41 36 37 41 36 37 41 36 37 41 
36 37 41 35 36 40 36 37 41 36 37 41 35 37 41 35 36 40 35 36 40 35 36 40 
33 35 39 35 36 40 36 37 41 35 36 40 34 36 40 37 37 42 37 39 43 37 38 42 
37 39 43 37 39 43 37 39 43 38 39 43 37 39 43 35 39 44 35 39 44 33 37 42 
34 38 43 34 38 43 34 38 43 35 39 44 34 38 43 34 38 43 34 38 43 34 38 43 
34 38 43 34 38 43 34 38 43 35 39 44 
33 37 42 33 37 42 34 38 43 35 36 41 34 35 39 35 36 40 36 37 41 36 37 41 
36 37 41 36 37 41 36 37 41 36 37 41 36 37 41 36 37 41 36 37 41 36 37 41 
36 37 41 36 37 41 36 37 41 36 38 42 37 39 43 37 38 42 36 37 41 36 37 41 
35 36 40 35 36 40 35 36 40 36 37 41 36 37 41 34 36 40 35 36 40 35 36 40 
35 36 40 36 37 41 34 36 41 33 37 42 33 37 42 35 37 41 36 37 41 36 37 41 
35 36 40 35 36 40 35 36 40 35 37 41 35 37 41 35 36 40 35 36 40 35 36 40 
36 37 41 35 36 40 35 36 40 35 36 40 35 36 40 35 36 40 35 36 40 35 36 40 
35 36 40 35 36 40 35 36 40 35 36 40 35 36 40 35 36 40 35 36 40 35 36 40 
35 36 40 35 36 40 35 35 40 35 34 39 35 34 39 35 34 40 35 34 40 35 34 39 
35 34 39 35 34 39 35 34 39 35 34 39 35 34 40 36 35 42 34 35 39 32 34 38 
32 34 38 33 35 39 33 35 39 32 34 39 32 34 38 33 35 39 33 35 40 34 36 41 
34 36 41 33 36 42 32 35 41 33 37 43 32 35 41 31 35 39 32 35 41 32 34 39 
31 33 37 32 34 38 32 34 38 32 34 38 31 33 37 32 34 38 32 34 38 32 34 39 
34 35 40 35 34 40 36 35 39 35 34 40 35 34 39 32 34 39 32 34 38 33 35 39 
32 34 38 32 34 38 33 35 39 35 34 40 34 32 40 34 32 40 35 34 40 36 35 39 
35 34 39 32 34 38 32 34 38 32 34 38 34 35 40 36 37 41 35 36 41 34 35 40 
32 34 38 32 34 39 34 34 39 35 34 40 32 34 39 32 34 38 32 34 38 31 33 37 
32 34 38 33 35 39 33 34 40 32 35 41 28 35 39 32 33 43 32 33 43 32 33 43 
32 35 42 34 36 41 35 35 40 34 34 39 32 34 39 32 34 39 31 33 37 31 33 37 
32 34 38 35 34 39 35 34 40 35 34 40 38 32 39 38 32 39 36 34 38 36 34 38 
34 32 40 32 34 38 32 34 38 32 34 39 32 34 39 32 29 37 34 34 39 32 33 43 
32 33 43 32 35 42 34 35 40 34 35 39 33 35 39 33 35 39 33 35 39 33 35 39 
33 35 39 32 34 38 32 34 38 32 34 38 33 35 39 34 35 39 34 35 39 32 34 38 
32 35 38 32 34 39 32 35 41 33 33 43 33 33 43 32 33 43 33 34 40 32 35 38 
33 35 39 33 35 39 33 35 39 34 35 39 32 34 38 32 34 38 32 34 39 32 33 43 
32 33 43 31 33 37 31 33 37 31 33 37 32 34 39 32 33 43 32 33 43 32 33 43 
33 33 43 32 33 43 33 35 40 32 35 38 32 34 38 33 35 40 32 35 41 32 35 41 
34 36 41 34 35 40 34 35 39 33 34 40 32 33 43 33 33 43 34 33 43 34 33 43 
35 34 40 36 34 38 36 34 38 35 34 39 33 35 39 32 34 38 32 34 38 32 34 38 
32 34 39 32 34 39 32 34 39 33 35 40 32 34 39 32 34 38 33 35 39 33 35 39 
35 36 40 35 36 40 35 36 40 35 36 40 35 36 40 35 36 40 35 36 40 36 37 41 
36 37 41 36 37 41 36 37 41 36 37 41 36 37 41 36 37 41 36 37 41 36 37 41 
37 38 42 36 37 41 36 37 41 36 37 41 36 37 41 36 37 41 36 37 41 35 36 40 
35 36 40 36 37 41 36 37 41 34 36 40 33 37 42 34 38 43 34 38 43 33 37 42 
33 36 42 33 37 42 33 37 42 33 37 42 33 37 42 34 38 43 35 39 44 36 38 43 
37 38 42 37 38 42 37 38 42 37 38 42 38 40 44 36 40 45 34 39 43 35 39 44 
35 39 44 35 39 44 34 38 43 35 39 44 35 39 44 34 38 43 34 38 43 34 38 43 
34 38 43 34 38 43 35 39 44 36 40 44 
33 37 42 33 37 42 34 38 43 35 37 41 34 35 39 35 36 40 36 37 41 36 37 41 
36 37 41 36 37 41 36 37 41 36 37 41 36 37 41 36 37 41 36 37 41 36 37 41 
36 37 41 36 37 41 36 37 41 36 37 41 37 38 42 37 38 42 36 37 41 35 36 40 
34 35 39 34 35 39 34 35 39 34 36 40 35 36 40 34 36 40 35 36 40 35 36 40 
35 36 40 35 36 40 34 36 41 34 38 43 33 37 42 34 36 41 36 37 41 36 37 41 
35 36 40 35 36 40 35 36 40 35 37 41 35 37 41 35 36 40 35 36 40 35 36 40 
36 37 41 35 36 40 35 36 40 35 36 40 35 36 40 35 36 40 35 36 40 35 36 40 
34 36 40 34 35 39 34 36 40 35 36 40 34 35 39 35 36 40 35 36 40 35 36 40 
35 36 40 35 36 40 35 35 40 35 34 39 35 34 40 35 34 40 35 34 40 35 34 39 
35 34 39 34 34 39 34 34 39 32 34 39 33 35 40 35 36 41 34 35 39 32 34 38 
32 34 38 34 35 39 33 35 39 32 34 38 32 34 38 33 35 39 34 36 41 34 38 43 
33 37 42 33 37 42 33 37 42 33 37 43 36 37 42 35 35 40 34 35 40 32 34 38 
31 33 37 32 34 38 32 34 38 32 34 38 31 33 37 32 34 38 32 34 38 32 35 38 
32 34 39 34 35 40 36 34 42 35 34 40 35 34 40 34 35 40 33 35 39 34 35 39 
33 35 39 33 35 39 34 35 40 35 34 40 34 32 40 34 32 40 35 34 40 35 34 40 
35 34 39 33 35 39 34 36 40 35 36 40 34 36 40 35 36 40 36 37 41 34 35 40 
32 34 39 34 32 40 35 34 40 35 34 40 32 34 39 33 35 39 33 35 39 34 35 39 
33 35 39 34 35 39 36 35 41 33 37 42 32 39 43 34 36 45 34 36 45 32 35 42 
30 37 41 32 35 41 32 34 39 32 34 38 32 34 39 31 35 39 31 33 37 31 33 37 
31 33 37 32 34 38 32 34 38 32 34 39 35 34 40 35 34 40 34 34 39 32 34 39 
32 34 39 32 34 38 32 34 38 32 34 38 32 34 39 34 32 40 35 34 40 33 33 43 
32 33 43 33 33 43 33 35 40 34 37 38 33 35 39 32 34 39 33 35 39 34 36 40 
33 35 39 32 34 38 32 34 38 32 34 38 33 35 39 35 36 40 33 35 39 32 34 38 
32 35 38 32 34 39 32 35 41 33 33 43 34 36 45 33 33 43 33 34 40 32 35 38 
33 35 39 34 35 39 33 35 39 33 35 39 33 35 39 32 35 38 32 34 39 32 33 43 
32 33 43 33 34 40 32 34 38 31 33 37 32 34 39 32 33 43 32 33 43 32 33 43 
33 33 43 33 33 43 34 36 41 32 35 38 33 35 39 34 36 41 32 35 41 32 35 42 
32 35 42 35 35 40 34 35 39 33 34 40 32 33 43 33 33 43 32 33 43 32 33 43 
32 35 41 32 34 38 32 34 39 32 34 38 32 35 38 32 34 38 32 34 38 32 34 38 
34 35 39 34 36 41 32 35 42 32 35 42 33 35 40 33 35 39 34 35 39 33 35 39 
33 35 39 35 36 40 35 36 40 35 36 40 34 36 40 35 36 40 35 36 40 36 37 41 
36 37 41 36 37 41 36 37 41 36 37 41 35 36 40 35 36 40 35 36 40 35 36 40 
36 37 41 36 37 41 36 37 41 38 38 41 36 37 41 36 37 41 36 37 41 35 36 40 
36 37 41 36 37 41 36 37 41 34 36 41 34 38 44 34 38 43 34 38 43 33 37 42 
33 36 42 33 37 42 34 38 43 33 38 43 33 37 42 34 38 43 35 39 44 37 39 43 
38 39 43 38 39 43 38 39 43 38 39 43 38 40 44 36 40 45 34 38 43 35 39 44 
35 39 45 34 38 44 34 38 44 34 38 43 35 39 44 34 39 43 34 38 43 34 38 43 
34 38 43 34 38 41 35 39 44 36 40 44 
34 38 43 34 38 43 34 38 43 35 37 41 35 36 40 36 37 41 36 37 41 36 37 41 
36 37 41 36 37 41 36 37 41 36 37 41 36 37 41 36 37 41 36 37 41 36 37 41 
37 38 42 37 38 42 36 37 41 35 36 40 35 36 40 36 37 41 36 37 41 35 36 40 
35 36 40 35 36 40 35 36 40 35 36 40 35 36 40 35 36 40 36 37 41 36 37 41 
35 36 40 35 36 40 34 36 41 33 37 42 33 37 42 34 36 41 35 36 40 35 36 40 
35 36 40 35 36 40 36 37 41 35 36 40 35 36 40 35 36 40 36 37 41 36 37 41 
35 36 40 35 36 40 35 36 40 35 36 40 36 37 41 35 36 40 35 36 40 35 36 40 
34 35 39 34 35 39 33 35 39 33 35 39 32 34 38 34 35 39 35 36 40 35 36 40 
35 36 40 35 36 40 35 35 40 35 34 39 35 34 39 34 32 40 35 34 39 35 34 39 
34 32 40 34 32 40 34 32 40 32 34 39 32 35 41 32 34 39 32 34 38 33 35 39 
33 35 39 33 35 39 34 35 39 33 35 39 33 35 39 33 35 39 34 36 41 34 38 43 
33 37 42 33 37 42 33 37 42 33 37 42 36 35 42 34 32 40 34 32 40 32 34 39 
32 34 38 33 35 39 32 34 38 31 33 37 32 34 38 32 34 38 35 35 40 33 35 40 
30 37 41 33 36 42 36 35 41 35 34 39 35 34 40 34 34 39 33 35 39 32 34 39 
32 34 38 32 34 38 32 34 39 32 34 39 35 34 39 34 32 40 34 32 40 34 32 40 
34 32 40 32 34 38 32 34 38 32 34 38 31 33 37 32 34 38 34 35 40 35 34 40 
34 32 40 34 32 40 34 32 40 34 32 40 32 34 39 32 34 38 32 34 38 31 33 37 
31 33 37 34 35 39 35 36 40 33 37 42 30 37 41 33 37 43 34 36 45 33 37 43 
30 37 41 33 36 42 33 35 39 32 34 38 32 34 39 31 35 39 33 35 39 34 35 39 
32 34 39 31 35 39 31 33 37 31 33 37 33 35 40 33 35 40 32 34 39 31 35 39 
32 35 41 32 34 39 34 35 39 32 34 38 32 29 37 34 32 40 34 32 40 33 34 40 
31 33 37 32 33 43 33 35 40 32 35 38 33 35 39 34 35 39 35 36 40 36 37 41 
33 35 39 32 34 38 32 34 38 34 35 39 34 36 40 37 38 42 36 37 41 32 35 38 
32 34 39 32 34 39 32 34 39 33 34 40 32 33 43 32 33 43 33 34 40 32 35 38 
33 35 39 35 36 40 34 36 40 32 35 38 34 35 39 33 35 39 32 34 39 33 33 43 
32 33 43 32 34 39 32 35 38 32 34 39 32 33 43 32 33 43 32 33 43 32 33 43 
32 33 43 32 33 43 33 34 40 32 35 38 33 35 40 32 35 41 32 35 41 32 34 39 
32 35 41 34 35 40 34 35 39 33 34 40 32 33 43 32 33 43 32 33 43 32 33 43 
28 35 39 28 35 39 32 35 41 32 34 39 34 35 39 33 35 39 32 34 38 32 34 38 
33 35 39 33 37 42 33 37 42 33 37 42 34 36 41 35 36 40 35 36 40 32 34 38 
32 34 38 34 36 40 35 36 40 34 36 40 34 36 40 36 37 41 35 37 41 36 38 42 
37 38 42 37 38 42 37 38 42 37 38 42 36 37 41 36 37 41 36 37 41 34 36 40 
34 36 40 37 38 42 37 38 42 37 38 42 36 38 42 35 37 41 35 37 41 36 37 41 
36 37 41 36 37 41 36 37 41 35 37 41 35 39 44 34 38 43 35 39 44 35 39 44 
34 38 44 34 38 44 34 38 43 34 38 43 35 39 44 35 39 45 35 39 44 37 40 44 
38 40 44 38 40 44 38 40 44 38 40 44 38 40 44 35 39 44 35 39 45 34 38 43 
34 38 44 35 38 44 35 39 44 34 38 43 34 38 43 34 38 43 34 38 43 34 38 43 
35 39 44 35 39 45 35 39 44 36 40 44 
36 37 41 36 37 41 36 37 41 36 37 41 36 37 41 36 37 41 36 37 41 36 37 41 
37 38 42 37 39 43 37 38 42 37 38 42 37 38 42 36 37 41 36 37 41 36 37 41 
36 37 41 36 37 41 36 37 41 36 37 41 36 37 41 36 37 41 36 37 41 36 37 41 
35 36 40 33 35 39 34 36 40 36 37 41 35 37 41 33 37 42 34 38 43 34 38 41 
35 36 40 36 37 41 36 37 41 35 36 40 36 37 41 36 37 41 36 37 41 36 37 41 
35 36 40 35 36 40 35 36 40 36 37 41 36 37 41 35 36 40 35 36 40 35 36 40 
35 36 40 35 36 40 35 36 40 35 36 40 35 36 40 35 36 40 35 36 40 35 36 40 
35 36 40 35 36 40 33 35 39 33 35 39 33 35 39 34 36 40 35 36 40 34 36 40 
33 37 39 33 37 39 34 36 40 34 35 39 33 35 39 34 34 39 35 34 39 35 34 40 
34 33 43 34 32 40 34 34 39 32 34 38 32 34 38 32 34 38 33 35 39 32 34 38 
32 34 38 34 35 39 34 35 39 33 35 40 32 35 41 32 35 41 30 37 41 30 37 41 
30 37 41 33 37 42 33 37 42 33 37 42 34 35 40 34 32 40 35 35 40 33 35 39 
33 35 39 33 35 39 33 35 39 33 35 39 32 34 38 34 34 39 36 35 41 35 36 41 
33 37 42 32 35 41 32 34 39 34 34 39 32 34 39 33 34 40 32 33 43 32 33 43 
33 33 43 34 33 43 34 33 43 34 32 40 35 34 40 34 34 39 32 34 38 32 34 38 
32 34 38 32 34 39 34 34 39 32 34 38 33 35 39 33 35 39 35 35 40 35 34 40 
34 32 40 34 32 40 34 32 40 34 32 40 32 34 39 32 34 38 32 34 38 32 34 38 
33 35 39 35 36 40 34 36 41 33 37 42 33 37 42 33 37 42 33 37 42 33 37 42 
33 37 42 33 37 42 34 36 41 34 36 41 31 35 39 28 35 39 32 35 42 33 37 42 
30 37 41 30 37 41 33 35 40 32 34 39 34 32 40 34 32 40 32 34 39 33 35 39 
34 35 39 35 36 40 34 35 39 31 33 37 32 34 39 34 32 40 34 32 40 32 34 38 
34 35 40 33 34 40 32 34 38 32 34 38 34 35 39 33 35 39 33 37 39 33 38 43 
32 35 41 32 35 41 32 35 41 32 34 39 33 37 43 36 38 43 34 36 40 32 34 38 
32 35 38 33 35 40 33 35 39 33 35 40 32 35 41 32 35 41 33 35 39 33 35 39 
35 37 41 36 37 41 35 36 40 32 34 38 32 34 38 33 35 39 33 35 39 33 35 40 
33 35 39 32 34 38 32 35 38 32 35 38 33 34 40 33 33 43 33 33 43 32 33 43 
32 33 43 32 33 43 32 35 41 32 35 41 32 35 41 32 35 42 32 33 43 32 35 42 
32 35 41 32 35 41 32 34 39 32 34 38 32 34 39 33 35 40 32 35 41 31 35 39 
31 35 39 32 34 39 31 35 39 31 35 39 32 34 39 32 34 39 32 34 39 32 34 38 
33 35 39 33 37 42 33 37 42 33 37 42 33 37 42 33 37 42 32 35 41 33 35 39 
33 35 39 33 35 39 36 37 41 36 37 41 34 36 41 34 38 43 33 37 42 34 38 43 
35 38 43 34 38 43 35 38 43 35 39 43 35 39 44 35 39 44 34 38 43 35 38 43 
34 38 43 34 38 43 35 38 43 34 38 43 34 38 43 34 38 43 34 39 43 35 39 44 
35 39 44 35 39 44 35 39 44 35 39 44 36 40 44 36 40 44 36 40 44 35 39 44 
35 38 44 34 38 44 34 38 44 35 39 44 35 39 44 35 39 44 35 39 44 35 39 44 
35 39 44 35 39 44 35 39 44 35 39 44 35 39 44 35 39 44 35 39 45 36 40 46 
35 39 44 35 39 44 36 39 44 35 38 43 34 38 43 34 38 43 34 38 43 34 38 43 
35 39 45 36 40 46 35 39 44 36 40 44 
36 37 41 36 37 41 36 37 41 35 36 40 36 37 41 36 37 41 36 37 41 36 38 42 
37 38 42 38 39 43 37 38 42 37 38 42 37 38 42 36 38 42 37 38 42 37 38 42 
36 37 41 36 37 41 35 37 41 36 37 41 36 37 41 36 37 41 36 37 41 37 38 42 
36 38 42 35 37 41 34 36 40 35 36 40 35 37 41 33 37 42 33 38 43 33 37 42 
35 36 40 36 37 41 36 37 41 35 36 40 35 36 40 36 37 41 36 37 41 36 37 41 
35 36 40 35 36 40 35 36 40 36 37 41 36 37 41 35 36 40 35 36 40 35 36 40 
35 36 40 35 36 40 35 36 40 36 37 41 36 37 41 35 36 40 35 36 40 35 36 40 
35 36 40 35 36 40 34 35 39 33 35 39 32 34 38 33 35 39 35 36 40 34 36 40 
33 37 39 33 37 39 33 35 39 33 35 39 33 35 39 34 34 39 36 35 39 35 34 40 
34 33 43 34 32 40 34 34 39 32 34 38 32 34 38 32 34 38 33 35 39 32 34 38 
32 35 38 32 35 41 32 35 41 32 35 41 32 35 41 32 35 41 33 38 43 33 38 43 
30 37 41 32 35 42 32 35 41 32 35 42 35 38 43 34 36 41 34 36 41 34 35 40 
34 36 40 34 36 40 35 36 40 34 35 39 34 35 39 34 35 40 34 36 41 34 36 41 
33 36 42 31 35 39 32 34 39 33 35 40 33 35 40 33 33 43 34 36 45 34 36 45 
34 36 45 34 36 45 34 36 45 34 36 41 35 36 41 35 36 41 34 36 40 33 35 39 
33 35 39 34 36 40 33 35 40 33 34 40 33 35 39 34 35 39 35 35 40 35 35 40 
34 32 40 32 34 38 34 32 40 36 34 42 35 35 40 34 35 39 34 35 39 34 36 40 
34 35 39 35 36 40 34 36 41 33 37 42 33 37 42 33 37 42 33 37 42 33 36 42 
33 36 42 33 36 42 33 37 43 33 36 42 31 35 39 28 35 39 32 35 42 30 37 41 
30 37 41 30 37 41 34 36 40 35 35 40 34 32 40 34 32 40 32 34 39 34 35 39 
35 34 39 35 36 40 34 35 39 32 34 38 34 34 39 34 34 39 34 34 39 34 35 39 
34 35 39 33 35 39 32 34 38 33 35 39 33 35 39 33 35 39 34 38 41 33 38 43 
33 36 42 32 35 41 32 35 41 31 35 39 32 35 41 35 37 41 34 35 39 32 34 38 
34 36 40 35 36 40 35 36 41 33 36 42 33 36 42 33 36 42 34 36 41 34 36 40 
35 36 40 35 36 40 35 36 40 33 35 39 32 34 38 33 35 39 33 35 39 32 35 38 
32 35 38 32 35 38 32 35 38 33 35 39 33 35 40 33 34 40 33 34 40 32 33 43 
32 33 43 32 33 43 32 35 41 32 35 41 32 35 41 32 35 42 32 35 42 32 35 41 
32 35 41 32 35 41 33 35 40 32 34 39 33 35 39 33 35 40 32 35 41 32 35 41 
32 35 41 32 34 39 32 34 39 32 35 41 32 35 41 32 35 41 33 35 40 33 35 39 
34 36 40 34 36 41 33 37 42 33 37 42 33 37 42 32 35 41 32 34 39 34 35 39 
34 35 39 34 35 39 36 37 41 36 37 41 35 37 41 34 38 43 34 38 43 34 38 43 
34 38 43 34 38 43 34 38 43 34 38 43 34 38 43 34 38 43 33 37 42 33 38 43 
34 38 43 34 38 43 33 37 43 34 38 43 34 38 43 34 38 43 34 39 43 34 38 43 
35 39 44 35 39 44 35 39 44 35 39 44 36 40 44 37 41 44 36 40 44 35 39 44 
34 38 43 35 39 44 36 40 45 35 39 45 35 39 44 35 39 44 35 39 44 35 39 45 
35 39 45 35 39 45 36 40 46 36 40 46 36 40 46 35 39 45 35 39 45 36 40 46 
36 39 45 36 40 46 37 41 46 36 40 46 36 40 46 36 40 46 36 40 46 36 40 46 
36 40 46 36 40 46 35 39 45 36 40 44 
36 37 41 36 37 41 36 37 41 35 36 40 36 37 41 36 37 41 37 38 42 37 38 42 
37 39 43 37 38 42 37 38 42 37 38 42 37 38 42 37 38 42 37 38 42 36 39 42 
36 38 42 35 37 41 34 36 41 36 37 42 36 38 42 36 38 42 37 39 43 36 38 42 
36 37 42 36 37 41 36 37 41 35 36 40 35 37 41 35 38 43 33 37 42 34 36 41 
35 36 40 35 36 40 35 36 40 35 36 40 35 36 40 35 37 41 36 37 41 36 37 41 
35 36 41 34 36 40 34 36 40 35 36 41 35 36 41 35 36 41 35 36 41 35 36 41 
35 36 41 34 36 40 35 36 40 36 37 41 36 37 41 35 36 40 35 36 40 35 36 40 
35 36 40 35 36 40 35 36 40 35 36 41 35 36 41 34 36 41 35 36 41 34 36 40 
33 37 39 33 37 39 33 35 39 33 35 39 33 35 39 34 34 39 36 35 41 35 34 40 
34 33 43 34 32 40 34 34 39 32 34 39 33 35 40 33 35 40 33 35 40 33 35 40 
32 35 42 32 35 42 32 33 43 32 35 42 32 35 41 32 35 41 34 38 44 34 39 43 
30 37 41 32 35 41 33 36 42 33 36 42 34 38 43 34 38 43 33 37 42 34 36 41 
35 36 40 35 36 40 35 36 41 35 36 41 34 36 41 33 37 42 33 37 42 33 37 42 
33 37 42 33 37 42 32 35 41 32 35 42 33 37 43 34 36 45 36 35 45 34 36 45 
32 35 42 34 36 45 33 37 43 33 36 42 33 37 42 33 37 42 34 35 40 34 35 39 
34 36 40 34 36 41 32 35 41 33 35 40 34 35 39 35 36 40 35 35 40 36 35 42 
36 35 41 35 34 39 35 35 40 36 35 41 35 36 41 35 36 41 35 36 41 35 36 41 
35 37 41 35 37 41 33 37 42 33 36 42 33 37 42 33 37 42 33 37 42 32 35 41 
32 35 41 32 35 41 33 36 42 33 35 40 32 35 41 32 35 41 32 35 41 30 37 41 
30 37 41 33 37 42 34 36 41 36 35 41 36 35 41 35 35 40 34 35 40 33 35 40 
34 36 41 34 36 40 35 36 40 32 34 39 32 34 38 35 34 39 35 35 40 33 35 40 
33 35 39 32 35 38 33 35 39 33 35 40 33 35 40 34 36 40 35 39 42 33 37 42 
32 35 41 31 35 39 32 34 39 32 35 41 32 35 42 35 37 41 34 36 41 33 35 40 
34 36 41 36 37 42 35 37 41 34 38 43 34 38 43 34 38 43 35 37 41 36 37 42 
33 35 40 33 35 39 35 36 40 35 36 40 33 35 39 32 34 39 32 34 39 33 35 40 
33 35 40 33 35 40 33 35 40 33 35 40 33 35 40 33 35 40 33 35 40 33 37 43 
32 33 43 32 33 43 32 34 39 32 35 41 32 35 41 33 35 40 33 35 40 33 35 40 
32 35 41 32 35 41 32 35 41 33 35 40 33 35 40 33 35 40 32 35 41 32 35 41 
32 35 41 32 35 41 32 35 41 32 35 41 33 37 42 33 37 42 34 36 41 35 36 41 
35 36 41 34 36 41 33 37 42 33 37 42 33 37 42 32 35 41 32 35 41 34 36 40 
35 36 40 35 36 40 36 37 41 36 37 41 36 37 42 34 38 43 34 38 43 34 38 43 
34 38 43 34 38 43 34 38 43 34 38 43 34 38 43 34 38 43 33 37 42 33 37 42 
34 38 43 34 38 43 34 38 43 35 39 44 35 39 44 35 39 44 35 39 44 35 39 44 
35 39 44 35 39 44 35 39 44 35 39 44 36 40 45 37 41 45 36 40 44 35 39 45 
35 39 45 35 39 44 35 39 44 35 39 44 35 39 44 35 39 44 35 39 45 36 40 45 
36 40 46 36 40 46 36 40 46 36 40 46 36 40 46 36 40 46 36 40 46 36 40 46 
37 40 46 36 40 46 36 40 46 36 40 46 36 40 46 36 40 46 37 40 46 37 40 46 
37 40 46 37 40 46 37 40 46 36 40 45 
36 37 41 36 37 41 36 37 41 37 38 42 35 36 40 36 37 41 37 38 42 37 38 42 
37 38 42 37 38 42 37 38 42 37 38 42 38 39 43 37 39 42 35 38 42 34 38 41 
34 38 43 33 37 42 34 38 43 34 38 43 34 38 43 35 38 43 35 39 44 35 38 43 
34 38 43 33 37 42 35 36 41 35 36 40 35 36 40 37 38 42 36 37 41 36 37 41 
35 36 40 34 36 40 35 36 40 36 37 41 36 37 41 36 37 41 35 36 40 35 36 40 
34 36 41 33 37 42 33 37 42 33 37 42 33 37 42 33 37 42 33 37 42 33 37 42 
34 38 43 35 36 41 35 36 40 35 36 40 36 37 41 35 36 40 34 35 39 34 35 39 
33 35 39 34 36 41 33 37 42 33 37 42 35 38 43 33 37 42 33 37 42 34 36 41 
33 37 39 34 38 41 34 38 41 33 37 42 33 37 42 35 36 40 35 35 40 34 35 39 
32 34 39 32 34 38 32 34 38 32 34 39 32 35 41 32 35 41 32 35 41 32 35 41 
32 35 42 32 33 43 32 33 43 32 35 42 32 35 41 32 35 41 33 37 43 34 38 43 
32 35 42 32 35 41 34 38 43 34 38 43 33 37 42 33 37 42 33 37 42 33 37 42 
33 37 42 33 37 42 33 37 42 33 37 42 33 37 42 33 37 42 33 37 42 33 37 42 
33 37 42 33 37 42 33 37 42 33 37 42 33 37 43 34 36 45 34 36 45 34 36 45 
32 35 42 33 37 42 32 35 41 33 35 40 34 36 41 34 36 41 33 34 40 35 35 40 
36 35 41 35 36 41 34 36 41 34 36 40 35 36 40 35 36 40 35 36 40 35 36 40 
35 36 40 35 36 40 35 36 40 35 36 40 34 36 41 33 37 42 33 37 42 33 37 42 
34 38 43 34 38 43 33 37 42 33 37 42 33 37 42 33 37 42 33 37 42 32 35 41 
32 35 41 33 36 42 33 36 42 32 35 41 32 35 41 32 35 41 33 37 42 34 38 43 
33 38 43 33 37 42 33 36 42 33 37 42 33 37 42 33 36 42 33 37 42 33 37 42 
33 37 42 35 36 41 35 36 40 34 35 40 34 35 39 35 36 40 35 36 40 33 37 42 
33 36 42 34 36 41 34 36 41 33 37 42 33 37 42 34 38 43 35 39 44 35 39 44 
33 37 42 33 37 42 33 37 42 34 38 43 33 37 43 34 38 43 34 38 43 33 37 42 
33 37 42 34 38 43 34 38 43 34 38 43 34 38 43 34 38 43 34 38 43 34 38 43 
33 37 42 33 35 40 34 35 39 35 37 41 34 36 41 32 34 39 31 35 39 32 35 41 
32 35 41 32 35 41 32 35 41 33 37 42 33 37 42 32 35 42 32 35 41 33 37 43 
32 33 43 32 33 43 32 34 39 32 35 41 32 35 41 32 35 41 32 35 41 32 35 41 
32 35 41 32 35 41 32 35 41 32 35 41 32 35 41 32 35 41 32 35 41 32 35 41 
33 36 42 32 35 41 32 35 41 32 35 41 33 37 42 33 37 42 33 37 42 33 37 42 
34 38 43 33 37 42 33 37 42 33 37 42 33 37 42 33 37 42 33 37 42 33 37 39 
33 37 39 34 38 41 37 39 42 37 38 42 36 38 43 34 38 43 34 38 43 34 38 43 
34 38 43 34 38 43 34 38 43 34 38 43 35 39 44 34 38 43 34 38 43 34 38 43 
34 38 43 34 38 43 34 38 43 34 38 43 35 39 44 35 39 44 35 39 44 35 39 44 
35 39 44 35 39 44 36 40 45 36 40 45 35 39 44 35 39 45 35 39 44 36 40 46 
36 40 46 36 40 45 36 40 44 36 40 44 36 40 44 36 40 45 36 40 46 36 40 46 
36 40 46 36 40 46 36 40 46 36 40 46 36 40 46 36 40 46 36 40 46 36 40 46 
36 40 46 36 40 46 36 40 46 36 40 46 36 40 46 37 41 45 39 41 45 39 41 45 
39 41 45 39 41 45 39 41 45 37 40 44 
36 37 41 36 37 41 36 37 41 36 37 41 36 37 41 36 37 41 37 38 42 37 38 42 
37 38 42 37 38 42 37 38 42 37 38 42 38 39 43 37 39 42 35 38 43 34 38 43 
34 38 43 33 37 42 34 38 43 34 38 43 34 38 43 34 38 43 34 38 43 34 38 43 
34 38 43 34 38 41 35 37 41 35 36 40 35 36 40 36 37 41 36 37 41 36 37 41 
35 36 40 35 36 40 36 37 41 36 37 41 36 37 41 36 37 41 36 37 41 36 37 41 
33 37 42 33 37 42 33 37 42 33 37 42 33 37 42 33 37 42 33 37 42 33 37 42 
34 38 43 35 36 41 35 36 40 35 36 40 36 37 41 36 37 41 35 36 40 34 35 39 
34 35 39 34 36 41 33 37 42 33 37 42 34 39 43 33 37 43 33 37 42 33 37 42 
34 38 41 34 38 41 34 38 41 34 38 43 34 38 43 35 37 41 35 36 40 34 35 39 
32 34 38 32 34 38 32 34 38 32 34 39 32 35 41 32 35 41 32 35 41 32 35 41 
32 35 41 32 35 42 32 35 41 32 35 41 32 34 39 32 35 41 34 36 41 35 36 41 
35 35 40 33 35 40 33 38 43 34 38 43 33 37 42 33 37 42 33 37 42 33 37 42 
33 37 42 33 37 42 33 37 42 33 37 42 33 37 42 33 37 42 33 37 42 33 37 42 
33 37 42 33 37 42 33 37 42 33 37 42 33 37 42 33 37 43 34 36 45 34 36 45 
32 35 42 33 37 42 33 36 42 32 35 41 32 35 41 32 35 41 33 35 40 34 36 41 
35 36 41 35 36 40 35 36 40 35 36 40 35 36 40 35 36 40 35 36 40 35 36 40 
35 36 40 35 36 40 35 36 40 35 36 40 34 36 41 33 37 42 33 37 42 33 37 42 
34 38 43 34 38 43 33 37 42 33 37 42 33 37 42 33 37 42 33 37 42 32 35 41 
32 35 41 33 37 42 33 37 42 33 37 42 33 37 42 33 37 42 33 37 42 33 37 43 
34 38 43 33 37 42 33 37 42 33 37 42 33 37 42 33 37 42 33 37 42 33 37 42 
33 37 42 35 36 41 35 36 40 34 36 40 35 36 40 35 36 40 35 36 40 34 38 43 
33 37 43 33 38 43 34 38 43 34 38 43 34 38 43 34 38 43 34 38 43 35 39 44 
33 37 42 33 37 42 34 38 41 34 38 43 34 38 43 34 38 43 34 38 43 33 37 42 
33 37 42 34 38 43 34 38 43 34 38 43 34 38 43 34 38 43 34 38 43 34 38 43 
33 37 42 35 37 41 36 37 41 36 37 41 33 36 42 32 35 41 32 35 41 32 35 41 
32 35 41 32 35 41 32 35 41 32 35 41 33 37 42 33 37 42 33 36 42 32 35 42 
32 35 41 32 35 41 32 34 39 32 35 41 32 35 41 32 35 41 33 36 42 34 36 41 
34 36 41 32 35 41 32 35 41 32 35 41 32 35 41 32 35 41 32 35 41 33 36 42 
33 37 43 33 37 43 32 35 41 32 35 41 33 36 42 33 36 42 33 37 42 33 37 42 
34 38 43 33 37 42 33 36 42 33 37 42 33 37 42 33 37 42 33 37 42 33 37 39 
33 37 39 34 38 41 36 38 42 38 39 43 36 39 42 34 38 43 34 38 43 34 38 43 
34 38 43 34 38 44 34 38 44 34 38 43 35 39 44 34 38 43 34 38 43 34 38 43 
34 38 43 34 38 44 34 38 44 34 38 44 35 39 44 35 39 44 35 39 44 35 39 44 
35 39 44 35 39 44 35 39 45 36 40 45 36 39 45 36 39 45 35 39 45 36 40 46 
36 40 46 36 40 45 36 40 42 36 40 42 36 40 44 36 40 45 36 40 46 36 40 46 
36 40 46 36 40 46 36 40 46 36 40 46 36 40 46 36 40 46 36 40 46 36 40 46 
36 40 46 36 40 46 36 40 46 36 40 46 36 40 46 37 41 45 39 41 45 39 41 45 
39 41 45 39 41 45 39 41 45 37 41 44 
37 38 42 37 38 42 36 37 41 36 37 41 36 37 41 36 37 41 37 38 42 37 38 42 
37 38 42 37 38 42 37 38 42 37 38 42 37 38 42 37 38 42 36 39 44 33 38 43 
34 38 43 34 38 43 34 38 43 35 39 44 35 39 44 34 38 43 34 38 43 34 38 43 
34 38 43 35 38 43 35 38 42 35 37 41 36 37 42 36 38 42 36 37 42 36 37 41 
37 38 42 36 37 41 36 37 41 36 37 41 35 36 40 36 37 41 37 38 42 37 39 43 
35 38 43 34 38 41 33 37 42 34 38 43 34 38 43 34 38 43 33 37 42 34 38 41 
34 38 41 35 37 41 35 37 41 35 37 41 35 37 41 35 37 41 35 37 41 34 36 40 
34 36 40 33 37 42 33 37 42 34 38 43 34 38 43 33 37 42 33 37 42 34 38 41 
34 38 41 34 38 41 34 38 43 34 38 43 35 38 43 35 38 42 35 37 41 34 36 40 
32 35 38 32 35 38 32 35 38 32 35 41 32 34 39 33 35 40 33 35 40 33 35 40 
33 35 40 32 35 38 32 35 38 32 35 38 33 35 40 33 35 40 34 35 40 35 35 40 
35 35 40 34 36 41 33 37 42 35 38 43 35 37 41 34 36 41 33 37 42 33 37 42 
33 37 42 33 37 42 34 36 41 34 36 41 34 36 41 34 36 41 35 37 41 35 38 43 
34 36 41 33 37 42 33 37 42 33 37 42 33 37 42 33 37 43 33 37 43 33 37 43 
33 37 42 34 36 41 34 36 41 33 37 42 30 37 41 30 37 41 33 37 42 33 37 42 
34 36 41 35 36 40 35 36 40 35 36 40 35 36 40 35 36 40 35 36 40 35 36 40 
35 36 40 35 36 41 34 36 41 34 36 41 34 36 41 33 37 42 33 37 42 33 37 42 
33 37 42 34 36 41 34 36 41 33 37 42 35 38 42 33 37 42 34 36 41 34 36 41 
33 37 42 33 38 43 33 38 43 35 38 43 35 38 42 35 38 43 33 37 42 33 36 42 
33 37 42 33 37 42 33 37 42 33 37 42 33 37 42 35 38 42 33 37 43 33 36 42 
33 37 42 35 36 41 35 36 40 34 35 39 35 36 40 35 36 40 35 36 40 33 37 42 
33 37 42 33 37 42 34 36 41 33 37 42 34 38 43 33 38 43 33 38 43 33 38 43 
33 37 42 33 37 42 34 38 43 34 38 43 33 37 42 33 37 42 33 37 42 33 37 42 
33 37 42 34 38 41 34 38 43 34 38 41 34 38 43 34 38 43 34 38 43 34 38 43 
34 38 43 35 37 41 36 38 42 36 38 42 33 37 42 33 37 42 33 37 42 33 36 42 
32 35 41 32 35 41 32 35 41 32 35 41 32 35 41 33 37 42 33 36 42 33 35 40 
33 35 40 33 35 40 32 35 41 32 35 41 32 35 42 33 36 42 34 38 43 34 38 43 
33 37 42 33 36 42 33 36 42 32 35 42 32 35 41 32 35 41 33 37 42 32 35 41 
33 37 43 34 38 43 32 35 41 32 35 41 32 35 41 33 36 42 33 37 42 35 38 42 
34 38 41 33 37 42 32 35 41 33 37 42 33 37 42 33 37 42 33 37 42 33 37 39 
33 37 39 34 36 40 35 37 41 38 40 44 35 39 43 34 38 43 34 38 43 35 39 44 
35 39 44 35 39 44 35 39 45 35 39 44 34 38 44 34 38 44 34 38 44 35 39 44 
35 39 44 35 39 44 35 39 44 35 39 44 35 39 44 35 39 44 35 39 44 35 39 44 
35 39 44 35 39 44 35 39 44 35 39 44 37 40 46 37 40 46 36 40 46 36 40 46 
36 40 46 36 40 45 35 39 44 36 39 45 36 40 45 37 40 46 36 40 46 36 40 46 
36 40 46 36 40 46 36 40 46 36 40 46 36 40 46 37 40 46 37 40 46 37 40 46 
37 40 46 37 40 46 37 40 46 37 40 46 37 40 46 38 41 45 39 41 45 39 41 45 
39 41 45 39 41 45 39 41 45 38 42 45 
37 38 42 37 39 43 37 38 42 36 37 41 36 37 41 36 37 41 36 38 42 37 39 43 
37 39 43 37 39 43 37 38 42 37 38 42 37 38 42 37 38 42 36 39 44 34 38 44 
34 38 44 34 38 44 35 39 44 35 39 44 34 38 43 34 38 43 34 38 43 35 38 44 
35 39 44 34 38 43 34 38 43 34 38 43 35 38 43 35 38 43 34 38 43 35 38 43 
37 38 42 37 38 42 35 37 41 36 37 41 36 37 41 37 38 42 37 39 43 37 39 43 
36 37 41 36 37 41 35 36 41 33 37 42 33 37 42 34 38 43 34 38 41 34 38 41 
34 38 41 34 38 43 34 38 43 34 38 43 34 38 43 34 38 43 33 37 42 33 37 42 
33 37 42 33 37 42 33 37 42 33 37 42 34 38 43 34 38 43 34 38 43 34 38 43 
34 38 43 34 38 43 34 38 43 34 38 43 34 38 43 34 38 43 34 38 43 33 36 42 
32 34 39 32 34 39 32 35 41 32 34 39 32 35 41 32 35 41 35 36 40 35 36 41 
33 35 39 32 35 38 32 35 38 32 34 38 34 35 39 35 36 40 34 35 40 35 36 40 
34 36 40 35 37 41 36 37 42 36 37 42 36 37 41 34 36 40 35 36 41 34 36 41 
33 37 42 33 37 42 35 36 40 35 36 40 35 36 40 35 37 41 36 37 41 36 37 42 
34 36 40 35 36 41 34 36 41 33 37 42 33 37 42 33 37 42 33 37 42 33 37 42 
34 36 41 35 36 40 35 36 40 33 37 42 33 37 42 33 37 42 34 36 41 35 36 41 
35 36 40 35 36 40 35 36 40 35 36 40 35 36 40 35 36 40 35 36 40 35 36 40 
35 36 40 34 36 41 33 37 42 33 37 42 33 37 42 33 37 42 33 37 42 34 36 40 
35 36 40 35 36 40 35 36 40 36 37 41 35 37 41 35 36 40 35 36 40 34 36 40 
32 35 41 32 39 43 33 38 43 35 37 41 36 37 41 36 37 42 33 37 42 33 37 42 
33 37 42 33 37 42 33 37 42 34 36 41 35 36 40 36 37 41 35 37 41 33 37 42 
33 37 42 35 36 41 35 36 40 35 36 40 35 36 40 35 36 40 35 36 40 35 36 40 
35 36 40 34 36 40 34 36 40 35 37 41 35 37 41 33 37 42 33 37 42 33 37 42 
33 37 42 34 38 43 33 37 42 33 37 42 33 37 42 33 37 42 33 37 42 33 37 42 
33 37 42 36 40 42 35 39 42 34 38 41 34 38 41 35 39 43 35 39 42 35 39 43 
34 38 41 34 38 41 35 38 42 35 39 42 35 38 42 33 37 39 33 37 42 33 36 42 
32 35 41 32 35 41 32 35 41 32 35 41 32 35 41 32 35 41 32 35 41 32 35 41 
32 35 41 32 35 41 32 35 41 32 35 41 33 38 43 34 38 43 34 38 43 34 38 43 
34 38 43 34 38 43 34 38 43 33 37 43 32 35 41 32 35 41 35 38 44 33 37 43 
33 37 43 33 37 42 33 37 42 33 37 42 33 37 42 34 38 43 36 38 42 36 37 41 
35 37 41 33 37 42 32 35 41 33 37 42 33 37 42 33 37 42 33 37 42 33 37 39 
33 37 39 34 38 41 35 37 41 36 39 42 35 39 43 34 38 43 34 38 43 35 39 43 
36 40 44 36 40 44 35 39 44 35 39 44 35 39 44 35 39 45 35 39 45 35 39 45 
35 39 44 34 38 43 34 38 43 35 39 44 35 39 44 35 39 44 35 39 44 34 38 43 
34 38 43 35 39 44 35 39 44 35 39 44 37 40 46 37 40 46 36 40 46 36 40 46 
36 40 46 36 40 46 36 40 46 36 40 46 36 40 46 36 40 46 36 40 46 36 40 46 
36 40 46 36 40 46 36 40 46 36 40 46 36 40 46 39 41 45 39 41 45 39 41 45 
39 41 45 39 41 45 39 41 45 39 41 45 39 41 45 39 41 45 39 41 45 39 41 45 
39 41 45 39 41 45 39 41 45 38 41 45 
37 38 42 37 38 42 37 38 42 37 38 42 37 38 42 37 38 42 37 39 43 38 40 44 
38 40 44 38 40 44 37 38 42 36 38 42 37 38 42 37 38 42 36 38 43 36 40 45 
35 39 44 35 39 44 35 39 44 35 39 44 35 39 44 34 38 43 34 38 43 35 39 44 
35 39 44 34 38 43 34 38 43 34 38 43 34 38 43 34 38 43 34 38 43 35 38 43 
37 38 42 36 37 41 36 37 41 36 38 42 36 37 41 37 38 42 37 38 42 37 38 42 
36 38 42 36 37 41 36 37 41 33 37 42 33 38 43 34 38 43 34 38 41 34 38 41 
34 38 41 34 38 43 34 38 43 34 38 43 34 38 43 34 38 43 34 38 43 34 38 43 
34 38 43 34 38 43 34 38 43 34 38 43 34 38 43 34 38 43 34 38 43 34 38 43 
34 38 43 34 38 43 34 38 43 34 38 43 34 38 43 34 38 43 34 38 43 32 35 42 
32 35 41 32 35 41 32 35 41 32 35 41 32 34 39 33 35 40 34 36 40 34 36 40 
32 34 38 32 34 38 32 34 38 33 35 39 34 35 39 34 35 39 34 35 39 36 37 41 
36 37 41 36 38 42 35 36 40 35 36 40 35 36 40 35 36 40 34 36 40 33 37 42 
33 36 42 34 36 41 34 36 40 35 36 40 35 36 40 35 36 40 35 36 40 35 36 40 
35 36 40 34 35 40 34 36 41 33 37 42 34 38 43 33 37 42 33 37 42 33 37 42 
34 36 41 35 36 40 35 36 40 34 36 41 33 37 42 34 38 43 35 37 41 34 36 40 
35 36 40 34 35 39 35 36 40 35 36 40 35 36 40 36 37 41 35 36 40 35 36 40 
34 36 40 34 36 41 33 37 42 33 37 42 33 37 42 33 37 42 33 37 43 35 37 41 
34 35 39 35 36 40 35 36 40 35 36 40 34 35 39 35 36 40 35 36 40 35 36 40 
33 37 42 33 37 42 34 36 41 34 36 40 35 36 40 35 36 41 33 37 42 33 37 42 
33 37 43 33 37 42 33 37 42 34 36 41 35 37 41 36 37 41 33 37 42 33 37 42 
34 38 43 35 37 41 36 37 41 35 37 41 35 36 40 34 36 40 34 36 40 35 36 40 
35 36 40 34 36 40 35 37 41 35 36 40 35 36 41 35 36 41 33 37 42 33 37 42 
34 38 43 35 39 44 34 38 43 34 38 43 34 38 43 34 38 43 34 38 43 34 38 43 
35 39 43 37 41 44 36 40 42 34 38 41 34 38 41 35 39 43 36 40 42 35 39 42 
35 39 42 34 38 41 34 38 41 34 38 41 34 38 41 34 38 41 34 38 41 33 36 42 
32 35 41 32 35 41 33 37 42 33 37 42 32 35 41 32 35 41 33 37 42 33 37 42 
32 35 41 33 36 42 33 36 42 33 37 42 33 38 43 34 38 43 34 38 43 34 38 43 
34 38 43 34 38 43 34 38 43 34 38 43 33 37 42 33 37 43 36 39 45 34 38 43 
33 37 42 34 38 43 34 38 43 34 38 43 34 38 43 34 38 41 35 37 41 35 36 40 
35 36 40 33 37 42 33 37 42 33 37 42 33 37 42 33 37 42 34 38 43 33 37 39 
34 38 41 34 38 41 35 39 42 35 39 43 35 39 44 34 38 43 34 38 43 34 38 43 
35 39 43 35 39 43 35 39 43 35 39 44 36 39 45 36 40 46 36 40 46 36 40 45 
35 39 45 34 38 43 35 39 44 35 39 45 35 39 44 34 38 43 35 39 44 35 39 44 
35 39 44 35 39 44 35 39 44 37 40 46 37 40 46 36 40 46 36 40 46 36 40 46 
35 39 44 36 40 45 36 40 46 36 40 46 36 40 46 36 40 46 36 40 46 36 40 46 
36 40 46 36 40 46 36 40 46 36 40 46 36 40 46 39 41 45 39 41 45 39 41 45 
39 41 45 39 41 45 39 41 45 39 41 45 39 41 45 39 41 45 39 41 45 39 41 45 
39 41 45 39 41 45 39 41 45 38 42 45 
37 38 42 37 38 42 37 38 42 37 38 42 37 38 42 38 39 43 39 40 44 38 40 44 
38 40 44 38 40 44 37 39 43 36 38 42 36 39 42 36 39 42 36 39 44 36 40 45 
36 40 44 36 40 44 36 40 44 36 40 44 35 39 44 35 39 44 34 38 43 35 39 44 
35 39 44 35 39 44 35 39 43 34 38 41 35 39 42 33 37 43 35 39 44 36 39 44 
38 39 43 37 38 42 37 38 42 37 38 42 36 37 41 37 38 42 37 38 42 37 38 42 
37 38 42 36 38 42 35 37 41 35 37 41 33 37 42 35 37 41 34 38 41 34 38 41 
34 38 41 34 38 43 34 38 43 34 38 43 34 38 43 34 38 43 34 38 43 34 38 43 
33 37 42 34 38 43 34 38 43 34 38 43 34 38 43 34 38 41 34 38 41 34 38 41 
34 38 41 34 38 41 34 38 43 34 38 43 34 38 43 35 38 42 34 36 41 33 35 40 
34 36 41 33 35 40 33 35 40 33 35 40 33 35 40 34 35 40 34 36 40 34 35 39 
33 35 39 33 35 39 33 35 39 34 35 39 34 36 40 34 36 40 34 36 40 35 36 40 
35 37 41 36 37 41 36 37 41 36 37 41 35 37 41 34 36 41 36 38 43 36 39 44 
34 36 41 33 35 40 33 35 40 35 36 40 35 36 40 35 36 40 35 37 41 34 36 40 
35 36 40 34 36 40 35 37 41 34 36 41 34 36 41 34 36 41 34 36 41 34 36 41 
35 36 41 35 36 40 34 36 40 33 37 42 34 38 43 34 38 43 35 38 43 33 37 42 
34 36 41 34 36 40 35 36 40 35 36 40 35 36 41 36 37 42 36 37 42 36 37 42 
35 36 41 34 35 40 34 36 41 34 36 41 34 38 41 33 37 42 33 37 42 34 38 43 
34 36 41 34 36 41 35 36 40 34 36 40 33 35 39 34 35 39 35 36 40 35 37 41 
36 37 42 35 36 41 35 36 40 34 36 40 35 36 40 34 36 40 34 36 41 35 38 43 
35 38 43 33 37 42 34 36 41 34 36 41 35 37 41 35 37 41 34 36 41 34 36 41 
34 36 41 34 36 40 36 37 41 35 37 41 34 35 39 34 35 39 34 36 40 33 35 39 
34 36 40 35 37 41 36 37 41 35 37 41 34 36 40 34 35 40 35 36 40 35 37 41 
34 38 43 34 38 43 34 38 43 34 38 43 34 38 43 34 38 43 34 38 43 35 39 44 
34 38 41 36 40 42 37 41 44 34 38 41 34 38 41 36 40 42 36 40 42 34 38 41 
34 38 41 34 38 41 34 38 41 34 38 41 34 38 41 34 38 41 35 39 42 33 37 42 
33 36 42 33 37 42 34 38 41 34 38 41 33 37 42 33 37 42 34 38 41 35 39 43 
33 37 42 33 37 42 33 36 42 33 37 42 33 37 42 34 38 43 34 38 43 34 38 43 
34 38 44 34 38 44 34 38 44 34 38 43 34 38 43 34 38 43 35 39 45 33 37 42 
33 37 42 36 39 44 35 38 42 35 38 42 33 37 42 34 36 41 34 36 40 35 37 41 
35 37 41 33 37 42 33 36 42 33 37 42 33 37 42 33 37 42 33 37 42 33 37 39 
34 38 41 34 38 41 35 39 42 36 40 42 36 40 44 35 39 44 35 38 44 35 39 44 
37 40 44 37 40 44 37 40 45 37 40 45 37 41 45 36 40 45 35 39 45 35 39 45 
35 39 45 34 38 43 36 40 45 36 40 46 36 40 45 35 39 45 36 39 45 36 40 45 
36 40 45 36 40 45 36 40 45 37 40 46 36 40 46 36 40 46 36 40 46 36 40 46 
36 40 45 36 40 45 37 41 45 37 41 45 37 41 45 37 41 45 37 41 45 37 41 45 
37 41 45 37 41 45 37 41 45 37 41 45 37 41 45 39 41 45 39 41 45 39 41 45 
39 41 45 39 41 45 39 41 45 39 41 45 39 41 45 39 41 45 38 41 46 38 41 46 
38 41 45 39 41 45 39 41 45 38 42 45 
37 38 42 37 38 42 37 38 42 38 39 43 36 38 42 38 40 44 39 41 45 39 40 44 
38 40 44 38 40 44 38 40 44 36 39 44 35 39 44 35 39 44 36 40 44 36 40 44 
36 40 44 36 40 44 36 40 44 36 40 44 36 40 44 35 39 44 34 38 43 35 39 44 
35 39 44 35 39 44 35 39 43 35 39 42 35 39 43 33 37 42 35 39 44 36 39 44 
38 40 44 39 40 44 37 38 42 37 38 42 37 39 43 37 39 43 37 38 42 37 38 42 
37 38 42 36 37 41 36 37 41 36 37 41 36 37 41 36 37 41 34 38 43 34 38 43 
34 38 43 34 38 43 34 38 43 34 38 43 34 38 43 34 38 43 34 38 43 34 38 43 
33 37 42 34 38 43 34 38 43 34 38 43 34 38 41 34 38 41 35 39 42 34 38 41 
34 38 41 34 38 41 34 38 41 34 38 43 35 38 42 35 37 41 35 36 40 35 36 40 
35 36 40 35 36 40 34 36 40 33 35 39 34 35 39 36 37 41 35 36 40 35 36 40 
35 36 40 35 36 40 35 36 40 35 36 40 35 36 40 35 36 40 35 36 40 35 36 40 
35 36 40 34 36 40 35 37 41 37 39 43 35 38 43 33 37 42 35 38 44 36 38 42 
34 36 40 34 36 40 33 35 39 34 36 40 35 36 40 35 37 41 35 37 41 34 36 40 
36 37 41 35 37 41 36 37 41 35 37 41 34 35 39 35 36 40 35 36 40 35 36 40 
35 36 40 35 36 40 35 37 41 34 36 41 34 38 43 34 38 43 33 37 43 34 38 43 
35 38 42 36 38 42 36 37 42 35 36 40 33 35 39 34 36 40 36 37 42 37 38 43 
36 37 42 35 36 41 35 36 40 36 37 41 35 38 42 34 38 43 33 37 42 34 38 43 
34 38 43 33 37 42 34 36 41 35 36 40 34 36 40 35 36 40 37 38 42 36 37 41 
35 36 40 35 36 40 35 36 40 35 36 40 35 36 40 35 36 40 33 35 39 35 37 41 
35 37 41 35 37 41 35 36 40 35 36 40 34 36 40 34 36 40 34 36 40 34 36 40 
33 35 39 33 35 39 34 36 40 33 35 39 33 35 39 34 35 39 34 36 40 33 35 39 
34 36 40 35 37 41 36 37 41 35 36 40 34 36 40 33 35 39 34 36 40 34 36 40 
33 37 42 34 36 41 34 38 41 34 38 43 35 38 44 34 38 43 34 38 43 34 38 41 
34 38 41 35 39 42 36 40 42 35 39 42 34 38 41 35 39 43 35 39 43 34 38 41 
34 38 41 34 38 41 35 39 42 35 39 42 34 38 41 34 38 41 34 38 41 34 38 43 
34 38 43 34 38 41 34 38 41 34 38 41 35 39 42 35 39 43 34 38 41 34 38 43 
34 38 43 34 38 43 33 37 43 34 38 43 34 38 43 34 38 43 34 38 43 34 38 43 
34 38 44 34 36 45 34 38 44 34 38 43 34 38 43 34 38 43 34 38 43 33 37 42 
35 38 42 37 38 43 35 37 41 35 36 40 34 35 40 34 36 40 34 36 41 35 38 43 
35 39 44 33 37 42 32 35 41 33 36 42 33 37 42 33 37 42 33 37 42 33 37 39 
34 38 41 34 38 41 35 39 42 36 40 44 36 40 44 35 39 44 35 39 45 36 39 45 
38 41 45 39 41 45 39 41 45 39 41 45 38 40 44 36 39 44 35 39 45 35 39 44 
35 39 45 35 39 44 36 40 46 37 40 46 36 40 45 36 40 46 36 40 46 36 40 46 
36 40 46 36 40 46 36 40 46 36 40 46 36 40 46 36 40 46 36 40 46 36 40 46 
36 40 46 37 40 45 39 41 45 39 41 45 39 41 45 39 41 45 39 41 45 39 41 45 
39 41 45 39 41 45 39 41 45 39 41 45 39 41 45 39 41 45 39 41 45 39 41 45 
39 41 45 39 41 45 39 41 45 39 41 45 39 41 45 38 41 46 38 41 46 38 41 47 
37 40 45 39 41 45 39 41 45 38 42 45 
37 38 42 37 38 42 37 38 42 37 38 42 37 39 43 38 40 44 38 40 44 38 40 44 
38 40 44 39 41 45 39 41 45 38 41 46 36 40 46 35 39 45 35 39 43 35 39 42 
35 39 43 36 40 42 36 40 44 36 40 44 35 39 44 35 39 44 35 39 44 35 39 44 
35 39 44 35 39 44 36 40 44 35 39 42 35 39 42 34 38 43 35 39 44 36 39 44 
38 40 44 39 41 45 38 40 44 38 39 43 38 40 44 38 39 43 37 39 43 38 40 44 
38 40 44 38 39 43 37 38 42 37 38 42 37 38 42 37 38 42 35 38 43 34 38 43 
33 37 42 34 38 43 34 38 43 34 38 43 35 39 44 35 39 44 34 38 43 33 37 43 
34 38 43 33 37 42 33 37 42 33 37 42 35 39 43 34 38 41 36 40 42 35 39 43 
35 39 42 35 39 42 35 39 44 34 38 44 34 38 43 35 37 41 34 36 40 34 35 39 
35 36 40 35 36 40 35 36 40 35 36 40 35 36 40 35 36 40 35 36 40 35 36 40 
34 36 40 34 35 39 35 36 40 37 38 42 37 39 43 36 37 41 36 37 41 35 36 40 
35 36 40 33 35 39 35 37 41 38 39 43 36 39 44 35 39 44 35 39 44 37 39 43 
36 37 41 35 37 41 34 36 40 35 36 40 35 36 40 35 36 40 36 37 41 37 38 42 
38 40 44 37 39 43 36 37 41 37 39 43 36 37 41 36 37 41 36 38 42 35 36 40 
34 36 40 36 37 41 36 38 42 33 37 42 34 38 43 35 38 44 37 38 43 37 37 44 
35 37 41 36 37 41 36 38 42 35 38 42 33 35 40 33 35 39 34 36 41 35 35 43 
35 35 43 34 36 41 34 36 40 34 36 40 35 38 42 34 38 43 33 37 43 36 39 45 
34 38 43 32 35 42 34 35 40 35 37 41 37 39 43 38 40 44 38 39 43 35 37 41 
34 36 40 35 36 40 36 37 41 37 39 43 37 39 43 37 39 43 35 37 41 37 39 42 
38 40 44 37 39 43 36 37 41 36 38 42 36 38 42 37 39 43 36 37 41 34 35 39 
33 35 39 34 36 40 34 36 40 33 35 39 33 35 39 35 36 40 33 35 39 33 35 40 
33 35 40 34 36 41 34 36 41 34 36 40 34 36 40 34 36 41 34 36 40 34 35 40 
34 35 40 35 35 40 34 36 41 34 38 43 36 39 45 33 37 42 34 38 43 34 38 43 
34 38 41 35 39 42 36 40 44 36 40 44 35 39 43 35 39 43 36 40 44 35 39 42 
35 39 42 35 39 42 36 40 42 36 40 42 35 39 42 34 38 41 34 38 41 34 38 44 
34 38 43 34 38 41 34 38 41 34 38 41 36 40 44 35 39 43 34 38 41 34 38 43 
34 38 43 34 38 44 34 38 43 36 39 45 35 38 44 34 38 43 34 38 44 35 38 44 
35 39 43 35 39 44 36 40 45 35 39 44 34 38 43 34 38 43 34 38 43 33 37 42 
33 37 42 36 37 41 36 37 41 35 37 41 35 36 40 35 36 40 33 37 42 33 38 43 
34 38 43 33 37 43 33 37 43 34 38 43 34 38 44 34 38 44 34 38 43 33 37 39 
34 38 41 35 39 42 36 40 42 35 39 43 36 40 44 36 40 45 37 40 46 38 41 46 
39 41 45 39 41 45 39 41 45 39 41 45 39 41 45 37 40 45 36 40 46 36 40 46 
36 40 46 36 40 45 36 40 45 36 40 46 36 40 46 36 40 46 36 40 46 36 40 46 
36 40 46 36 40 46 36 40 46 36 40 46 36 40 46 36 40 46 36 40 46 36 40 46 
36 40 46 38 40 45 39 41 45 39 41 45 39 41 45 39 41 45 39 41 45 39 41 45 
39 41 45 39 41 45 39 41 45 39 41 45 39 41 45 39 41 45 38 40 44 39 41 45 
39 41 45 39 41 45 39 41 45 39 41 45 39 41 45 38 41 45 38 41 47 38 41 47 
38 41 46 39 41 45 39 41 45 38 42 45 
37 38 42 38 39 43 38 39 43 38 39 43 38 40 44 38 40 44 39 41 45 39 41 45 
39 41 45 39 41 45 39 41 45 38 40 45 37 40 45 37 40 44 36 39 42 35 39 43 
35 39 43 35 39 44 35 39 44 35 39 44 35 39 44 35 39 44 35 39 44 35 39 44 
36 40 44 36 40 44 36 40 44 36 40 42 36 40 42 35 39 44 35 39 44 36 39 44 
39 41 45 38 40 44 38 40 44 37 38 42 38 39 43 38 39 43 38 39 43 39 40 44 
39 41 45 38 39 43 38 39 43 37 40 44 36 39 44 36 40 44 35 39 44 35 39 44 
34 38 43 34 38 43 34 38 44 35 39 45 36 40 45 35 39 44 33 37 43 33 37 43 
34 38 43 35 39 44 34 38 43 34 38 41 35 39 42 35 39 42 36 40 42 36 40 42 
35 39 42 36 40 42 36 40 44 33 37 43 33 37 42 35 36 41 34 36 40 34 36 40 
34 36 41 34 36 41 34 36 41 34 36 41 33 37 42 34 36 41 36 35 42 36 35 42 
34 35 40 33 35 39 36 38 42 38 40 44 38 40 44 36 38 42 36 38 42 37 38 42 
35 36 40 33 35 40 35 39 43 36 39 44 36 40 44 35 38 43 36 38 43 37 39 44 
38 39 44 36 38 43 35 36 41 35 37 41 35 36 41 35 36 41 36 37 42 38 39 44 
39 41 45 38 40 44 37 38 42 38 40 44 36 37 41 36 37 41 37 38 42 36 37 41 
36 38 42 36 38 42 37 38 42 35 37 41 33 37 42 35 38 44 37 37 44 36 31 38 
34 29 33 36 31 38 36 31 38 36 31 38 36 31 38 36 31 38 36 31 38 36 31 38 
36 31 38 36 31 38 36 31 38 38 32 39 36 35 41 35 37 41 34 38 41 34 38 43 
33 37 42 34 38 43 35 36 41 35 36 40 35 37 41 36 38 42 37 39 43 37 38 42 
36 38 42 37 38 42 38 39 43 39 41 45 38 40 44 38 40 44 38 39 43 39 40 44 
39 41 45 39 41 45 38 39 43 37 39 43 38 39 43 38 39 43 36 38 42 34 36 41 
34 36 41 34 36 40 34 36 40 34 35 39 35 36 41 34 36 40 31 33 37 34 29 33 
34 29 33 36 31 38 36 31 38 36 31 38 36 31 38 36 31 38 36 31 38 36 31 38 
34 29 33 34 29 33 33 34 40 35 39 44 36 38 43 35 38 44 36 39 42 37 40 44 
35 38 42 36 37 41 38 40 44 39 42 45 38 42 45 38 41 45 37 41 45 36 40 44 
36 40 44 37 40 45 36 40 44 36 40 44 35 39 42 34 38 41 34 38 41 35 39 43 
35 39 44 35 39 42 34 38 41 35 39 42 37 41 44 36 40 42 35 39 43 34 38 41 
34 38 41 36 40 44 36 40 44 34 38 43 35 39 43 35 39 44 36 40 45 36 40 44 
35 40 43 35 40 43 35 40 43 34 39 43 34 38 43 35 38 43 35 38 42 34 36 41 
34 36 40 37 38 42 38 40 44 37 39 43 37 39 43 37 39 43 36 39 44 35 39 45 
35 39 44 33 37 43 35 39 44 36 40 45 35 39 44 34 38 43 33 37 42 35 39 42 
36 40 45 36 40 44 37 40 45 35 39 44 36 40 44 39 41 46 39 41 46 39 41 46 
39 41 45 39 41 45 39 41 45 39 41 45 39 41 45 39 41 46 38 41 46 38 41 45 
38 41 46 38 41 46 37 40 45 38 41 45 38 41 45 38 41 45 38 41 45 38 41 45 
38 41 45 38 41 45 38 41 45 38 41 45 38 41 45 38 41 45 38 41 45 38 41 45 
38 41 45 38 41 45 39 41 45 39 41 45 39 41 45 39 41 45 39 41 45 39 41 45 
39 41 45 39 41 45 39 41 45 39 41 45 39 41 45 39 41 45 39 41 45 39 41 45 
37 40 46 37 40 46 38 40 45 38 41 46 38 41 46 38 41 46 39 41 46 39 41 46 
38 42 45 38 42 45 38 42 45 38 42 45 
37 38 42 39 41 45 39 41 45 39 41 45 39 40 44 38 40 44 39 41 45 39 41 45 
39 41 45 38 40 44 39 41 45 38 40 44 38 40 44 38 40 44 36 39 44 35 39 44 
35 39 44 35 39 44 35 39 44 35 39 44 35 39 44 35 39 44 35 39 45 36 40 44 
36 40 44 36 40 44 36 40 44 36 40 44 36 40 44 35 39 44 35 39 44 36 39 44 
39 40 44 38 40 44 39 41 45 38 39 43 38 40 44 38 41 45 38 40 44 39 40 44 
39 41 45 38 39 43 38 40 44 36 40 45 35 39 45 35 39 45 36 39 45 35 39 45 
35 39 44 34 39 43 34 38 44 35 39 45 35 39 44 35 39 44 35 39 44 35 39 44 
35 38 44 36 40 44 36 40 44 37 41 44 37 41 44 37 41 44 35 39 43 36 40 42 
36 40 42 37 41 44 36 39 44 33 37 43 33 37 42 35 37 41 35 36 40 35 36 41 
33 37 42 32 35 42 33 37 42 33 37 43 35 39 45 33 37 42 36 37 42 36 37 42 
35 36 41 36 38 42 38 40 44 38 40 44 38 40 44 37 39 43 36 38 42 37 39 43 
35 36 40 32 35 41 33 38 43 33 37 42 37 39 44 37 39 42 37 39 43 38 40 44 
38 39 44 37 38 43 36 38 43 37 39 44 38 39 44 38 39 44 36 37 42 37 38 42 
39 41 45 37 39 43 36 37 41 38 39 43 38 39 43 36 37 41 35 36 40 36 38 42 
38 40 44 37 39 43 37 39 43 38 39 43 37 39 42 35 37 41 36 31 38 91 77 82 
167 125 126 128 108 115 128 108 115 128 108 115 167 125 126 167 125 126 167 125 126 128 108 115 
128 108 115 128 108 115 167 125 126 128 108 115 59 51 57 37 38 43 37 40 45 33 37 42 
34 38 43 36 40 44 36 38 43 36 37 41 35 36 40 35 36 40 37 38 42 37 38 42 
36 38 42 38 40 44 39 41 45 39 41 45 38 40 44 39 41 45 39 41 45 38 40 44 
39 41 45 39 41 45 39 41 45 39 40 44 38 39 43 37 39 43 37 40 45 36 40 45 
36 40 45 35 38 42 34 35 39 35 37 41 32 35 38 59 51 57 128 108 115 167 125 126 
128 108 115 128 108 115 128 108 115 128 108 115 128 108 115 128 108 115 128 108 115 128 108 115 
128 108 115 167 125 126 91 77 82 40 35 41 33 37 43 36 40 45 37 39 43 39 41 45 
38 39 43 38 39 43 39 40 44 39 41 45 39 41 45 39 41 46 36 40 45 35 39 44 
36 39 45 37 41 46 35 39 45 35 39 44 36 40 42 34 38 41 35 39 42 34 38 41 
35 39 42 36 40 42 35 39 42 35 39 43 36 40 44 36 40 44 36 40 42 36 40 42 
35 39 42 34 38 41 36 40 42 37 41 44 37 41 45 37 41 45 36 40 44 37 40 44 
37 40 44 36 39 42 35 38 42 34 36 41 35 38 42 36 39 42 38 40 44 38 40 44 
38 40 44 39 40 44 39 41 45 39 40 44 39 41 45 38 40 44 37 40 45 38 40 47 
37 40 46 34 38 44 35 39 44 37 40 46 36 39 45 33 37 42 35 39 44 37 40 46 
37 41 46 36 40 46 36 40 45 36 40 46 36 40 45 39 41 45 39 41 45 39 41 45 
39 41 45 39 41 45 39 41 45 39 41 45 39 41 45 39 41 45 39 41 45 39 41 45 
39 41 45 39 41 45 39 41 45 39 41 45 39 41 45 39 41 45 39 41 45 39 41 45 
39 41 45 39 41 45 39 41 45 39 41 45 39 41 45 39 41 45 39 41 45 39 41 45 
39 41 45 39 41 45 39 41 45 39 41 45 39 41 45 39 41 45 39 41 45 39 41 45 
39 41 45 39 41 45 39 41 45 39 41 45 39 41 45 39 41 45 39 41 45 38 41 45 
36 40 46 37 40 46 38 41 47 38 41 47 38 41 47 39 41 46 39 41 45 39 41 45 
38 42 45 38 42 45 38 42 45 38 42 45 
38 40 44 38 40 44 38 40 44 37 38 42 37 38 42 37 38 42 37 38 42 38 39 43 
38 40 44 37 39 43 38 40 44 39 41 45 38 40 44 39 41 45 38 41 46 36 40 45 
35 39 44 35 39 44 35 39 44 34 38 43 35 38 44 36 40 45 35 39 45 36 40 44 
36 40 44 36 40 44 36 40 44 36 40 44 36 40 44 35 39 44 35 39 44 35 39 44 
37 39 43 39 41 45 39 41 45 39 41 45 39 41 45 39 41 45 38 40 44 38 40 44 
38 40 44 38 40 44 38 40 44 35 38 43 34 39 43 35 39 44 35 39 44 35 39 44 
35 39 44 35 39 45 35 39 45 35 39 44 35 39 44 35 39 44 36 39 45 36 40 45 
36 39 45 38 41 46 38 42 45 37 41 44 37 41 44 38 42 45 38 42 45 38 42 45 
38 42 45 37 41 45 36 40 44 35 39 45 35 38 43 35 37 41 36 38 42 35 37 41 
34 36 41 33 37 42 33 37 43 34 39 43 37 41 46 34 38 43 35 38 43 34 36 41 
36 38 43 39 40 44 38 40 44 37 39 43 38 39 43 39 40 44 38 40 44 36 38 42 
35 36 40 36 39 44 35 39 45 34 38 43 36 38 42 36 37 41 38 39 44 38 38 44 
38 38 44 38 38 44 38 37 44 38 37 44 38 37 44 38 37 44 37 36 43 37 37 42 
37 38 42 35 36 40 35 37 41 36 37 41 38 39 43 38 40 44 37 39 43 37 39 43 
38 40 44 36 38 42 36 37 41 36 37 41 37 39 43 35 38 42 31 27 36 128 108 115 
205 158 163 200 130 138 200 130 138 200 130 138 200 130 138 200 130 138 200 130 138 200 130 138 
200 130 138 200 130 138 200 130 138 200 130 138 60 64 71 37 38 43 37 41 46 34 39 43 
33 37 42 33 37 42 35 37 41 36 37 41 36 37 41 37 38 42 37 38 42 38 39 43 
37 39 42 37 39 42 39 40 44 37 39 43 38 39 43 38 40 44 38 40 44 38 40 44 
38 41 44 39 40 44 37 39 42 37 38 42 36 37 41 36 37 41 35 38 43 35 39 44 
36 40 45 38 41 45 38 39 43 38 40 44 32 35 41 59 51 57 200 130 138 200 130 138 
200 130 138 200 130 138 200 130 138 200 130 138 200 130 138 200 130 138 200 130 138 200 130 138 
200 130 138 205 158 163 128 108 115 40 35 41 37 37 44 37 37 44 34 36 40 38 41 44 
39 41 45 38 40 44 37 39 43 38 40 44 39 41 45 38 40 44 37 40 45 35 39 44 
34 38 44 36 40 46 35 39 44 34 38 43 35 39 42 35 40 43 36 40 42 34 38 41 
35 39 42 35 39 42 36 40 42 36 41 44 35 40 43 36 40 42 37 40 44 35 39 43 
35 39 42 35 39 42 34 38 41 38 41 45 37 41 44 37 41 44 35 39 42 36 39 42 
38 38 41 36 37 41 37 37 42 37 37 42 38 37 44 37 37 42 38 39 43 36 38 42 
36 37 41 37 38 42 38 39 43 37 38 42 37 39 43 38 40 44 36 39 44 36 40 46 
37 40 46 36 40 46 36 40 46 36 40 46 36 40 46 36 40 46 36 40 46 36 40 46 
36 40 46 36 40 46 34 38 44 36 40 45 37 40 46 39 41 45 39 41 45 39 41 45 
39 41 45 39 41 45 39 41 45 39 41 45 39 41 45 39 41 45 39 41 45 39 41 45 
39 41 45 39 41 45 39 41 45 39 41 45 39 41 45 39 41 45 39 41 45 39 41 45 
39 41 45 39 41 45 39 41 45 39 41 45 39 41 45 39 41 45 39 41 45 38 40 44 
38 40 44 38 40 44 39 41 45 38 40 44 38 40 44 39 41 45 39 41 45 39 41 45 
39 41 45 39 41 45 39 41 45 39 41 45 39 41 45 39 41 45 39 41 45 39 41 45 
38 41 47 38 41 47 38 41 47 38 41 47 38 41 47 39 41 46 39 41 45 39 41 45 
38 42 45 38 42 45 38 42 45 39 42 45 
37 39 43 38 40 44 38 40 44 38 39 43 37 38 42 37 39 43 38 40 44 39 41 45 
38 40 44 38 39 43 38 40 44 38 40 44 38 40 44 39 41 45 37 40 46 36 40 46 
35 39 44 35 39 44 35 39 44 36 39 45 35 39 44 35 39 44 35 39 44 35 39 44 
35 39 44 35 39 44 36 40 45 36 40 45 36 40 45 35 39 44 35 39 44 37 40 46 
39 41 45 39 41 45 39 41 45 38 40 44 39 41 45 39 41 45 39 41 45 39 41 45 
39 41 45 39 41 45 39 41 45 35 39 43 35 39 44 35 39 44 36 40 44 37 40 44 
37 40 45 35 39 44 36 40 45 35 39 44 35 39 44 36 40 45 37 41 46 37 40 46 
35 39 45 38 41 47 38 42 45 38 41 46 38 41 45 39 42 45 39 41 45 39 41 45 
39 41 45 38 41 44 36 39 42 35 37 41 35 37 41 36 38 42 38 40 44 38 39 43 
37 39 44 38 41 45 37 39 44 37 39 44 38 41 45 37 39 43 36 38 43 35 38 43 
38 40 44 38 40 44 38 39 43 38 40 44 39 41 45 39 40 44 39 41 45 38 39 43 
36 38 42 38 41 45 39 41 46 37 40 45 37 39 43 37 38 42 38 39 43 38 38 44 
38 37 44 37 36 43 37 37 42 36 37 42 37 38 43 37 37 44 36 35 42 36 35 41 
36 38 43 36 38 43 33 37 42 35 38 43 36 39 44 36 39 44 36 39 44 36 39 44 
36 38 43 36 37 41 35 37 41 37 39 43 38 39 43 36 39 42 32 29 37 128 108 115 
200 130 138 200 130 138 200 130 138 200 130 138 200 130 138 200 130 138 200 130 138 200 130 138 
200 130 138 200 130 138 200 130 138 167 125 126 59 51 57 35 34 40 37 39 44 37 39 44 
33 37 43 36 38 43 37 35 44 37 35 44 37 36 43 35 36 41 35 37 41 36 38 43 
35 38 43 33 37 42 35 38 43 36 39 44 37 40 45 36 38 43 38 38 41 38 38 44 
38 39 44 38 38 44 36 35 42 36 35 42 34 36 41 35 37 41 35 38 43 33 38 43 
34 38 43 35 38 43 37 39 44 37 37 44 32 35 41 59 51 57 200 130 138 200 130 138 
200 130 138 200 130 138 200 130 138 200 130 138 200 130 138 200 130 138 200 130 138 200 130 138 
200 130 138 200 130 138 128 108 115 48 36 44 42 38 45 38 36 44 37 37 42 37 39 44 
38 39 44 38 39 44 37 38 43 37 39 44 36 40 45 36 38 43 36 39 46 36 39 44 
37 39 44 37 40 45 37 39 44 38 41 46 38 41 45 37 40 44 37 40 44 35 37 41 
34 35 39 35 37 41 37 39 43 37 39 43 34 36 41 34 38 41 35 40 43 35 40 43 
35 40 43 35 40 43 34 39 43 34 39 43 37 41 46 36 40 45 34 39 43 37 40 44 
38 39 44 38 37 44 38 37 44 37 36 43 38 37 44 37 37 42 37 37 42 37 37 42 
37 37 42 38 37 44 38 38 44 36 37 41 37 39 43 38 39 43 36 39 44 34 39 43 
35 39 44 36 40 46 36 40 46 36 40 46 36 40 46 36 40 46 36 40 46 36 40 46 
36 40 46 37 41 46 36 40 46 34 38 44 36 40 45 39 41 45 39 41 45 39 41 45 
39 41 45 39 41 45 39 41 45 39 41 45 39 41 45 39 41 45 39 41 45 39 41 45 
39 41 45 39 41 45 38 40 44 38 40 44 38 40 44 38 40 44 39 41 45 38 40 44 
38 40 44 39 41 45 39 41 45 39 41 45 38 40 44 39 41 45 39 41 45 39 41 45 
39 41 45 39 41 45 39 41 45 39 41 45 39 41 45 39 41 45 39 41 45 38 42 45 
38 42 45 38 42 45 38 41 46 38 41 46 38 41 46 38 41 46 38 41 46 38 41 46 
37 40 46 37 40 46 38 41 47 39 41 46 39 41 46 39 41 45 39 41 45 39 41 45 
39 41 45 39 41 45 39 41 45 39 42 45 
37 39 43 38 40 44 38 40 44 37 39 43 37 38 42 38 39 43 38 40 44 39 40 44 
39 41 45 39 41 45 39 41 45 39 41 45 39 41 45 39 41 45 37 40 46 36 40 46 
35 39 44 35 39 44 36 39 45 37 40 46 36 39 45 35 39 44 35 39 44 35 39 44 
35 39 44 35 39 44 35 39 45 36 40 46 36 40 46 35 39 44 35 39 44 38 41 47 
39 41 45 39 41 45 39 41 45 39 41 45 39 41 45 39 41 45 39 41 45 39 41 45 
39 41 45 39 41 45 39 41 45 36 39 44 35 39 44 35 39 44 37 40 44 38 40 44 
38 41 45 36 39 44 36 40 45 35 39 44 35 39 44 36 40 45 37 41 46 36 40 45 
34 38 44 38 41 47 37 40 46 37 41 46 39 41 46 38 40 44 39 41 45 39 41 45 
39 41 45 39 41 45 38 40 44 37 38 42 36 37 41 37 39 43 38 40 44 39 40 44 
39 41 45 39 41 45 38 40 44 38 39 43 39 40 44 36 37 41 36 37 41 38 39 43 
39 41 45 38 40 44 38 39 43 38 40 44 38 40 44 38 40 44 39 41 45 38 40 44 
37 39 43 37 38 42 38 40 44 39 41 45 39 41 45 38 40 44 37 39 43 37 38 43 
38 38 44 37 38 43 36 38 42 35 36 40 36 35 41 38 37 44 37 37 44 36 39 46 
38 40 47 38 40 49 36 39 46 37 38 43 37 38 43 36 38 43 36 38 43 36 39 42 
38 41 44 39 42 45 37 40 44 38 41 45 37 39 43 37 39 43 32 29 37 128 108 115 
200 130 138 200 130 138 200 130 138 200 130 138 200 130 138 200 130 138 200 130 138 200 130 138 
200 130 138 200 130 138 200 130 138 200 130 138 60 64 71 33 33 43 34 36 45 32 33 43 
34 38 44 38 40 49 38 38 49 38 36 49 38 36 46 37 38 43 37 38 43 38 39 44 
38 41 46 38 41 45 37 40 44 36 39 42 37 40 45 36 39 42 36 41 44 35 40 45 
37 40 45 38 38 44 38 38 44 38 38 44 37 38 43 38 39 44 37 39 44 37 38 43 
37 38 43 33 37 43 32 33 43 32 33 43 28 35 39 59 51 57 200 130 138 200 130 138 
200 130 138 200 130 138 200 130 138 200 130 138 200 130 138 200 130 138 200 130 138 200 130 138 
200 130 138 200 130 138 128 108 115 40 35 41 42 38 45 38 36 44 38 37 44 38 40 45 
38 42 47 36 41 44 34 39 43 35 38 43 35 37 41 36 37 42 37 37 44 36 39 46 
38 40 49 38 40 49 38 40 47 36 39 46 39 41 45 39 41 45 39 41 45 37 39 43 
35 37 41 35 36 40 37 38 42 38 40 44 38 40 44 37 40 45 37 40 45 37 40 45 
37 39 44 36 37 42 33 37 42 35 36 41 37 39 44 38 39 44 36 38 43 37 39 44 
39 40 46 38 37 44 38 37 44 38 37 44 38 37 44 38 37 44 38 37 44 38 37 44 
38 37 44 38 37 44 38 37 44 36 37 41 37 39 42 39 40 44 37 40 44 36 39 45 
36 40 45 36 40 46 36 40 46 36 40 46 36 40 46 36 40 46 36 40 46 36 40 46 
36 40 46 38 41 47 37 41 46 35 39 45 37 40 45 39 41 45 39 41 45 39 41 45 
39 41 45 39 41 45 39 41 45 39 41 45 39 41 45 39 41 45 39 41 45 39 41 45 
39 41 45 39 41 45 39 41 45 39 41 45 39 41 45 39 41 45 39 41 45 39 41 45 
39 41 45 39 41 45 39 41 45 39 41 45 39 41 45 39 41 45 39 41 45 39 41 45 
39 41 45 39 41 45 39 41 45 39 41 45 39 41 45 39 41 45 39 41 45 38 42 45 
38 42 45 38 42 45 38 41 47 38 41 47 38 41 47 38 41 47 38 41 47 38 41 47 
36 40 46 37 40 46 38 41 46 39 41 45 39 41 45 39 41 45 39 41 45 39 41 45 
39 41 45 39 41 45 39 41 45 39 42 45 
38 40 44 38 40 44 38 40 44 38 39 43 37 39 43 38 40 44 38 40 44 39 40 44 
39 41 45 39 41 45 39 41 45 39 41 45 39 41 45 39 41 45 37 40 46 36 40 46 
38 41 47 37 40 46 36 40 46 37 40 46 36 40 46 37 41 46 38 41 47 37 40 46 
36 40 45 36 40 45 35 39 44 36 40 45 36 40 46 35 39 44 35 39 44 38 41 46 
39 41 45 39 41 45 39 41 45 39 41 45 39 41 45 39 41 45 39 41 45 38 40 44 
38 40 44 39 41 45 39 41 45 37 40 46 36 40 46 36 40 46 38 41 45 39 41 45 
39 41 45 37 40 46 36 40 45 36 40 46 36 40 46 37 41 46 37 40 46 37 40 46 
36 40 46 36 40 45 34 38 43 34 38 43 37 40 44 35 37 41 38 40 45 39 41 45 
39 41 45 39 41 45 39 41 45 38 40 44 38 39 43 39 40 44 39 41 45 39 41 45 
39 41 45 39 41 45 39 41 45 39 41 45 39 41 45 39 41 45 39 41 45 38 40 44 
38 39 43 38 40 44 38 39 43 38 40 44 39 41 45 39 41 45 39 41 45 39 41 45 
39 41 45 39 41 45 39 41 45 39 41 45 39 40 44 39 41 45 38 40 44 36 38 43 
37 39 44 37 40 45 38 40 44 38 39 43 36 37 42 32 34 39 91 77 82 97 113 122 
97 113 122 97 113 122 97 113 122 137 160 165 128 108 115 128 108 115 128 108 115 128 108 115 
137 160 165 137 160 165 128 108 115 60 64 71 35 36 40 33 35 39 31 27 36 128 108 115 
200 130 138 200 130 138 200 130 138 200 130 138 200 130 138 200 130 138 200 130 138 200 130 138 
128 108 115 128 108 115 128 108 115 128 108 115 97 113 122 97 113 122 97 113 122 97 113 122 
97 113 122 137 160 165 137 160 165 137 160 165 137 160 165 137 160 165 137 160 165 137 160 165 
137 160 165 137 160 165 137 160 165 137 160 165 137 160 165 137 160 165 137 160 165 137 160 165 
137 160 165 137 160 165 137 160 165 137 160 165 137 160 165 137 160 165 137 160 165 137 160 165 
137 160 165 97 113 122 97 113 122 97 113 122 97 113 122 97 113 122 128 108 115 128 108 115 
128 108 115 128 108 115 167 125 126 200 130 138 200 130 138 200 130 138 200 130 138 200 130 138 
200 130 138 200 130 138 128 108 115 38 32 39 38 37 44 37 36 43 60 64 71 128 108 115 
137 160 165 137 160 165 128 108 115 128 108 115 128 108 115 128 108 115 137 160 165 97 113 122 
97 113 122 97 113 122 97 113 122 91 77 82 32 35 38 39 42 45 39 41 45 38 40 44 
37 39 43 37 39 43 38 40 44 38 40 44 38 39 44 38 38 44 38 37 44 38 37 44 
38 37 44 38 37 44 37 36 43 38 37 44 38 37 44 38 37 44 38 38 44 38 37 44 
38 37 44 38 37 44 38 37 44 38 37 44 38 37 44 38 37 44 38 37 44 38 37 44 
38 37 44 38 37 44 38 37 44 37 38 43 36 39 42 38 41 45 37 40 45 37 40 46 
37 40 46 36 40 46 36 40 46 36 40 46 36 40 46 36 40 46 36 40 46 36 40 46 
37 41 46 38 41 47 38 41 47 37 41 46 37 40 46 39 41 45 39 41 45 39 41 45 
39 41 45 39 41 45 39 41 45 39 41 45 39 41 45 39 41 45 39 41 45 39 41 45 
39 41 45 39 41 45 39 41 45 39 41 45 39 41 45 39 41 45 39 41 45 39 41 45 
39 41 45 39 41 45 39 41 45 39 41 45 39 41 45 39 41 45 39 41 45 39 41 45 
38 41 45 39 41 45 39 41 45 39 41 45 39 41 45 39 41 45 39 41 45 38 42 45 
37 41 45 36 40 44 36 40 46 37 40 46 38 41 47 36 40 46 37 40 46 38 41 47 
38 41 47 38 41 47 38 41 46 39 41 45 39 41 45 39 41 45 39 41 45 39 41 45 
39 41 45 39 41 45 39 41 45 39 42 45 
39 41 45 39 41 45 39 41 45 39 41 45 38 40 44 38 40 44 38 40 44 39 41 45 
39 41 45 39 41 45 39 41 45 39 41 45 39 41 45 39 41 45 37 40 46 36 40 46 
38 41 47 37 40 46 36 40 46 36 40 46 38 41 45 39 41 46 39 41 46 37 40 45 
37 41 45 37 41 46 38 41 45 38 41 46 38 40 45 36 39 45 36 39 45 37 40 45 
39 41 45 39 41 45 39 41 45 39 41 45 39 41 45 39 41 45 39 41 45 39 41 45 
39 41 45 39 41 45 39 41 45 38 41 46 38 41 46 38 41 46 39 41 45 39 41 45 
39 41 45 39 41 46 38 41 45 38 41 46 38 41 47 38 41 47 38 41 47 37 41 46 
37 41 46 36 40 46 35 39 45 35 39 45 36 40 45 36 39 44 38 41 46 38 41 46 
39 41 45 39 41 45 39 40 44 38 40 44 37 39 43 38 40 44 39 41 45 39 41 45 
39 41 45 39 41 45 39 41 45 39 41 45 39 41 45 39 41 45 39 41 45 39 41 45 
39 40 44 39 41 45 39 41 45 39 41 45 39 41 45 39 41 45 39 41 45 39 41 45 
39 41 45 39 41 45 40 42 46 38 40 44 39 41 45 40 42 46 38 40 45 37 39 44 
37 40 44 38 41 45 39 41 45 39 41 45 37 39 43 26 31 37 137 160 165 161 189 201 
161 189 201 161 189 201 193 211 218 230 239 249 230 239 249 224 236 239 224 236 239 224 236 239 
224 236 239 232 247 250 209 224 225 97 113 122 31 33 37 33 35 40 31 27 36 128 108 115 
200 130 138 200 130 138 200 130 138 200 130 138 200 130 138 200 130 138 200 130 138 167 125 126 
59 51 57 31 27 36 31 27 36 41 46 52 153 177 190 161 189 201 161 189 201 155 184 190 
204 220 224 230 239 249 224 236 239 224 236 239 224 236 239 224 236 239 224 236 239 224 236 239 
224 236 239 224 236 239 224 236 239 224 236 239 224 236 239 224 236 239 224 236 239 224 236 239 
224 236 239 224 236 239 230 239 249 224 236 239 224 236 239 224 236 239 224 236 239 224 236 239 
230 239 249 196 218 223 161 189 201 161 189 201 175 197 204 147 176 186 37 37 44 31 27 36 
31 27 36 59 51 57 167 125 126 200 130 138 200 130 138 200 130 138 200 130 138 200 130 138 
200 130 138 200 130 138 128 108 115 38 32 39 37 36 43 36 34 42 97 113 122 218 230 230 
232 247 250 224 236 239 224 236 239 224 236 239 224 236 239 224 236 239 230 239 249 193 211 218 
161 189 201 161 189 201 175 197 204 97 113 122 26 31 37 39 40 44 39 41 45 38 40 44 
36 38 42 37 39 43 39 41 45 38 40 44 37 38 43 36 35 42 36 35 42 38 37 44 
38 38 44 37 36 43 38 37 44 38 38 44 37 36 43 37 36 43 38 37 44 38 37 44 
38 37 44 38 37 44 38 37 44 38 37 44 37 36 43 37 36 43 38 37 44 38 37 44 
38 38 44 37 37 42 37 37 42 35 37 41 34 38 41 37 40 45 37 40 46 37 40 46 
37 40 46 37 40 46 36 39 45 35 39 45 36 40 45 35 39 44 35 39 45 35 39 45 
37 41 46 37 40 46 38 40 45 38 40 45 38 40 45 38 40 44 39 41 45 39 41 45 
39 41 45 39 41 45 39 41 45 39 41 45 39 41 45 39 41 45 39 41 45 39 41 45 
39 41 45 39 41 45 39 41 45 39 41 45 39 41 45 39 41 45 39 41 45 39 41 45 
39 41 45 39 41 45 39 41 45 39 41 45 39 41 45 39 41 45 39 41 46 37 40 45 
36 40 45 37 40 45 37 40 46 38 41 46 38 41 46 38 41 46 38 41 46 38 41 46 
37 40 46 36 40 45 36 40 46 37 40 46 38 41 47 37 41 46 38 41 47 38 41 47 
39 41 46 39 41 46 39 41 45 39 41 45 39 41 45 39 41 45 39 41 45 39 41 45 
39 41 45 39 41 45 39 41 45 39 41 45 
39 41 45 39 41 45 39 41 45 39 41 45 38 40 44 38 40 44 38 40 44 39 41 45 
39 41 45 39 41 45 39 41 45 39 41 45 39 41 45 39 41 45 37 40 46 37 40 46 
38 41 47 37 40 46 36 40 46 37 40 46 38 41 45 39 41 45 39 41 45 37 41 45 
37 41 45 38 42 45 39 41 45 39 41 45 39 41 46 37 40 46 37 40 46 38 40 45 
39 41 45 39 41 45 39 41 45 39 41 45 39 41 45 39 41 45 39 41 45 39 41 45 
39 41 45 39 41 45 39 41 45 39 41 45 39 41 45 39 41 45 39 41 45 39 41 45 
39 41 45 39 41 45 39 41 45 39 41 45 38 41 47 38 41 47 38 41 47 38 41 47 
38 41 47 37 40 46 36 40 46 36 40 46 36 40 46 36 40 46 37 41 46 38 41 46 
39 41 45 39 41 45 38 40 44 38 40 44 38 40 44 38 40 44 39 41 45 39 41 45 
39 41 45 39 41 45 39 41 45 39 41 45 39 41 45 39 41 45 38 40 44 39 41 45 
39 41 45 39 41 45 39 41 45 39 41 45 39 41 45 39 41 45 39 41 45 39 41 45 
39 41 45 39 41 45 39 41 45 40 42 46 39 41 45 39 41 45 38 40 44 37 38 43 
37 39 43 38 40 44 39 41 45 39 41 45 38 40 45 32 33 43 97 113 122 155 184 190 
147 182 191 147 182 191 184 200 204 224 236 239 220 231 236 219 232 232 219 232 232 217 232 230 
214 230 229 220 237 237 193 211 218 97 113 122 33 35 39 35 36 41 31 27 36 128 108 115 
200 130 138 200 130 138 200 130 138 200 130 138 200 130 138 200 130 138 200 130 138 167 125 126 
59 51 57 34 33 43 34 32 40 41 46 52 147 165 171 153 177 190 155 184 190 155 184 190 
198 211 221 220 237 237 218 230 232 216 230 230 217 232 230 217 232 230 214 231 232 217 232 230 
217 232 230 218 230 232 218 230 232 217 232 230 216 230 230 216 230 230 217 232 230 216 230 230 
216 230 230 216 230 230 218 230 232 218 230 232 218 230 232 216 230 230 218 230 230 216 230 230 
219 232 232 193 211 218 155 184 190 153 177 190 155 184 190 137 160 165 35 38 48 34 32 40 
33 33 43 59 51 57 167 125 126 200 130 138 200 130 138 200 130 138 200 130 138 200 130 138 
200 130 138 200 130 138 128 108 115 38 32 39 37 37 44 34 32 40 91 77 82 204 220 224 
220 231 236 218 230 232 216 230 230 216 230 230 217 232 230 219 232 232 218 232 236 184 200 204 
155 184 190 153 177 190 161 189 201 97 113 122 26 31 37 37 39 44 39 40 44 39 41 45 
37 39 43 37 38 42 39 41 45 38 39 44 35 37 41 34 35 40 36 35 41 38 37 44 
38 38 44 37 36 43 38 36 44 38 38 44 37 36 43 37 36 43 38 37 44 38 37 44 
38 37 44 38 37 44 38 37 44 38 37 44 37 36 43 37 36 43 38 37 44 38 37 44 
38 38 44 37 39 43 37 39 42 35 38 43 34 38 44 36 40 46 36 40 46 36 40 46 
36 40 46 37 40 46 36 40 46 36 39 45 36 40 46 36 40 45 35 39 45 35 39 44 
36 40 46 36 40 45 38 40 44 39 40 44 39 41 45 39 41 45 39 41 45 39 41 45 
39 41 45 39 41 45 39 41 45 39 41 45 39 41 45 39 41 45 39 41 45 39 41 45 
39 41 45 39 41 45 39 41 45 39 41 45 39 41 45 39 41 45 39 41 45 39 41 45 
39 41 45 39 41 45 39 41 45 39 41 45 39 41 45 39 41 45 39 41 46 37 40 46 
37 40 46 37 40 46 36 40 46 37 41 46 38 41 47 38 41 47 38 41 47 38 41 47 
37 40 46 36 40 46 37 40 46 37 40 46 38 41 47 38 41 47 38 41 47 38 41 47 
39 41 45 39 41 45 39 41 45 39 41 45 39 41 45 39 41 45 39 41 45 39 41 45 
39 41 45 39 41 45 39 41 45 39 41 45 
39 41 45 38 40 44 38 40 44 38 40 44 38 40 44 38 40 44 38 40 44 39 41 45 
39 41 45 39 41 45 39 41 45 39 41 45 39 41 45 39 41 45 38 41 46 38 41 47 
38 41 47 38 41 47 37 41 46 37 40 46 38 40 45 39 41 45 39 41 45 38 42 45 
38 42 45 38 42 45 39 41 45 39 41 45 39 41 46 38 41 47 38 41 47 38 41 46 
39 41 45 39 41 45 39 41 45 39 41 45 39 41 45 39 41 45 39 41 45 39 41 45 
39 41 45 39 41 45 39 41 45 39 41 45 39 41 45 39 41 45 39 41 45 39 41 45 
39 41 45 39 41 45 39 41 45 39 41 45 38 41 47 38 41 47 38 41 47 38 41 47 
37 40 46 36 40 46 36 40 46 36 40 46 36 40 46 36 40 46 37 40 46 38 40 45 
39 41 45 39 41 45 39 41 45 38 40 44 38 40 44 39 41 45 39 41 45 39 40 44 
38 40 44 39 41 45 39 40 44 38 40 44 39 41 45 39 41 45 38 40 44 39 41 45 
39 41 45 39 41 45 39 41 45 39 41 45 39 41 45 39 41 45 39 41 45 39 41 45 
39 41 45 39 41 45 39 41 45 39 41 45 39 41 45 39 41 45 38 40 44 38 39 43 
39 40 44 39 41 45 39 41 45 39 41 45 38 40 45 32 33 43 97 113 122 153 177 190 
147 181 186 147 176 189 175 197 204 224 236 239 220 231 236 219 232 232 219 232 232 219 232 232 
217 232 230 220 237 237 193 211 218 97 113 122 35 37 41 37 37 44 31 27 36 128 108 115 
205 158 163 200 130 138 200 130 138 200 130 138 200 130 138 200 130 138 200 130 138 167 125 126 
59 51 57 32 33 43 32 33 43 41 46 52 147 165 171 153 177 190 153 177 190 153 177 190 
198 211 221 224 236 239 218 230 232 219 230 232 220 231 232 219 232 232 219 232 232 219 232 232 
219 232 232 219 232 232 218 230 232 219 232 232 219 232 232 219 232 232 219 232 232 219 232 232 
219 232 232 217 232 230 218 230 232 219 232 232 219 232 232 219 232 232 220 231 232 220 231 232 
219 232 232 193 211 218 153 177 190 147 181 186 147 182 191 137 160 165 34 38 48 34 33 43 
34 32 40 59 51 57 167 125 126 200 130 138 200 130 138 200 130 138 200 130 138 200 130 138 
200 130 138 200 130 138 128 108 115 38 32 39 35 38 44 35 34 40 91 77 82 198 211 221 
220 237 237 219 230 232 219 230 232 219 232 232 219 232 232 219 232 232 214 232 236 175 197 204 
147 176 189 147 181 186 155 184 190 97 113 122 26 31 37 37 39 44 39 40 44 39 40 44 
38 40 44 38 40 44 39 41 45 37 39 44 36 37 42 36 35 41 37 36 43 38 37 44 
38 37 44 38 37 44 38 37 44 38 37 44 38 37 44 38 37 44 38 37 44 38 37 44 
38 37 44 38 37 44 38 37 44 38 37 44 37 36 43 37 36 43 38 37 44 38 37 44 
37 37 42 38 40 44 39 41 45 38 41 45 36 40 46 36 40 46 36 40 46 36 40 46 
36 40 46 36 40 45 36 40 45 36 40 46 36 40 46 36 40 46 36 40 46 36 40 46 
35 39 45 35 39 44 38 40 44 39 41 45 39 41 45 39 41 45 39 41 45 39 41 45 
39 41 45 39 41 45 39 41 45 39 41 45 39 41 45 39 41 45 39 41 45 39 41 45 
39 41 45 39 41 45 39 41 45 39 41 45 39 41 45 39 41 45 39 41 45 39 41 45 
39 41 45 39 41 45 39 41 45 39 41 45 39 41 45 39 41 45 39 41 46 38 41 47 
37 40 46 36 40 46 37 40 46 37 41 46 38 41 47 38 41 47 38 41 47 38 41 47 
38 40 45 37 40 46 38 41 47 38 41 47 38 41 47 38 41 47 38 41 47 38 41 46 
39 41 45 39 41 45 39 41 45 39 41 45 39 41 45 39 41 45 39 41 45 39 41 45 
39 41 45 39 41 45 39 41 45 39 41 45 
39 41 45 38 40 44 38 40 44 38 40 44 39 41 45 39 41 45 39 41 45 39 41 45 
39 41 45 39 41 45 39 41 45 39 41 45 39 41 45 39 41 45 38 41 46 39 41 46 
38 41 46 37 41 46 37 41 46 37 40 46 38 41 46 39 41 46 39 41 46 38 42 45 
38 42 45 38 42 45 38 41 46 39 41 46 39 41 46 38 41 46 38 41 46 39 41 45 
39 41 45 39 41 45 39 41 45 39 41 45 39 41 45 39 41 45 39 41 45 39 41 45 
39 41 45 39 41 45 39 41 45 39 41 45 39 41 45 39 41 45 39 41 45 39 41 45 
39 41 45 39 41 45 39 41 45 38 41 45 37 41 46 37 41 46 38 41 47 38 41 47 
38 41 47 37 40 46 36 40 46 36 40 46 37 40 46 38 40 45 38 40 45 39 41 45 
39 41 45 39 41 45 39 41 45 39 41 45 39 41 45 39 41 45 39 41 45 39 41 45 
39 41 45 39 41 45 39 41 45 39 41 45 39 41 45 39 41 45 39 41 45 39 41 45 
39 41 45 39 41 45 39 41 45 39 41 45 39 41 45 39 41 45 39 41 45 39 41 45 
39 41 45 39 41 45 39 41 45 39 41 45 39 41 45 39 41 45 39 41 45 39 41 45 
39 41 45 39 41 45 39 41 45 39 41 45 38 39 44 32 33 43 137 160 165 175 197 204 
175 197 204 161 189 201 184 206 218 218 232 236 219 232 232 219 232 232 219 232 232 219 232 232 
219 232 232 224 236 239 193 211 218 97 113 122 34 35 40 35 38 44 31 27 36 128 108 115 
200 130 138 200 130 138 200 130 138 200 130 138 200 130 138 200 130 138 200 130 138 167 125 126 
97 113 122 97 113 122 57 90 110 97 113 122 155 184 190 175 197 204 175 197 204 175 197 204 
204 220 224 224 236 239 218 230 232 219 232 232 219 232 232 219 232 232 219 232 232 219 232 232 
219 232 232 218 230 232 219 232 232 219 232 232 219 232 232 219 232 232 219 232 232 219 232 232 
219 232 232 219 232 232 219 232 232 219 232 232 219 232 232 219 232 232 220 231 232 219 232 232 
219 232 232 196 218 223 175 197 204 161 189 201 175 197 204 161 189 201 97 113 122 97 113 122 
97 113 122 97 113 122 167 125 126 200 130 138 200 130 138 200 130 138 200 130 138 200 130 138 
200 130 138 200 130 138 128 108 115 38 32 39 35 39 45 34 35 40 91 77 82 204 220 224 
220 237 237 219 230 232 219 232 232 219 232 232 217 232 230 216 230 230 214 231 232 184 206 218 
161 189 201 161 189 201 184 206 218 97 113 122 26 31 37 35 38 43 37 38 43 37 38 43 
36 39 45 37 39 44 37 40 44 37 40 45 38 39 44 38 38 44 38 38 44 38 37 44 
38 37 44 38 37 44 38 37 44 38 37 44 38 37 44 38 37 44 38 37 44 38 37 44 
38 37 44 38 37 44 38 37 44 38 37 44 38 37 44 37 36 43 38 37 44 38 37 44 
37 37 42 38 40 44 39 41 45 38 41 45 36 40 46 36 40 46 37 40 46 38 40 45 
38 40 45 38 40 45 38 40 45 38 40 45 38 40 45 38 40 45 38 40 45 36 40 45 
35 39 44 35 39 44 38 40 44 39 41 45 39 41 45 39 41 45 39 41 45 39 41 45 
39 41 45 39 41 45 39 41 45 39 41 45 39 41 45 39 41 45 39 41 45 39 41 45 
39 41 45 39 41 45 39 41 45 39 41 45 39 41 45 39 41 45 39 41 45 39 41 45 
39 41 45 39 41 45 39 41 45 39 41 45 39 41 45 39 41 45 39 41 46 38 41 46 
38 40 45 38 40 45 37 41 46 38 41 47 38 41 46 38 41 46 38 41 46 38 41 46 
38 41 46 38 40 45 38 41 47 38 41 47 38 41 47 38 41 46 38 41 46 39 41 45 
39 41 45 39 41 45 39 41 45 39 41 45 39 41 45 39 41 45 39 41 45 39 41 45 
39 41 45 39 41 45 39 41 45 39 41 45 
39 41 45 39 41 45 39 40 44 38 40 44 38 41 45 38 40 44 38 40 44 39 41 45 
39 41 45 39 41 45 39 41 45 39 41 45 39 41 45 39 41 45 39 41 45 39 41 45 
39 41 45 37 41 46 37 41 46 38 41 47 38 41 47 38 41 47 38 41 47 38 42 45 
38 42 45 37 41 45 37 41 46 38 41 47 38 41 46 39 41 45 39 41 45 39 41 45 
39 41 45 39 41 45 39 41 45 39 41 45 39 41 45 39 41 45 39 41 45 39 41 45 
39 41 45 39 41 45 39 41 45 39 41 45 39 41 45 39 41 45 39 41 45 39 41 45 
39 41 45 39 41 45 39 41 45 38 41 45 37 41 46 38 41 47 38 41 47 38 41 47 
37 41 46 37 40 46 36 40 46 36 40 46 38 41 45 39 41 45 39 41 45 39 41 45 
39 41 45 39 41 45 39 41 45 39 41 45 39 41 45 39 41 45 39 41 45 39 41 45 
39 41 45 39 41 45 39 41 45 39 41 45 39 41 45 39 41 45 39 41 45 39 41 45 
39 41 45 39 41 45 39 41 45 39 41 45 39 41 45 39 41 45 39 41 45 39 41 45 
39 41 45 39 41 45 39 41 45 39 41 45 39 41 45 39 41 45 39 41 45 39 41 45 
39 41 45 38 39 44 35 36 41 33 34 40 33 34 40 26 31 37 147 165 171 214 231 232 
209 224 225 209 224 225 210 230 230 217 232 230 217 232 230 217 232 230 219 232 232 220 237 237 
224 236 239 232 247 250 204 220 224 97 113 122 32 29 37 32 34 39 22 23 35 128 108 115 
200 130 138 200 130 138 200 130 138 200 130 138 200 130 138 200 130 138 200 130 138 205 158 163 
147 165 171 147 165 171 147 165 171 147 176 186 196 218 223 209 224 225 209 224 232 209 224 232 
214 231 232 214 231 232 219 232 232 219 232 232 219 232 232 219 232 232 219 232 232 219 232 232 
219 232 232 219 232 232 219 232 232 219 232 232 219 232 232 219 232 232 219 232 232 219 232 232 
219 232 232 219 232 232 219 232 232 219 232 232 219 232 232 219 232 232 219 232 232 218 230 232 
217 232 230 215 230 228 209 224 225 209 224 225 209 224 232 196 218 223 147 165 171 147 165 171 
147 176 186 147 165 171 205 158 163 205 158 163 200 130 138 200 130 138 200 130 138 200 130 138 
200 130 138 200 130 138 128 108 115 34 29 33 32 35 41 31 27 36 97 113 122 209 224 225 
230 239 249 224 236 239 224 236 239 220 237 237 217 232 230 215 230 230 214 231 232 209 224 225 
204 220 224 209 224 225 220 237 237 137 160 165 22 23 35 26 31 37 26 31 37 28 35 39 
34 36 45 35 36 45 34 38 43 35 39 44 38 40 45 39 40 46 38 39 44 38 37 44 
38 37 44 38 37 44 38 37 44 38 37 44 38 37 44 38 37 44 38 37 44 38 37 44 
38 37 44 38 37 44 38 37 44 38 37 44 38 37 44 38 37 44 38 37 44 38 36 44 
37 37 42 37 39 43 38 40 44 37 40 44 36 40 46 36 40 46 38 40 45 39 41 45 
39 41 45 38 40 44 39 41 45 39 41 45 39 41 45 39 41 45 39 41 45 35 39 44 
35 40 45 36 40 45 38 40 44 39 41 45 39 41 45 39 41 45 39 41 45 39 41 45 
39 41 45 39 41 45 39 41 45 39 41 45 39 41 45 39 41 45 39 41 45 39 41 45 
39 41 45 39 41 45 39 41 45 39 41 45 39 41 45 39 41 45 39 41 45 39 41 45 
39 41 45 39 41 45 39 41 45 39 41 45 39 41 45 39 41 45 39 41 45 39 41 45 
39 41 45 39 41 46 38 41 47 38 41 47 38 41 46 39 41 45 39 41 45 39 41 45 
39 41 45 39 41 45 38 41 47 38 41 47 38 41 47 39 41 45 39 41 45 39 41 45 
39 41 45 39 41 45 39 41 45 39 41 45 39 41 45 39 41 45 39 41 45 39 41 45 
39 41 45 39 41 45 40 42 46 39 41 45 
39 41 45 39 41 45 39 41 45 39 41 45 38 40 44 38 40 44 38 40 44 39 41 45 
39 41 45 39 41 45 39 41 45 38 41 45 38 41 45 39 41 45 39 41 46 39 41 46 
39 41 46 38 41 46 38 41 47 38 41 47 38 41 47 38 41 47 38 41 47 38 42 45 
38 42 45 37 41 45 37 40 46 38 41 46 38 41 46 39 41 45 39 41 45 39 41 45 
39 41 45 39 41 45 39 41 45 39 41 45 39 41 45 39 41 45 39 41 45 39 41 45 
39 41 45 38 41 45 38 41 45 39 41 45 39 41 45 39 41 45 39 41 45 39 41 45 
39 41 45 38 41 45 39 41 45 39 41 46 38 41 46 38 41 46 38 41 47 38 41 47 
37 40 46 36 40 46 36 40 46 36 40 46 38 41 45 39 41 45 39 41 45 39 41 45 
39 41 45 39 41 45 39 41 45 39 41 45 39 41 45 39 41 45 38 41 45 38 41 45 
38 41 45 38 41 45 39 41 46 39 41 45 39 41 45 39 41 45 39 41 45 39 41 45 
39 41 45 39 41 45 39 41 45 39 41 45 39 41 45 39 41 45 39 41 45 39 41 45 
39 41 45 39 41 45 39 41 45 39 41 45 39 41 45 39 41 45 39 41 45 39 41 45 
38 39 44 41 46 52 91 77 82 57 90 110 57 90 110 57 90 110 170 178 190 220 237 237 
219 232 232 219 232 232 217 232 230 215 230 230 215 230 230 217 232 230 204 220 224 184 200 204 
173 188 188 173 188 188 171 159 166 128 108 115 91 77 82 91 77 82 91 77 82 167 125 126 
200 130 138 200 130 138 200 130 138 200 130 138 167 125 126 167 125 126 167 125 126 167 125 126 
170 178 190 155 184 190 147 182 191 161 189 201 209 224 232 219 232 232 219 232 232 218 232 236 
214 231 232 217 232 230 219 232 232 219 232 232 219 232 232 219 232 232 219 232 232 219 232 232 
219 232 232 219 232 232 219 232 232 217 232 230 217 232 230 219 232 232 219 232 232 219 232 232 
219 232 232 219 232 232 219 232 232 219 232 232 219 232 232 219 232 232 219 232 232 219 232 232 
217 232 230 218 230 232 219 230 232 219 230 232 218 230 232 209 224 232 155 184 190 147 182 191 
155 184 190 170 178 190 167 125 126 167 125 126 167 125 126 167 125 126 200 130 138 200 130 138 
200 130 138 200 130 138 167 125 126 91 77 82 91 77 82 91 77 82 128 108 115 170 178 190 
173 188 188 173 188 188 175 197 204 204 220 224 219 232 232 215 230 230 215 230 230 214 231 232 
219 232 232 219 232 232 230 239 249 147 165 171 60 64 71 57 90 110 57 90 110 91 77 82 
38 40 49 32 35 42 34 38 43 34 38 43 36 39 44 37 39 44 36 39 44 38 37 44 
38 37 44 38 37 44 38 37 44 38 38 44 38 38 46 38 37 44 38 37 44 38 37 44 
38 37 44 38 37 44 38 37 44 38 37 44 38 37 44 38 37 44 38 38 44 38 37 44 
37 37 42 37 38 42 38 40 44 36 39 44 36 39 45 37 40 46 38 40 45 39 41 45 
38 40 44 37 39 43 38 40 44 39 41 45 38 41 45 38 40 45 38 40 45 35 39 44 
35 40 45 36 40 45 38 40 44 39 41 45 39 41 45 39 41 45 39 41 45 39 41 45 
39 41 45 39 41 45 39 41 45 39 41 45 39 41 45 39 41 45 39 41 45 39 41 45 
39 41 45 39 41 45 39 41 45 39 41 45 39 41 45 39 41 45 39 41 45 39 41 45 
39 41 45 39 41 45 39 41 45 39 41 45 39 41 45 39 41 45 39 41 45 39 41 45 
39 41 45 39 41 45 38 41 46 38 41 46 38 41 46 39 41 46 39 41 46 39 41 45 
39 41 45 39 41 45 38 41 46 38 41 46 38 41 46 39 41 45 39 41 45 39 41 45 
39 41 45 39 41 45 39 41 45 39 41 45 39 41 45 39 41 45 39 41 45 39 41 45 
39 41 45 39 41 45 40 42 46 39 41 45 
38 40 44 38 40 44 38 40 44 39 41 45 39 41 45 38 40 44 38 40 44 39 41 45 
39 41 45 39 41 45 39 41 45 37 41 45 37 40 46 38 41 47 38 41 47 38 41 47 
38 41 47 38 41 47 38 41 47 38 41 47 38 41 47 38 41 47 38 41 47 38 41 47 
38 41 47 37 41 46 38 41 45 39 41 45 39 41 45 39 41 45 39 41 45 39 41 45 
39 41 45 39 41 45 39 41 45 39 41 45 39 41 45 39 41 45 39 41 45 39 41 45 
37 41 45 37 40 46 37 40 46 39 41 45 39 41 45 39 41 45 39 41 45 39 41 45 
39 41 45 37 40 46 37 41 46 38 41 46 38 42 45 38 42 45 38 41 46 38 41 47 
38 41 47 37 40 46 36 40 46 36 40 46 38 41 45 39 41 45 39 41 45 39 41 45 
39 41 45 39 41 45 39 41 45 39 41 45 39 41 45 37 41 45 37 40 46 37 40 46 
37 40 46 37 41 46 38 41 47 39 41 45 39 41 45 39 41 45 39 41 45 39 41 45 
39 41 45 39 41 45 39 41 45 39 41 45 39 41 45 39 41 45 39 41 45 39 41 45 
39 41 45 39 41 45 39 41 45 39 41 45 39 41 45 39 41 45 39 41 45 39 40 46 
36 35 42 60 64 71 137 160 165 147 176 186 147 165 171 147 165 171 191 208 219 218 232 236 
219 232 232 219 232 232 217 232 230 215 230 230 215 230 230 218 232 236 184 200 204 97 113 122 
60 64 71 60 64 71 91 77 82 167 125 126 200 130 138 200 130 138 200 130 138 200 130 138 
200 130 138 200 130 138 200 130 138 167 125 126 59 51 57 59 51 57 59 51 57 97 113 122 
147 165 171 153 177 190 147 176 189 155 184 190 209 224 232 219 232 232 218 230 232 218 230 232 
218 230 232 219 232 232 219 232 232 218 230 232 219 232 232 218 230 232 219 232 232 219 232 232 
219 232 232 219 232 232 219 232 232 218 230 232 219 232 232 219 232 232 219 232 232 219 232 232 
219 232 232 219 232 232 219 232 232 219 232 232 219 232 232 219 232 232 219 232 232 219 232 232 
217 232 230 218 230 232 218 230 232 219 232 232 219 232 232 209 224 232 153 177 190 147 176 186 
153 177 190 147 176 186 97 113 122 59 51 57 59 51 57 59 51 57 167 125 126 200 130 138 
200 130 138 200 130 138 200 130 138 200 130 138 200 130 138 167 125 126 167 125 126 91 77 82 
60 64 71 60 64 71 97 113 122 184 200 204 220 237 237 215 230 230 214 231 232 217 232 230 
217 232 230 217 232 230 220 237 237 184 200 204 137 160 165 147 165 171 147 176 186 137 160 165 
41 46 52 31 35 39 33 37 43 34 38 43 36 38 43 36 38 42 36 38 42 38 38 44 
38 38 44 38 38 44 37 36 43 37 38 43 38 38 44 38 37 44 38 37 44 38 37 44 
38 37 44 38 37 44 38 37 44 38 37 44 38 37 44 38 38 44 38 39 44 38 39 44 
38 39 44 38 39 43 38 40 44 37 39 43 37 39 44 38 41 45 39 41 45 39 41 45 
38 40 44 38 39 43 38 40 44 39 41 45 36 40 45 36 39 44 36 39 44 35 39 44 
35 39 44 36 39 44 38 40 44 39 41 45 39 41 45 39 41 45 39 41 45 39 41 45 
39 41 45 39 41 45 39 41 45 39 41 45 39 41 45 39 41 45 39 41 45 39 41 45 
39 41 45 39 41 45 39 41 45 39 41 45 39 41 45 39 41 45 39 41 45 39 41 45 
39 41 45 39 41 45 39 41 45 39 41 45 39 41 45 39 41 45 39 41 45 39 41 45 
39 41 45 39 41 45 39 41 45 39 41 45 39 41 46 38 41 47 38 41 47 39 41 46 
39 41 45 39 41 45 39 41 45 39 41 45 39 41 45 39 41 45 39 41 45 39 41 45 
39 41 45 39 41 45 39 41 45 39 41 45 39 41 45 39 41 45 39 41 45 39 41 45 
39 41 45 39 41 45 39 41 45 39 41 45 
39 41 45 39 41 45 39 41 45 39 41 45 39 41 45 39 41 45 39 41 45 39 41 45 
39 41 45 39 41 45 39 41 45 38 41 46 37 41 46 38 41 47 38 41 47 38 41 47 
38 41 47 38 41 47 38 41 47 38 41 47 38 41 47 38 41 47 38 41 47 38 41 47 
38 41 47 38 41 46 39 41 45 39 41 45 39 41 45 39 41 45 39 41 45 39 41 45 
39 41 45 39 41 45 39 41 45 39 41 45 39 41 45 39 41 45 39 41 45 39 41 45 
37 40 46 36 40 46 36 40 46 39 41 45 39 41 45 39 41 45 39 41 45 39 41 45 
39 41 45 37 40 46 37 40 46 38 41 47 38 42 45 38 42 45 38 41 46 38 41 47 
38 41 47 37 40 46 36 40 46 36 40 46 38 41 45 39 41 45 39 41 45 39 41 45 
39 41 45 39 41 45 39 41 45 39 41 45 39 41 45 38 41 46 37 40 46 36 40 46 
36 40 46 36 40 46 37 40 46 39 41 45 39 41 45 39 41 45 39 41 45 39 41 45 
39 41 45 39 41 45 39 41 45 39 41 45 39 41 45 39 41 45 39 41 45 39 41 45 
39 41 45 39 41 45 39 41 45 39 41 45 39 41 45 39 41 45 39 41 45 39 40 46 
35 35 43 60 64 71 137 160 165 161 189 201 155 184 190 155 184 190 198 211 221 218 232 236 
218 232 236 219 232 232 219 232 232 217 232 230 215 230 230 218 232 236 184 200 204 60 64 71 
31 27 36 31 33 37 59 51 57 167 125 126 200 130 138 200 130 138 200 130 138 200 130 138 
200 130 138 200 130 138 200 130 138 128 108 115 36 31 38 33 33 43 26 31 37 91 77 82 
153 177 190 175 197 204 161 189 201 175 197 204 213 225 229 219 232 232 217 232 230 218 230 232 
218 230 232 216 230 230 218 230 232 216 230 230 218 230 232 218 230 232 219 232 232 219 232 232 
219 232 232 219 232 232 219 232 232 218 230 232 219 232 232 219 232 232 219 232 232 219 232 232 
219 232 232 219 232 232 219 232 232 219 232 232 219 232 232 219 232 232 218 230 232 219 232 232 
219 232 232 219 232 232 219 232 232 219 232 232 219 232 232 209 224 232 173 188 188 161 189 201 
175 197 204 155 184 190 57 90 110 31 27 36 33 33 43 40 35 41 128 108 115 200 130 138 
200 130 138 200 130 138 200 130 138 200 130 138 200 130 138 200 130 138 167 125 126 48 36 44 
32 29 37 31 27 36 60 64 71 173 188 188 224 236 239 216 230 230 217 232 230 217 232 230 
217 232 230 217 232 230 218 232 236 191 212 218 153 177 190 155 184 190 161 189 201 137 160 165 
41 46 52 32 34 39 33 37 42 33 37 43 35 37 41 36 38 42 36 38 42 35 37 41 
36 38 43 37 38 43 36 37 42 37 38 43 37 38 43 38 38 44 38 37 44 38 37 44 
38 37 44 38 37 44 38 37 44 38 37 44 38 37 44 38 39 44 38 40 44 38 40 44 
38 40 44 38 40 44 38 40 44 38 39 43 38 40 44 39 41 45 39 41 45 39 41 45 
39 41 45 39 41 45 38 40 44 38 40 44 36 39 44 35 39 44 35 39 44 35 39 44 
35 39 44 36 40 45 38 40 44 39 41 45 39 41 45 39 41 45 39 41 45 39 41 45 
39 41 45 39 41 45 39 41 45 39 41 45 39 41 45 39 41 45 39 41 45 39 41 45 
39 41 45 39 41 45 39 41 45 39 41 45 39 41 45 38 40 44 38 40 44 39 41 45 
39 41 45 39 41 45 39 41 45 39 41 45 39 41 45 39 41 45 39 41 45 39 41 45 
39 41 45 39 41 45 39 41 45 39 41 45 39 41 46 38 41 47 38 41 47 39 41 46 
39 41 45 39 41 45 39 41 45 39 41 45 39 41 45 39 41 45 39 41 45 39 41 45 
39 41 45 39 41 45 39 41 45 39 41 45 39 41 45 39 41 45 39 41 45 39 41 45 
39 41 45 39 41 45 39 41 45 40 42 46 
39 41 45 39 41 45 39 41 45 39 41 45 39 41 45 39 41 45 39 41 45 39 41 45 
39 41 45 39 41 45 39 41 45 38 41 46 38 41 46 38 41 46 38 41 47 38 41 47 
38 41 47 38 41 47 38 41 46 38 41 46 38 41 47 38 41 47 38 41 47 38 41 47 
38 41 47 38 41 46 39 41 45 39 41 45 39 41 45 39 41 45 39 41 45 39 41 45 
39 41 45 39 41 45 39 41 45 39 41 45 39 41 45 39 41 45 39 41 45 39 41 45 
37 40 45 37 40 46 37 40 46 39 41 45 39 41 45 39 41 45 39 41 45 39 41 45 
39 41 45 37 40 46 37 40 46 38 41 47 38 42 45 38 42 45 38 41 46 38 41 46 
38 41 46 37 40 46 36 40 46 36 40 46 38 41 45 39 41 45 39 41 45 39 41 45 
39 41 45 39 41 45 39 41 45 39 41 45 39 41 46 38 41 47 37 40 46 36 40 46 
36 40 46 36 40 46 37 40 46 38 41 45 38 41 45 38 41 45 39 41 45 39 41 45 
39 41 45 39 41 45 39 41 45 39 41 45 39 41 45 39 41 45 39 41 45 39 41 45 
39 41 45 39 41 45 39 41 45 39 41 45 39 41 45 39 41 45 39 41 45 39 40 46 
35 35 43 59 51 57 137 160 165 155 184 190 147 182 191 153 177 190 193 211 218 218 232 236 
219 232 232 219 232 232 219 232 232 219 232 232 215 230 230 220 237 237 184 200 204 60 64 71 
33 34 40 35 35 43 59 51 57 167 125 126 200 130 138 200 130 138 200 130 138 200 130 138 
200 130 138 200 130 138 200 130 138 128 108 115 36 31 38 33 33 43 22 23 35 97 113 122 
184 200 204 218 230 232 209 224 232 213 225 229 218 230 232 219 232 232 217 232 230 217 232 230 
216 230 230 215 230 230 215 230 230 218 230 232 219 232 232 219 232 232 219 232 232 219 232 232 
219 232 232 219 232 232 219 232 232 217 232 230 219 232 232 218 230 232 219 232 232 219 232 232 
219 232 232 219 232 232 219 232 232 219 232 232 219 232 232 219 232 232 217 232 230 219 232 232 
219 232 232 220 231 232 219 232 232 218 230 232 219 232 232 218 230 232 209 224 225 213 225 229 
214 231 232 198 211 221 97 113 122 22 23 35 34 32 40 40 35 41 128 108 115 200 130 138 
200 130 138 200 130 138 200 130 138 200 130 138 200 130 138 200 130 138 167 125 126 48 36 44 
37 35 44 34 32 40 91 77 82 184 200 204 224 236 239 217 232 230 217 232 230 217 232 230 
217 232 230 217 232 230 220 231 236 193 211 218 153 177 190 147 182 191 147 182 191 137 160 165 
41 46 52 34 35 40 35 38 44 34 38 43 35 38 42 37 39 43 36 39 42 33 37 42 
33 37 42 35 38 42 34 39 43 35 40 45 34 38 44 37 37 44 37 36 43 38 37 44 
38 37 44 38 38 44 38 38 44 38 37 44 38 37 44 38 39 44 38 40 44 38 39 43 
38 40 44 39 41 45 38 40 44 38 39 43 38 40 44 39 41 45 39 41 45 39 41 45 
39 41 45 39 41 45 38 40 44 38 40 44 36 39 44 35 39 44 35 39 44 36 39 44 
36 39 44 37 40 45 38 40 44 39 41 45 40 42 46 39 41 45 39 41 45 39 41 45 
39 41 45 39 41 45 39 41 45 39 41 45 39 41 45 39 41 45 39 41 45 39 41 45 
39 41 45 39 40 44 39 41 45 39 41 45 39 41 45 38 40 44 38 40 44 39 41 45 
39 41 45 39 41 45 39 41 45 39 41 45 39 41 45 39 41 45 39 41 45 39 41 45 
39 41 45 39 41 45 38 41 45 39 41 46 39 41 46 38 41 47 38 41 47 39 41 46 
39 41 45 39 41 45 39 41 45 39 41 45 39 41 45 39 41 45 39 41 45 39 41 45 
39 41 45 39 41 45 39 41 45 39 41 45 39 41 45 39 41 45 39 41 45 39 41 45 
39 41 46 39 41 46 39 41 46 40 42 46 
38 40 44 38 40 44 39 41 45 39 41 45 39 41 45 39 41 45 39 41 45 39 41 45 
39 41 45 39 41 45 39 41 45 38 42 45 38 42 45 38 42 45 38 41 46 38 41 47 
38 41 47 39 41 46 39 41 45 39 41 46 38 41 46 38 41 47 38 41 47 38 41 47 
38 41 47 38 41 46 39 41 45 39 41 45 39 41 45 39 41 45 39 41 45 39 41 45 
39 41 45 39 41 45 39 41 45 39 41 45 39 41 45 39 41 45 39 41 45 39 41 45 
38 40 44 38 41 45 39 41 46 39 41 45 39 41 45 39 41 45 39 41 45 39 41 45 
39 41 45 37 40 46 37 40 46 38 41 47 38 41 47 38 41 47 39 41 46 39 41 45 
39 41 45 37 40 46 36 40 46 36 40 46 37 40 44 39 41 45 39 41 45 39 41 45 
39 41 45 39 41 45 39 41 45 39 41 45 39 41 46 38 41 47 37 40 46 36 40 46 
36 40 46 36 40 46 36 40 46 36 40 46 36 40 46 38 40 45 39 40 44 39 41 45 
39 41 45 39 41 45 39 41 45 39 41 45 39 41 45 39 41 45 39 41 45 39 41 45 
39 41 45 39 41 45 39 41 45 39 41 45 39 41 45 39 41 45 39 41 45 39 41 46 
35 35 40 59 51 57 137 160 165 147 182 191 147 182 191 153 177 190 193 212 222 218 232 236 
219 232 232 218 230 232 219 232 232 219 232 232 217 232 230 220 237 237 184 200 204 60 64 71 
31 33 37 32 35 42 59 51 57 167 125 126 200 130 138 200 130 138 200 130 138 200 130 138 
200 130 138 200 130 138 200 130 138 128 108 115 41 46 52 41 46 52 38 40 49 97 113 122 
193 211 218 220 231 236 218 230 232 218 230 232 216 230 230 219 232 232 218 230 232 217 232 230 
217 232 230 215 230 230 214 230 229 216 230 230 219 232 232 219 232 232 219 232 232 218 230 232 
219 232 232 219 232 232 219 232 232 216 230 230 219 232 232 216 230 230 218 230 232 219 232 232 
219 232 232 219 232 232 219 232 232 219 232 232 217 232 230 217 232 230 219 232 232 217 232 230 
217 232 230 217 232 230 219 232 232 219 232 232 219 230 232 219 230 232 219 230 232 219 230 232 
218 232 236 198 211 221 97 113 122 35 40 47 41 46 52 59 51 57 167 125 126 200 130 138 
200 130 138 200 130 138 200 130 138 200 130 138 200 130 138 200 130 138 167 125 126 48 36 44 
36 34 42 34 32 40 91 77 82 184 200 204 224 236 239 217 232 230 219 232 232 219 232 232 
217 232 230 219 232 232 220 231 236 193 211 218 147 176 186 147 182 191 147 176 189 137 160 165 
41 46 52 34 36 41 35 39 44 34 38 43 33 37 42 35 38 43 35 38 44 35 37 41 
35 36 40 37 39 43 35 39 44 35 39 44 36 39 45 37 37 44 37 36 43 38 37 44 
36 37 42 36 37 41 37 39 43 38 39 43 37 38 42 38 39 43 38 40 44 37 38 42 
37 38 42 38 39 43 39 40 44 38 40 44 38 40 44 39 41 45 39 41 45 39 41 45 
39 41 45 38 40 44 37 39 43 37 38 42 36 39 44 35 39 45 35 39 44 37 40 44 
38 40 44 38 40 44 38 40 44 39 41 45 39 41 45 39 41 45 39 41 45 41 40 46 
41 40 46 41 40 45 41 40 46 41 40 46 41 40 45 39 41 45 39 41 45 39 41 45 
38 40 44 37 39 43 38 39 43 38 40 44 39 41 45 39 41 45 39 41 45 39 41 45 
39 41 45 41 40 45 41 40 45 41 40 45 39 41 45 39 41 45 39 41 45 39 41 45 
39 41 45 38 41 45 37 40 46 38 41 47 38 41 47 38 41 47 38 41 47 39 41 46 
39 41 45 39 41 45 39 41 45 39 41 45 39 41 45 39 41 45 39 41 45 39 41 45 
39 41 45 39 41 45 39 41 45 39 41 45 39 41 45 39 41 45 39 41 45 39 41 45 
39 42 45 38 42 47 38 42 47 40 42 46 
39 41 45 39 41 45 39 41 45 39 41 45 39 41 45 39 41 45 39 41 45 39 41 45 
39 41 45 39 41 45 39 41 45 38 42 45 38 42 45 38 42 45 38 41 46 38 41 47 
38 41 47 39 41 46 39 41 45 39 41 45 38 41 46 38 41 47 38 41 47 38 41 47 
38 41 47 38 41 46 39 41 45 39 41 45 39 41 45 39 41 45 39 41 45 39 41 45 
39 41 45 39 41 45 39 41 45 39 41 45 39 41 45 39 41 45 39 41 45 39 41 45 
39 41 45 39 41 45 39 41 45 39 41 45 39 41 45 39 41 45 39 41 45 39 41 45 
39 41 45 37 40 46 36 40 46 37 41 46 38 41 47 38 41 47 39 41 46 39 41 45 
39 41 45 37 40 46 36 40 46 36 40 46 36 39 44 39 41 45 39 41 45 39 41 45 
39 41 45 39 41 45 39 41 45 39 41 45 39 41 45 37 40 46 36 40 46 36 40 46 
36 40 46 36 40 46 36 40 46 36 40 46 36 40 46 36 40 45 37 39 43 38 40 44 
39 41 45 39 41 45 39 41 45 39 41 45 39 41 45 39 41 45 39 41 45 39 41 45 
39 41 45 39 41 45 39 41 45 39 41 45 39 42 45 38 40 44 38 39 43 38 40 44 
34 35 40 60 64 71 137 160 165 147 182 191 147 176 189 147 176 189 193 211 218 218 232 236 
219 232 232 219 232 232 219 232 232 219 232 232 217 232 230 220 237 237 184 200 204 60 64 71 
31 33 37 32 33 43 59 51 57 167 125 126 200 130 138 200 130 138 200 130 138 200 130 138 
200 130 138 200 130 138 200 130 138 171 159 166 147 165 171 147 165 171 147 165 171 170 178 190 
209 224 225 219 230 232 218 230 232 219 230 232 219 232 232 219 232 232 219 232 232 219 232 232 
219 232 232 217 232 230 216 230 230 218 230 232 219 232 232 219 232 232 219 232 232 219 232 232 
219 232 232 219 232 232 219 232 232 219 232 232 219 232 232 219 232 232 217 232 230 219 232 232 
219 232 232 219 232 232 219 232 232 219 232 232 219 232 232 219 232 232 219 232 232 217 232 230 
214 230 229 214 231 232 214 231 232 214 231 232 217 232 230 216 230 230 216 230 230 218 230 232 
218 230 232 209 224 225 170 178 190 137 160 165 147 165 171 147 165 171 171 159 166 200 130 138 
200 130 138 200 130 138 200 130 138 200 130 138 200 130 138 200 130 138 167 125 126 59 51 57 
36 35 45 32 29 37 91 77 82 184 200 204 224 236 239 217 232 230 216 230 230 217 232 230 
219 232 232 219 232 232 220 231 236 191 212 218 147 176 186 147 176 189 147 176 189 137 160 165 
41 46 52 33 35 40 34 38 43 33 37 42 34 38 43 33 37 43 33 37 42 34 36 40 
34 35 39 37 39 43 38 39 44 38 37 44 37 37 42 38 37 44 38 37 44 37 37 42 
36 37 41 35 36 40 36 37 41 37 38 42 36 37 41 38 39 43 39 41 45 38 39 43 
36 37 41 35 37 41 37 38 42 38 39 43 38 40 44 39 41 45 39 41 45 38 39 43 
37 38 42 38 39 43 38 39 43 37 38 42 35 38 43 35 39 44 36 39 44 38 40 44 
37 38 42 37 38 42 38 39 43 39 41 45 39 41 45 39 41 45 39 41 45 40 42 46 
41 40 46 41 40 45 41 40 45 41 40 45 41 40 45 39 40 44 39 41 45 39 41 45 
39 41 45 39 41 45 39 41 45 39 41 45 39 41 45 39 41 45 39 41 45 39 41 45 
39 41 45 41 40 45 41 40 45 41 40 45 39 41 45 39 41 45 39 41 45 39 41 45 
39 41 45 38 41 45 37 41 46 38 41 47 38 41 47 38 41 47 38 41 47 39 41 46 
39 41 45 39 41 45 39 41 45 39 41 45 39 41 45 39 41 45 39 41 45 39 41 45 
39 41 45 39 41 45 39 41 45 39 41 45 39 41 45 39 41 45 39 41 45 39 41 45 
38 42 47 38 42 47 38 42 47 40 42 46 
39 41 45 39 41 45 39 41 45 39 41 45 39 41 45 39 41 45 39 41 45 39 41 45 
39 41 45 39 41 45 39 41 45 38 42 45 38 42 45 38 42 45 38 41 46 38 41 46 
38 41 46 39 41 46 39 41 45 39 41 45 38 41 46 38 41 46 38 41 46 38 41 46 
38 41 46 38 41 46 39 41 45 39 41 45 39 41 45 39 41 45 39 41 45 39 41 45 
39 41 45 39 41 45 39 41 45 39 41 45 39 41 45 39 41 45 39 41 45 39 41 45 
39 41 45 39 41 45 39 41 45 39 41 45 39 41 45 39 41 45 39 41 46 38 41 46 
38 41 45 37 40 46 36 40 46 36 40 46 38 41 47 38 41 47 39 41 46 39 41 45 
39 41 45 37 40 46 36 40 46 36 40 46 37 40 45 39 41 45 39 41 45 39 41 45 
39 41 45 39 41 45 39 41 45 39 41 45 38 41 45 37 40 46 36 40 46 36 40 46 
36 40 46 36 40 46 36 40 46 36 40 46 36 40 46 36 40 46 38 40 44 38 40 44 
39 41 46 39 41 45 39 41 45 39 41 45 39 41 45 39 41 45 39 41 45 39 41 45 
39 41 45 39 40 44 39 41 45 39 41 45 39 41 45 38 40 44 36 37 42 35 36 41 
34 35 40 60 64 71 137 160 165 155 184 190 147 176 189 147 176 186 191 208 219 218 230 232 
220 237 237 219 232 232 224 236 239 224 236 239 224 236 239 224 236 239 184 200 204 60 64 71 
22 23 35 31 27 36 59 51 57 167 125 126 200 130 138 200 130 138 200 130 138 200 130 138 
200 130 138 200 130 138 200 130 138 171 159 166 153 177 190 153 177 190 153 177 190 175 197 204 
209 224 232 220 231 236 219 230 232 218 230 230 218 230 232 219 232 232 219 232 232 219 232 232 
219 232 232 219 232 232 219 232 232 219 232 232 219 232 232 219 232 232 219 232 232 219 232 232 
219 232 232 219 232 232 219 232 232 219 232 232 219 232 232 219 232 232 217 232 230 219 232 232 
219 232 232 219 232 232 219 232 232 219 232 232 219 232 232 219 232 232 219 232 232 219 232 232 
215 230 230 214 231 232 214 231 232 214 231 232 217 232 230 215 230 230 215 230 230 214 230 229 
219 232 232 216 230 230 175 197 204 147 176 186 153 177 190 153 177 190 171 159 166 200 130 138 
200 130 138 200 130 138 200 130 138 205 158 163 200 130 138 200 130 138 167 125 126 48 36 44 
31 27 36 31 27 36 60 64 71 184 200 204 232 247 250 224 236 239 224 236 239 220 237 237 
219 232 232 219 232 232 220 237 237 184 200 204 147 165 171 147 176 186 153 177 190 137 160 165 
59 51 57 35 36 45 33 37 43 32 35 42 34 36 41 33 37 42 34 38 41 35 36 41 
36 35 41 37 37 42 38 37 44 38 37 44 37 36 43 38 38 44 38 38 44 38 38 44 
37 38 43 36 37 41 37 38 42 36 37 41 34 36 40 37 39 43 39 41 45 38 39 43 
37 38 42 37 38 42 37 38 42 38 39 43 38 40 44 39 41 45 39 41 45 38 40 44 
37 38 42 37 39 44 36 38 43 36 38 42 35 39 43 35 39 44 36 39 44 38 40 44 
37 38 42 37 39 43 38 40 44 39 41 45 39 41 45 39 41 45 39 41 45 40 42 46 
41 40 46 41 40 45 41 40 45 41 40 45 41 40 45 39 40 44 39 41 45 39 41 45 
39 41 45 39 41 45 39 41 45 39 41 45 39 41 45 39 41 45 39 41 45 39 41 45 
39 41 45 41 40 45 41 40 45 41 40 45 39 41 46 39 41 46 39 41 45 39 41 45 
39 41 45 39 41 46 38 41 47 38 41 46 38 41 46 38 41 47 38 41 47 39 41 46 
39 41 45 39 41 45 39 41 45 39 41 45 39 41 45 39 41 45 39 41 45 39 41 45 
39 41 45 39 41 45 39 41 45 39 41 45 39 41 45 39 41 45 39 41 45 39 41 45 
38 42 47 38 42 47 38 42 47 40 42 46 
39 41 45 39 41 45 39 41 45 39 41 45 39 41 45 39 41 45 39 41 45 39 41 45 
39 41 45 39 41 45 39 41 45 39 41 45 39 41 45 39 41 45 39 41 45 39 41 45 
39 41 45 39 41 45 39 41 45 39 41 45 39 41 45 39 41 45 39 41 45 39 41 45 
39 41 45 39 41 45 39 41 45 39 41 45 39 41 45 39 41 45 39 41 45 39 41 45 
39 41 45 39 41 45 39 41 45 39 41 45 39 41 45 39 41 45 39 41 45 39 41 45 
39 41 45 39 41 45 39 41 45 39 41 45 39 41 45 39 41 45 38 41 47 37 41 46 
36 40 46 36 40 46 37 40 46 38 41 47 38 41 47 38 41 47 39 41 46 39 41 45 
39 41 45 37 40 46 36 40 46 36 40 46 38 41 45 39 41 45 39 41 45 39 41 45 
39 41 45 39 41 45 39 41 45 39 41 45 38 41 45 37 40 46 36 40 46 36 40 46 
36 40 46 36 40 46 36 40 46 36 40 46 36 40 46 36 40 46 36 40 46 37 41 46 
38 41 46 39 41 45 39 41 45 39 41 45 39 41 45 39 41 45 39 41 45 39 41 45 
39 41 45 38 39 43 39 41 45 39 41 45 39 41 45 39 40 44 37 38 42 37 38 42 
34 36 40 60 64 71 170 178 190 204 220 224 196 218 223 204 220 224 213 225 229 218 230 232 
217 232 230 224 236 239 173 188 188 91 77 82 91 77 82 91 77 82 91 77 82 128 108 115 
167 125 126 167 125 126 167 125 126 91 77 82 60 64 71 60 64 71 59 51 57 128 108 115 
171 159 166 171 159 166 171 159 166 173 188 188 204 220 224 204 220 224 196 218 223 204 220 224 
214 231 232 214 231 232 219 232 232 219 232 232 219 232 232 219 232 232 219 232 232 219 232 232 
219 232 232 219 232 232 219 232 232 219 232 232 219 232 232 219 232 232 219 232 232 219 232 232 
219 232 232 218 230 232 219 232 232 219 232 232 219 232 232 217 232 230 219 232 232 219 232 232 
216 230 230 217 232 230 219 232 232 219 232 232 219 232 232 219 232 232 219 232 232 217 232 230 
216 230 230 215 230 230 217 232 230 215 230 230 215 230 230 215 230 230 215 230 230 214 230 229 
215 230 230 214 231 232 209 224 225 204 220 224 204 220 224 204 220 224 175 197 204 171 159 166 
171 159 166 170 178 190 167 125 126 60 64 71 91 77 82 60 64 71 91 77 82 128 108 115 
167 125 126 167 125 126 128 108 115 91 77 82 91 77 82 91 77 82 91 77 82 173 188 188 
219 232 232 219 232 232 218 232 236 209 224 225 198 211 221 196 218 223 204 220 224 173 188 188 
59 51 57 32 35 42 34 36 45 33 37 43 35 37 41 37 38 42 38 39 43 38 38 44 
37 36 43 37 36 43 37 36 43 38 37 44 38 37 44 38 39 44 38 40 44 38 40 44 
38 39 43 38 40 44 38 40 44 37 38 42 36 37 41 38 40 44 39 40 44 38 40 44 
38 40 44 38 40 44 38 40 44 38 39 43 38 40 44 39 41 45 39 41 45 39 41 45 
38 40 44 36 39 44 35 39 44 35 39 44 35 39 44 35 39 44 36 39 44 38 40 44 
38 39 43 39 41 45 39 41 45 39 41 45 39 41 45 39 41 45 39 41 45 41 40 46 
41 40 46 41 40 46 41 40 46 41 40 46 41 40 45 39 41 45 39 41 45 39 41 45 
39 41 45 39 41 45 39 41 45 39 41 45 39 41 45 39 41 45 39 41 45 39 41 45 
39 41 45 39 41 45 39 41 45 39 41 46 41 40 46 41 40 46 39 40 46 39 41 45 
39 41 45 39 41 45 39 41 45 39 41 45 39 41 46 38 41 47 38 41 47 39 41 46 
39 41 45 39 41 45 39 41 45 39 41 45 39 41 45 39 41 45 39 41 45 39 41 45 
39 41 45 39 41 45 39 41 45 39 41 45 39 41 45 39 41 45 39 41 45 40 42 46 
40 42 46 40 42 46 40 42 46 40 42 46 
39 41 45 39 41 45 38 40 44 38 40 44 38 40 44 39 41 45 39 41 45 39 41 45 
39 41 45 39 41 45 39 41 45 39 41 45 39 41 45 39 41 45 39 41 45 39 41 45 
39 41 45 39 41 45 39 41 45 39 41 45 39 41 45 39 41 45 39 41 45 39 41 45 
39 41 45 39 41 45 39 41 45 39 41 45 39 41 45 39 41 45 39 41 45 39 41 45 
39 41 45 39 41 45 39 41 45 39 41 45 39 41 45 39 41 45 39 41 45 39 41 45 
39 41 45 39 41 45 39 41 45 39 41 45 39 41 45 39 41 45 38 41 47 38 41 47 
37 41 46 37 41 46 38 41 47 38 41 47 38 41 47 38 41 47 39 41 46 39 41 45 
39 41 45 37 40 46 36 40 46 36 40 46 38 41 45 39 41 45 39 41 45 39 41 45 
39 41 45 39 41 45 39 41 45 39 41 45 39 41 46 38 41 47 37 40 46 36 40 46 
36 40 46 36 40 46 36 40 46 36 40 46 36 40 46 36 40 46 36 40 46 36 40 46 
38 40 45 39 41 45 39 41 45 39 41 45 39 41 45 39 41 45 39 41 45 39 41 45 
39 41 45 39 40 44 39 41 45 39 41 45 39 41 45 39 41 45 39 40 44 38 40 44 
34 35 39 60 64 71 198 197 196 224 236 239 220 237 237 220 237 237 220 231 236 218 230 232 
215 230 228 224 236 239 147 165 171 22 23 35 32 29 37 31 27 36 91 77 82 200 130 138 
200 130 138 200 130 138 200 130 138 91 77 82 34 32 40 32 33 43 22 23 35 97 113 122 
161 189 201 147 182 191 147 176 189 175 197 204 219 230 232 220 231 232 219 232 232 219 232 232 
219 232 232 219 232 232 219 232 232 219 232 232 218 230 232 218 230 232 219 232 232 219 232 232 
219 232 232 219 232 232 219 232 232 219 232 232 219 232 232 219 232 232 219 232 232 219 232 232 
219 232 232 219 232 232 218 230 232 219 232 232 219 232 232 219 232 232 217 232 230 219 232 232 
219 232 232 219 232 232 218 230 232 217 232 230 219 232 232 219 232 232 219 232 232 218 230 232 
218 230 232 217 232 230 217 232 230 219 232 232 215 230 230 217 232 230 217 232 230 215 230 230 
215 230 230 215 230 230 219 232 232 220 231 232 220 231 232 218 230 232 175 197 204 153 177 190 
153 177 190 161 189 201 97 113 122 26 31 37 31 33 37 31 27 36 91 77 82 200 130 138 
200 130 138 205 158 163 200 130 138 91 77 82 22 23 35 26 31 37 26 31 37 170 178 190 
214 231 232 215 230 230 214 231 232 214 231 232 219 232 232 218 230 232 218 232 236 184 200 204 
59 51 57 32 35 42 35 38 44 35 39 44 37 40 44 39 40 44 39 40 44 41 40 46 
38 37 44 38 37 44 38 37 44 38 37 44 38 37 44 37 39 43 38 40 44 38 40 44 
38 40 44 38 40 44 38 40 44 37 39 43 37 39 43 38 40 44 38 40 44 38 40 44 
38 40 44 38 40 44 38 40 44 38 39 43 38 40 44 39 41 45 39 41 45 39 41 45 
38 40 45 36 39 44 35 39 44 35 39 44 35 39 44 35 39 44 35 39 44 38 40 44 
38 40 44 38 40 44 39 41 45 39 41 45 39 41 45 39 41 45 39 41 45 41 40 46 
41 40 45 41 40 45 41 40 46 41 40 46 41 40 45 39 41 45 39 41 45 39 41 45 
39 41 45 39 41 45 39 41 45 40 42 46 39 41 45 39 41 45 39 41 45 39 41 45 
39 41 45 39 41 45 39 41 45 39 41 46 41 40 46 41 40 46 39 40 46 39 41 45 
39 41 45 39 41 45 39 41 45 39 41 45 39 41 46 38 41 47 38 41 47 39 41 46 
39 41 45 39 41 45 39 41 45 39 41 45 39 41 45 39 41 45 40 42 46 39 41 45 
39 41 45 39 41 45 39 41 45 39 41 45 39 41 45 39 41 45 40 42 46 40 42 46 
40 42 46 40 42 46 40 42 46 40 42 46 
39 41 45 39 41 45 38 40 44 38 40 44 38 40 44 39 41 45 39 41 45 39 41 45 
39 41 45 39 41 45 39 41 45 39 41 45 39 41 45 39 41 45 39 41 45 39 41 45 
39 41 45 39 41 45 39 41 45 39 41 45 39 41 45 39 41 45 39 41 45 39 41 45 
39 41 45 39 41 45 39 41 45 39 41 45 39 41 45 39 41 45 39 41 45 39 41 45 
39 41 45 39 41 45 39 41 45 39 41 45 39 41 45 39 41 45 39 41 45 39 41 45 
39 41 45 39 41 45 39 41 45 39 41 45 39 41 45 39 41 45 38 41 47 38 41 47 
38 41 47 38 41 47 38 41 47 38 41 47 38 41 47 38 41 47 39 41 46 39 41 45 
39 41 45 38 40 45 37 40 46 37 40 46 38 41 45 39 41 45 39 41 45 39 41 45 
39 41 45 39 41 45 39 41 45 39 41 45 39 41 45 38 41 46 38 40 45 37 40 46 
36 40 46 36 40 46 36 40 46 36 40 46 36 40 46 36 40 46 36 40 46 36 40 46 
37 40 46 38 41 45 38 41 45 38 41 45 39 41 45 39 41 45 39 41 45 39 41 45 
39 41 45 39 40 46 37 39 44 38 39 44 38 39 44 37 39 44 37 39 43 37 39 43 
31 33 37 60 64 71 198 197 196 224 236 239 218 232 236 219 232 232 219 232 232 219 232 232 
216 230 230 224 236 239 147 165 171 26 31 37 38 38 49 36 35 45 91 77 82 200 130 138 
200 130 138 200 130 138 200 130 138 91 77 82 37 37 44 36 39 45 26 31 37 97 113 122 
155 184 190 147 176 189 147 182 191 184 200 204 218 230 232 216 230 230 218 230 232 218 230 232 
218 230 232 219 232 232 219 232 232 219 232 232 218 230 232 218 230 232 219 232 232 219 230 232 
218 230 232 218 230 232 218 230 232 219 232 232 219 232 232 219 232 232 219 232 232 219 232 232 
219 232 232 219 232 232 219 232 232 219 232 232 219 232 232 219 232 232 217 232 230 219 232 232 
219 232 232 219 232 232 219 232 232 218 230 232 219 232 232 219 232 232 219 232 232 219 232 232 
219 232 232 217 232 230 217 232 230 219 232 232 217 232 230 217 232 230 217 232 230 214 231 232 
215 230 230 214 231 232 214 231 232 214 231 232 214 231 232 210 230 230 175 197 204 147 182 191 
147 181 186 155 184 190 97 113 122 27 36 45 34 38 41 34 34 39 91 77 82 200 130 138 
200 130 138 200 130 138 200 130 138 91 77 82 34 36 41 38 38 46 35 38 43 170 178 190 
214 231 232 215 230 230 215 230 230 214 231 232 214 231 232 214 231 232 218 232 236 184 200 204 
59 51 57 32 33 43 35 36 45 35 38 44 35 38 44 36 38 43 37 39 44 38 39 44 
38 37 44 38 37 44 38 37 44 38 37 44 38 38 44 37 39 43 38 40 44 38 40 44 
38 40 44 38 40 44 38 40 44 38 40 44 38 40 44 38 39 43 37 39 43 38 39 43 
38 39 43 38 40 44 38 40 44 37 39 43 37 40 45 38 41 45 38 41 45 37 40 44 
37 40 44 36 39 44 35 39 44 35 39 44 35 39 44 35 39 44 35 39 44 37 40 44 
37 40 44 37 40 44 40 42 46 39 41 45 39 41 45 39 41 45 39 41 45 39 41 46 
41 40 45 41 40 45 41 40 45 41 40 45 41 40 45 39 41 45 39 41 45 39 41 45 
39 41 45 39 41 45 39 41 45 40 42 46 39 41 45 39 41 45 39 41 45 39 41 45 
39 41 45 39 41 45 39 41 45 39 41 46 41 40 46 41 40 46 39 40 46 39 41 45 
39 41 45 39 41 45 39 41 45 39 41 45 39 41 46 38 41 47 38 41 47 39 41 46 
39 41 45 39 41 45 39 41 46 39 41 46 39 41 45 39 41 45 40 42 46 39 41 45 
39 41 45 39 41 45 39 41 45 39 41 45 39 41 45 39 41 45 40 42 46 40 42 46 
40 42 46 40 42 46 40 42 46 40 42 46 
39 41 45 39 41 45 39 41 45 39 41 45 39 41 45 39 41 45 39 41 45 39 41 45 
39 41 45 39 41 45 39 41 45 39 41 45 39 41 45 39 41 45 39 41 45 39 41 45 
39 41 45 39 41 45 39 41 45 39 41 45 39 41 45 39 41 45 39 41 45 39 41 45 
39 41 45 39 41 45 39 41 45 39 41 45 39 41 45 39 41 45 39 41 45 39 41 45 
39 41 45 39 41 45 39 41 45 39 41 45 39 41 45 39 41 45 39 41 45 39 41 45 
39 41 45 39 41 45 39 41 45 39 41 45 39 41 45 39 41 45 39 41 45 39 41 45 
39 41 45 38 41 47 38 41 47 38 41 47 38 41 47 38 41 47 38 41 46 39 41 45 
39 41 45 39 41 45 39 41 45 39 41 45 39 41 45 39 41 45 39 41 45 39 41 45 
39 41 45 39 41 45 39 41 45 39 41 45 39 41 45 39 41 45 39 41 45 38 41 45 
36 40 46 36 40 46 36 40 46 36 40 46 36 40 46 36 40 46 36 40 46 36 40 46 
36 40 46 36 40 46 36 40 46 38 41 45 39 41 45 39 41 45 39 41 45 39 41 45 
39 41 45 39 40 47 41 46 52 41 46 52 41 46 52 41 46 52 41 46 52 41 46 52 
38 42 45 60 64 71 198 197 196 224 236 239 219 232 232 219 232 232 219 232 232 219 232 232 
219 232 232 224 236 239 147 165 171 31 27 36 38 40 44 36 35 39 91 77 82 167 125 126 
200 130 138 200 130 138 200 130 138 91 77 82 37 38 43 35 39 45 26 31 37 97 113 122 
161 189 201 147 176 186 153 177 190 184 200 204 218 230 232 217 232 230 217 232 230 217 232 230 
217 232 230 219 232 232 219 232 232 218 230 232 219 232 232 219 232 232 219 232 232 219 232 232 
218 230 232 218 230 232 218 230 232 218 230 232 219 232 232 219 232 232 219 232 232 219 232 232 
219 232 232 219 232 232 219 232 232 219 232 232 219 232 232 219 232 232 219 232 232 219 232 232 
219 232 232 219 232 232 219 232 232 219 232 232 219 232 232 219 232 232 219 232 232 219 232 232 
219 232 232 219 232 232 219 232 232 219 232 232 219 232 232 216 230 230 216 230 230 216 230 230 
216 230 230 214 231 232 214 231 232 214 231 232 214 231 232 214 231 232 184 200 204 155 184 190 
153 177 190 161 189 201 97 113 122 34 36 45 36 39 42 37 36 43 91 77 82 200 130 138 
200 130 138 200 130 138 167 125 126 91 77 82 33 34 40 36 38 43 35 38 43 170 178 190 
214 232 236 217 232 230 217 232 230 217 232 230 214 231 232 214 231 232 218 232 236 184 200 204 
60 64 71 38 40 49 41 46 52 41 46 52 41 46 52 41 46 52 41 46 52 41 46 52 
39 40 47 38 37 44 38 37 44 37 38 43 38 40 44 38 40 44 38 40 44 38 40 44 
38 40 44 38 40 44 38 40 44 38 40 44 37 39 43 37 38 42 38 39 43 39 41 45 
37 38 42 37 38 42 38 40 44 37 40 45 36 40 46 36 40 46 36 40 45 35 39 44 
35 39 44 35 39 44 35 39 44 35 39 44 35 39 44 35 39 44 35 39 44 35 39 44 
35 39 44 36 39 44 39 41 46 39 41 45 39 41 45 39 41 45 39 41 45 39 41 45 
39 41 45 39 41 45 39 41 45 39 41 45 39 41 45 39 41 45 39 41 45 39 41 45 
39 41 45 39 41 45 39 41 45 39 41 45 39 41 45 39 41 45 39 41 45 39 41 45 
39 41 45 39 41 45 39 41 45 39 41 45 39 41 45 39 41 45 39 41 45 39 41 45 
39 41 45 39 41 45 39 41 45 39 41 45 39 41 46 38 41 47 38 41 47 38 41 47 
38 41 47 38 41 47 38 42 47 38 42 47 38 41 47 39 41 45 39 41 45 39 41 45 
39 41 45 39 41 45 39 41 45 38 41 47 38 41 47 39 42 45 40 42 46 40 42 46 
40 42 46 40 42 46 40 42 46 38 42 47 
39 41 45 39 40 44 38 40 44 38 40 44 38 40 44 38 40 44 39 41 45 39 41 45 
39 41 45 39 41 45 39 41 45 39 41 45 39 41 45 39 41 45 39 41 45 39 41 45 
39 41 45 39 41 45 39 41 45 39 41 45 39 41 45 39 41 45 39 41 45 39 41 45 
39 41 45 39 41 45 39 41 45 39 41 45 39 41 45 39 41 45 39 41 45 39 41 45 
39 41 45 39 41 45 39 41 45 39 41 45 39 41 45 39 41 45 39 41 45 39 41 45 
39 41 45 39 41 45 39 41 45 39 41 45 39 41 45 39 41 45 39 41 45 39 41 45 
39 41 45 37 40 46 37 40 46 38 41 47 38 41 47 37 40 46 38 41 45 39 41 45 
39 41 45 39 41 45 39 41 45 38 39 43 39 41 45 39 41 45 39 41 45 39 41 45 
39 41 45 39 41 45 39 41 45 39 41 45 39 41 45 39 41 45 39 41 45 38 41 45 
36 40 46 36 40 46 36 40 46 36 40 46 36 40 46 36 40 46 36 40 46 36 40 46 
36 40 46 36 40 46 36 40 46 38 41 45 39 41 45 39 41 45 40 42 46 39 40 44 
32 34 38 60 64 71 97 113 122 97 113 122 97 113 122 97 113 122 137 160 165 137 160 165 
137 160 165 137 160 165 193 211 218 220 231 232 216 230 230 218 230 232 219 232 232 218 230 232 
217 232 230 224 236 239 147 165 171 31 33 37 39 40 44 36 37 41 91 77 82 167 125 126 
200 130 138 200 130 138 167 125 126 91 77 82 38 39 44 37 41 46 28 35 39 137 160 165 
193 211 218 184 200 204 184 200 204 198 211 221 218 230 232 217 232 230 218 230 232 219 232 232 
219 232 232 219 232 232 219 232 232 219 232 232 219 232 232 218 230 232 218 230 232 214 231 232 
209 224 225 204 220 224 204 220 224 204 220 224 209 224 232 218 230 232 217 232 230 218 230 232 
219 232 232 219 232 232 219 232 232 219 232 232 219 232 232 219 232 232 219 232 232 219 232 232 
219 232 232 219 232 232 219 232 232 219 232 232 219 232 232 219 232 232 219 232 232 219 232 232 
219 232 232 219 232 232 219 232 232 219 232 232 218 230 232 219 230 232 224 236 239 224 236 239 
224 236 239 224 236 239 219 232 232 217 232 230 219 232 232 218 230 232 204 220 224 193 211 218 
198 211 221 209 224 225 137 160 165 35 40 47 38 40 45 38 37 44 91 77 82 200 130 138 
200 130 138 200 130 138 167 125 126 91 77 82 34 33 43 35 38 44 36 39 44 170 178 190 
214 231 232 217 232 230 217 232 230 215 230 230 214 230 229 215 230 228 217 232 230 198 211 221 
137 160 165 137 160 165 137 160 165 137 160 165 97 113 122 97 113 122 97 113 122 97 113 122 
60 64 71 36 35 42 37 38 43 37 38 43 37 38 42 37 39 43 37 39 43 38 40 44 
38 40 44 38 40 44 38 40 44 38 40 44 38 40 44 38 40 44 38 40 44 38 40 44 
37 39 43 37 39 43 39 41 45 39 41 46 36 40 45 36 40 46 36 40 45 35 39 44 
35 39 44 35 39 44 35 39 44 35 39 44 35 39 44 35 39 44 35 39 44 35 39 44 
35 39 44 36 39 44 39 41 45 39 41 45 39 41 45 39 41 45 39 41 45 39 41 45 
39 41 45 39 41 45 39 41 45 39 41 45 39 41 45 39 41 45 39 41 45 39 41 45 
39 41 45 39 41 45 39 41 45 39 41 45 39 41 45 39 41 45 39 41 45 39 41 45 
39 41 45 39 41 45 39 41 45 39 41 45 39 41 45 39 41 45 39 41 45 39 41 45 
39 41 45 39 41 45 39 41 45 39 41 45 39 41 46 38 41 47 38 41 47 38 41 47 
38 41 47 38 41 47 38 41 47 38 41 47 38 41 47 39 41 45 39 41 45 39 41 45 
39 41 45 39 41 45 39 41 46 38 41 47 38 41 47 39 42 45 40 42 46 40 42 46 
40 42 46 40 42 46 40 42 46 38 42 47 
39 41 45 39 40 44 38 40 44 38 40 44 38 40 44 39 40 44 39 41 45 39 41 45 
39 41 45 39 41 45 39 41 45 39 41 45 39 41 45 39 41 45 39 41 45 39 41 45 
39 41 45 39 41 45 39 41 45 39 41 45 39 41 45 39 41 45 39 41 45 39 41 45 
39 41 45 39 41 45 39 41 45 39 41 45 39 41 45 39 41 45 39 41 45 39 41 45 
39 41 45 39 41 45 39 41 45 39 41 45 39 41 45 39 41 45 39 41 45 39 41 45 
39 41 45 39 41 45 39 41 45 39 41 45 39 41 45 39 41 45 39 41 45 39 41 45 
39 41 45 38 40 45 38 41 46 38 41 46 38 41 46 38 41 46 38 41 45 39 41 45 
39 41 45 39 41 45 39 40 44 37 38 42 39 41 45 39 41 45 39 41 45 39 41 45 
39 41 45 39 41 45 39 41 45 39 41 45 39 41 45 39 41 46 38 41 45 38 41 45 
36 40 46 36 40 46 36 40 46 36 40 46 36 40 46 36 40 46 36 40 46 36 40 46 
36 40 46 36 40 46 36 40 46 37 40 46 38 41 45 39 41 46 39 41 45 39 40 44 
31 27 36 91 77 82 161 189 201 155 184 190 155 184 190 175 197 204 218 230 232 224 236 239 
220 231 236 220 231 236 219 232 232 217 232 230 218 230 232 218 230 232 218 230 232 218 230 232 
216 230 230 224 236 239 147 165 171 31 33 37 39 41 45 37 38 43 91 77 82 167 125 126 
200 130 138 200 130 138 167 125 126 91 77 82 38 40 45 37 41 46 26 31 37 147 165 171 
230 239 249 214 231 232 214 232 236 218 230 232 216 230 230 217 232 230 219 232 232 219 232 232 
219 232 232 219 232 232 219 232 232 219 232 232 217 232 230 217 232 230 216 230 230 214 231 232 
198 211 221 184 206 218 184 206 218 191 208 219 204 220 224 218 230 232 216 230 230 218 230 232 
219 232 232 219 232 232 219 232 232 219 232 232 219 232 232 219 232 232 219 232 232 217 232 230 
218 230 232 219 232 232 219 232 232 219 232 232 219 232 232 219 232 232 219 232 232 219 232 232 
219 232 232 219 232 232 219 232 232 219 232 232 219 230 232 220 231 232 238 246 252 238 246 252 
238 246 252 238 246 252 224 236 239 217 232 230 219 232 232 219 232 232 224 236 239 238 246 252 
238 246 252 245 247 252 170 178 190 38 42 47 39 41 46 39 40 47 91 77 82 200 130 138 
200 130 138 200 130 138 167 125 126 91 77 82 35 36 48 35 36 48 36 40 45 170 178 190 
214 231 232 214 231 232 217 232 230 215 230 230 215 230 228 214 230 229 215 230 228 218 230 232 
218 232 236 218 232 236 224 236 239 214 231 232 175 197 204 155 184 190 155 184 190 155 184 190 
91 77 82 32 33 43 38 39 44 37 38 42 37 38 42 37 39 43 38 40 44 38 40 44 
37 39 43 37 39 43 38 39 43 38 40 44 38 39 43 38 39 43 37 39 43 38 40 44 
37 39 43 38 40 44 39 41 45 38 41 46 36 40 46 36 40 45 35 39 44 35 39 44 
35 39 45 35 39 44 35 39 44 35 39 44 35 39 44 35 39 44 35 39 44 35 39 44 
35 39 44 36 39 44 39 41 45 39 41 45 39 41 45 39 41 45 39 41 45 39 41 45 
39 41 45 39 41 45 39 41 45 39 41 45 39 41 45 39 41 45 39 41 45 39 41 45 
39 41 45 39 41 45 39 41 45 39 41 45 39 41 45 39 41 45 39 41 45 39 41 45 
39 41 45 39 41 45 39 41 45 39 41 45 39 41 45 39 41 45 39 41 45 39 41 45 
39 41 45 39 41 45 39 41 45 39 41 45 39 41 46 38 41 47 38 41 47 38 41 47 
38 41 47 38 41 47 38 41 47 38 41 47 38 41 47 39 41 46 39 41 46 39 41 46 
39 41 46 39 41 46 39 41 46 39 41 46 39 41 46 39 42 45 40 42 46 40 42 46 
40 42 46 40 42 46 40 42 46 38 42 47 
39 41 45 39 41 45 39 40 44 38 40 44 38 40 44 39 41 45 39 41 45 39 41 45 
39 41 45 39 41 45 39 41 45 39 41 45 39 41 45 39 41 45 39 41 45 39 41 45 
39 41 45 39 41 45 39 41 45 39 41 45 39 41 45 39 41 45 39 41 45 39 41 45 
39 41 45 39 41 45 39 41 45 39 41 45 39 41 45 39 41 45 39 41 45 39 41 45 
39 41 45 39 41 45 39 41 45 39 41 45 39 41 45 39 41 45 39 41 45 39 41 45 
39 41 45 39 41 45 39 41 45 39 41 45 39 41 45 39 41 45 39 41 45 39 41 45 
39 41 45 39 41 45 39 41 45 39 41 45 39 41 45 39 41 45 39 41 45 39 41 45 
39 41 45 39 41 45 39 41 45 38 39 43 39 41 45 39 41 45 39 41 45 39 41 45 
39 41 45 39 41 45 39 41 45 39 41 45 39 41 45 38 41 46 37 40 46 36 40 46 
36 40 46 36 40 46 36 40 46 36 40 46 36 40 46 36 40 46 36 40 46 36 40 46 
36 40 46 36 40 46 36 40 46 36 40 46 36 40 46 37 40 46 39 41 45 39 41 45 
31 33 37 91 77 82 161 189 201 147 181 186 147 181 186 161 189 201 213 225 229 220 231 232 
216 230 230 216 230 230 216 230 230 217 232 230 218 230 232 219 230 232 219 230 232 219 230 232 
219 230 232 224 236 239 147 165 171 31 33 37 41 40 46 38 38 44 91 77 82 167 125 126 
200 130 138 200 130 138 167 125 126 91 77 82 36 38 42 37 41 45 26 31 37 147 165 171 
230 239 249 216 230 230 218 230 232 219 232 232 217 232 230 219 232 232 219 232 232 219 232 232 
219 232 232 219 232 232 218 230 232 216 230 230 215 230 230 216 230 230 216 230 230 214 230 229 
196 218 223 184 206 218 191 208 219 191 208 219 204 220 224 216 230 230 217 232 230 218 230 232 
219 232 232 219 232 232 219 232 232 219 232 232 219 232 232 219 232 232 218 230 232 216 230 230 
219 232 232 219 232 232 218 230 232 219 230 232 219 232 232 219 232 232 218 230 232 218 230 232 
219 232 232 219 232 232 219 232 232 219 232 232 219 232 232 220 231 232 238 246 252 238 246 252 
238 246 252 238 246 252 224 236 239 218 230 232 219 232 232 220 231 232 230 239 249 238 246 252 
238 246 252 245 247 252 171 159 166 40 42 46 38 42 47 37 39 44 91 77 82 200 130 138 
200 130 138 200 130 138 167 125 126 91 77 82 36 35 45 36 39 46 36 40 45 170 178 190 
216 230 230 216 230 230 216 230 230 216 230 230 215 230 230 215 230 230 214 230 229 214 231 232 
214 231 232 214 231 232 219 232 232 209 224 225 161 189 201 147 176 189 147 176 189 153 177 190 
57 90 110 32 33 43 38 40 44 37 39 43 38 39 43 38 40 44 38 40 44 38 39 43 
37 39 43 36 38 42 37 39 43 38 40 44 38 39 43 37 38 42 38 39 43 38 40 44 
38 40 44 38 40 44 38 41 45 37 41 45 36 40 45 35 39 44 35 39 44 35 39 45 
36 40 46 35 39 45 36 39 45 36 40 45 35 39 44 35 39 44 35 39 44 35 39 44 
35 39 44 36 40 45 39 41 45 39 41 45 39 41 45 39 41 45 39 41 45 39 41 45 
39 41 45 39 41 45 39 41 45 39 41 45 39 41 45 39 41 45 39 41 45 39 41 45 
39 41 45 39 41 45 39 41 45 39 41 45 39 41 45 39 41 45 39 41 45 39 41 45 
39 41 45 39 41 45 39 41 45 39 41 45 39 41 45 39 41 45 39 41 45 39 41 45 
39 41 45 39 41 45 39 41 45 39 41 45 39 41 46 38 41 47 38 42 47 38 41 47 
38 41 47 38 41 47 38 41 47 38 41 47 38 41 47 38 41 47 38 41 47 38 41 47 
38 41 47 38 41 47 38 42 47 40 42 46 40 42 46 40 42 46 40 42 46 40 42 46 
39 40 47 38 40 49 38 40 49 38 42 47 
39 40 44 38 40 44 38 40 44 38 40 44 38 40 44 39 41 45 39 41 45 38 40 44 
39 41 45 39 41 45 39 41 45 39 41 45 39 41 45 39 41 45 39 41 45 39 41 45 
39 41 45 39 41 45 39 41 45 39 41 45 39 41 45 39 41 45 39 41 45 39 41 45 
39 41 45 39 41 45 39 41 45 39 41 45 39 41 45 39 41 45 39 41 45 39 41 45 
39 41 45 39 41 45 39 41 45 39 41 45 39 41 45 39 41 45 39 41 45 39 41 45 
39 41 45 39 41 45 39 41 45 39 41 45 39 41 45 39 41 45 39 41 45 39 41 45 
39 41 45 39 41 45 39 41 45 39 41 45 39 41 45 39 41 45 39 41 45 39 41 45 
39 41 45 39 41 45 39 41 45 39 41 45 39 41 45 39 41 45 39 41 45 39 41 45 
39 41 45 39 41 45 39 41 45 39 41 45 38 41 45 37 40 46 36 40 46 36 40 46 
36 40 45 36 40 46 35 40 45 37 40 46 37 40 46 36 40 46 36 40 46 36 40 46 
36 40 46 36 40 46 36 40 46 36 40 46 36 40 46 36 40 46 38 41 45 41 40 45 
31 33 37 57 90 110 161 189 201 147 182 191 147 181 186 161 189 201 209 224 225 219 230 232 
216 230 230 215 230 230 216 230 230 217 232 230 216 230 230 218 230 230 219 230 232 218 230 230 
218 230 232 220 237 237 147 165 171 26 31 37 39 40 46 38 37 44 91 77 82 200 130 138 
200 130 138 200 130 138 167 125 126 91 77 82 35 35 40 37 38 42 31 27 36 147 165 171 
230 239 249 216 230 230 218 230 232 219 232 232 219 232 232 219 232 232 219 232 232 219 232 232 
219 232 232 219 232 232 216 230 230 215 230 230 216 230 230 216 230 230 216 230 230 214 231 232 
198 211 221 184 206 218 191 208 219 191 208 219 204 220 224 218 230 232 217 232 230 219 232 232 
219 232 232 219 232 232 219 232 232 219 232 232 219 232 232 219 232 232 218 230 232 215 230 230 
217 232 230 219 232 232 219 232 232 219 232 232 219 232 232 219 232 232 216 230 230 217 232 230 
219 232 232 219 232 232 219 232 232 219 232 232 219 232 232 220 231 232 238 246 252 238 246 252 
238 246 252 238 246 252 224 236 239 213 225 229 218 230 232 218 230 232 230 239 249 238 246 252 
238 246 252 245 247 252 171 159 166 38 41 46 37 41 46 37 37 44 91 77 82 200 130 138 
200 130 138 200 130 138 200 130 138 91 77 82 36 35 45 35 36 48 35 35 43 170 178 190 
219 230 232 218 230 232 218 230 230 216 230 230 215 230 230 215 230 230 214 231 232 210 230 230 
210 230 230 214 231 232 218 230 232 204 220 224 161 189 201 147 176 186 147 176 189 153 177 190 
57 90 110 32 33 43 37 39 43 37 38 42 37 38 42 37 39 43 38 39 43 37 39 43 
38 39 43 38 39 43 38 40 44 38 40 44 38 40 44 37 39 43 37 39 43 38 40 44 
38 40 44 38 40 44 38 40 44 37 40 44 35 39 45 36 40 45 35 39 44 35 39 44 
35 39 45 35 39 44 35 39 44 35 39 44 35 39 44 35 39 44 35 39 44 35 39 44 
35 39 44 37 40 46 39 41 45 39 41 45 39 41 45 39 41 45 39 41 45 39 41 45 
39 41 45 39 41 45 39 41 45 39 41 45 39 41 45 39 41 45 39 41 45 39 41 45 
39 41 45 39 41 45 39 41 45 39 41 45 39 41 45 39 41 45 39 41 45 39 41 45 
39 41 45 39 41 45 39 41 45 39 41 45 39 41 45 39 41 45 39 41 45 39 41 45 
39 41 45 39 41 45 39 41 45 39 41 45 39 41 46 38 41 47 38 41 47 38 41 47 
38 41 47 38 41 47 38 41 47 38 41 47 38 41 47 38 41 47 38 41 47 38 41 47 
38 41 47 38 41 47 38 42 47 40 42 46 40 42 46 40 42 46 40 42 46 40 42 46 
39 40 47 38 40 49 38 40 49 38 42 47 
39 41 45 39 41 45 38 40 44 38 40 44 38 40 44 39 41 45 39 41 45 39 41 45 
39 41 45 39 41 45 39 41 45 39 41 45 39 41 45 39 41 45 39 41 45 39 41 45 
39 41 45 39 41 45 39 41 45 39 41 45 39 41 45 39 41 45 39 41 45 39 41 45 
39 41 45 39 41 45 39 41 45 39 41 45 39 41 45 39 41 45 39 41 45 39 41 45 
39 41 45 39 41 45 39 41 45 39 41 45 39 41 45 39 41 45 39 41 45 39 41 45 
39 41 45 39 41 45 39 41 45 39 41 45 39 41 45 39 41 45 39 41 45 39 41 45 
39 41 45 39 41 45 39 41 45 39 41 45 39 41 45 39 41 45 39 41 45 39 41 45 
39 41 45 39 41 45 39 41 45 39 41 45 39 41 45 39 41 45 39 41 45 39 41 45 
39 41 45 39 41 45 38 41 45 37 40 46 37 40 46 36 40 46 36 40 46 36 40 46 
36 40 46 36 40 46 36 40 46 36 40 46 36 40 46 36 40 46 36 40 46 36 40 46 
36 40 46 36 40 46 36 40 46 36 40 46 36 40 46 36 40 46 37 40 46 38 39 43 
32 29 37 57 90 110 161 189 201 147 182 191 147 181 186 161 189 201 209 224 225 219 230 232 
216 230 230 216 230 230 217 232 230 216 230 230 216 230 230 218 230 230 218 230 230 218 230 230 
218 230 232 220 237 237 147 165 171 22 23 35 38 36 46 37 37 44 91 77 82 200 130 138 
200 130 138 200 130 138 200 130 138 91 77 82 36 34 42 36 35 42 22 23 35 147 165 171 
230 239 249 216 230 230 219 232 232 219 232 232 219 232 232 219 232 232 219 232 232 219 232 232 
219 232 232 219 232 232 218 230 232 215 230 230 209 224 232 209 224 225 209 224 232 204 220 224 
184 206 218 175 197 204 175 197 204 175 197 204 193 211 218 218 230 232 218 230 232 219 232 232 
219 232 232 219 232 232 219 232 232 219 232 232 219 232 232 219 232 232 218 230 232 215 230 230 
215 230 228 204 220 224 191 212 218 193 211 218 193 211 218 196 218 223 204 220 224 209 224 225 
209 224 225 213 225 229 214 231 232 219 232 232 219 232 232 219 232 232 230 239 249 230 239 249 
230 239 249 230 239 249 224 236 239 224 236 239 224 236 239 224 236 239 224 236 239 230 239 249 
230 239 249 245 247 252 147 165 171 35 38 44 36 40 46 35 38 44 91 77 82 200 130 138 
200 130 138 200 130 138 200 130 138 91 77 82 34 33 43 34 36 45 35 35 43 170 178 190 
220 231 232 218 230 232 218 230 230 218 230 232 217 232 230 215 230 230 214 230 229 210 230 230 
214 231 232 214 231 232 218 230 232 204 220 224 161 189 201 147 176 186 147 182 191 155 184 190 
57 90 110 32 33 43 36 38 42 36 37 41 37 38 42 38 39 43 38 39 43 38 39 43 
38 40 44 38 40 44 38 40 44 38 40 44 38 40 44 38 40 44 38 39 43 37 38 42 
37 39 43 38 40 44 37 39 43 37 38 43 37 39 44 36 39 45 35 39 44 35 39 44 
35 39 44 35 39 44 35 39 44 35 39 44 35 39 44 35 39 44 35 39 44 35 39 44 
35 39 44 36 40 45 39 41 45 39 41 45 39 41 45 39 41 45 39 41 45 39 41 45 
39 41 45 39 41 45 39 41 45 39 41 45 39 41 45 39 41 45 39 41 45 39 41 45 
39 41 45 39 41 45 39 41 45 39 41 45 39 41 45 39 41 45 39 41 45 39 41 45 
39 41 45 39 41 45 39 41 45 39 41 45 39 41 46 38 41 46 38 41 46 39 41 45 
39 41 45 39 41 45 39 41 45 39 41 45 39 41 46 38 41 47 38 41 47 38 41 47 
38 41 47 38 41 47 38 41 47 38 41 47 38 42 47 38 41 47 38 41 47 38 42 47 
39 42 45 38 42 47 40 42 46 40 42 46 40 42 46 40 42 46 40 42 46 40 42 46 
39 40 47 38 40 49 38 40 49 38 42 47 
39 41 45 39 41 45 39 41 45 39 41 45 39 41 45 39 41 45 39 41 45 39 41 45 
39 41 45 39 41 45 39 41 45 39 41 45 39 41 45 39 41 45 39 41 45 39 41 45 
39 41 45 39 41 45 39 41 45 39 41 45 39 41 45 39 41 45 39 41 45 39 41 45 
39 41 45 39 41 45 39 41 45 38 40 44 38 40 44 39 41 45 39 41 45 39 41 45 
39 41 45 39 41 45 39 41 45 39 41 45 39 41 45 39 41 45 39 41 45 39 41 45 
39 41 45 39 41 45 39 41 45 39 41 45 39 41 45 39 41 45 39 41 45 39 41 45 
39 41 45 39 41 45 39 41 45 39 41 45 39 41 45 39 41 45 39 41 45 39 41 45 
39 41 45 39 41 45 39 41 45 39 41 45 39 41 45 39 41 45 39 41 45 39 41 45 
39 41 45 39 41 45 37 41 46 36 40 46 36 40 46 36 40 46 36 40 46 36 40 46 
36 40 46 36 40 46 36 40 46 36 40 46 36 40 46 36 40 46 36 40 46 36 40 46 
36 40 46 36 40 46 36 40 46 36 40 46 36 40 46 36 40 46 36 40 46 37 39 43 
32 29 37 57 90 110 161 189 201 147 181 186 147 181 186 161 189 201 209 224 225 218 230 232 
216 230 230 218 230 232 217 232 230 216 230 230 216 230 230 218 230 230 218 230 230 218 230 230 
219 230 232 224 236 239 147 165 171 22 23 35 32 29 37 32 29 37 91 77 82 200 130 138 
205 158 163 205 158 163 200 130 138 91 77 82 32 29 37 32 33 43 22 23 35 147 165 171 
230 239 249 217 232 230 219 232 232 219 232 232 219 232 232 219 232 232 219 232 232 219 232 232 
219 232 232 219 232 232 218 230 232 213 225 229 198 211 221 191 208 219 191 208 219 193 211 218 
175 197 204 153 177 190 155 184 190 155 184 190 184 200 204 214 231 232 217 232 230 219 232 232 
219 232 232 219 232 232 219 232 232 219 232 232 219 232 232 219 232 232 218 230 232 216 230 230 
213 225 229 175 197 204 153 177 190 155 184 190 155 184 190 175 197 204 191 208 219 191 208 219 
191 208 219 198 211 221 214 231 232 219 232 232 219 232 232 218 230 232 219 232 232 219 232 232 
218 230 232 219 232 232 230 239 249 238 246 252 238 246 252 238 246 252 224 236 239 220 231 232 
218 230 232 232 247 250 147 165 171 32 35 42 31 33 37 31 27 36 91 77 82 200 130 138 
205 158 163 205 158 163 200 130 138 91 77 82 22 23 35 26 31 37 26 31 37 170 178 190 
219 230 232 216 230 230 217 232 230 219 232 232 219 232 232 218 230 232 215 230 230 214 231 232 
214 231 232 214 230 229 216 230 230 204 220 224 161 189 201 147 176 186 147 182 191 155 184 190 
57 90 110 32 33 43 37 39 43 36 38 42 38 40 44 38 40 44 38 40 44 38 40 44 
38 40 44 38 40 44 38 40 44 38 40 44 37 39 43 37 39 43 38 40 44 35 37 41 
36 38 42 37 39 43 37 38 42 37 37 44 38 39 44 36 39 45 34 39 43 35 39 44 
35 39 44 35 39 44 35 39 44 35 39 44 35 39 44 35 39 44 35 39 44 35 39 44 
35 39 44 35 39 44 38 40 44 39 41 45 39 41 45 39 41 45 39 41 45 39 41 45 
39 41 45 39 41 45 39 41 45 39 41 45 39 41 45 39 41 45 39 41 45 39 41 45 
39 41 45 39 41 45 39 41 45 39 41 45 39 41 45 39 41 45 39 41 45 39 41 45 
39 41 45 39 41 45 39 41 45 39 41 46 38 41 47 38 41 47 38 41 46 39 41 45 
39 41 45 39 41 45 39 41 45 39 41 45 39 41 46 38 41 47 38 41 47 38 41 47 
38 41 47 38 41 47 38 42 47 38 42 47 38 41 47 38 41 47 38 41 47 39 41 46 
39 41 45 40 42 46 40 42 46 40 42 46 40 42 46 40 42 46 40 42 46 39 41 45 
39 40 47 38 40 49 38 40 49 38 42 47 
39 41 45 39 41 45 39 41 45 39 41 45 39 41 45 39 41 45 39 41 45 39 41 45 
39 41 45 39 41 45 39 41 45 39 41 45 39 41 45 39 41 45 39 41 45 39 41 45 
39 41 45 39 41 45 39 41 45 39 41 45 39 41 45 39 41 45 39 41 45 39 41 45 
39 41 45 39 41 45 39 41 45 38 40 44 38 40 44 39 41 45 39 41 45 39 41 45 
39 41 45 39 41 45 39 41 45 39 41 45 39 41 45 39 41 45 39 41 45 39 41 45 
39 41 45 39 41 45 39 41 45 39 41 45 39 41 45 39 41 45 39 41 45 39 41 45 
39 41 45 39 41 45 39 41 45 39 41 45 39 41 45 39 41 45 39 41 45 39 41 45 
39 41 45 39 41 45 39 41 45 39 41 45 39 41 45 39 41 45 39 41 45 39 41 45 
39 41 45 39 41 45 38 41 46 37 40 46 36 40 46 36 40 46 36 40 46 36 40 46 
36 40 46 36 40 46 36 40 46 36 40 46 36 40 46 36 40 46 36 40 46 36 40 46 
36 40 46 36 40 46 36 40 46 36 40 46 36 40 46 36 40 46 36 40 46 38 40 44 
32 29 37 57 90 110 161 189 201 147 181 186 147 181 186 161 189 201 209 224 225 218 230 232 
217 232 230 219 232 232 219 232 232 218 230 232 218 230 232 219 232 232 220 231 232 220 231 232 
219 230 232 224 236 239 170 178 190 57 90 110 91 77 82 91 77 82 91 77 82 128 108 115 
167 125 126 167 125 126 128 108 115 97 113 122 57 90 110 57 90 110 57 90 110 170 178 190 
224 236 239 216 230 230 218 230 232 219 232 232 219 232 232 219 232 232 219 232 232 219 232 232 
218 230 232 217 232 230 218 230 232 213 225 229 193 211 218 184 206 218 191 208 219 191 208 219 
161 189 201 153 177 190 147 182 191 147 181 186 184 200 204 215 230 230 217 232 230 219 232 232 
219 232 232 219 232 232 219 232 232 219 232 232 219 232 232 219 232 232 218 230 232 216 230 230 
213 225 229 175 197 204 147 176 186 153 177 190 153 177 190 175 197 204 184 206 218 191 208 219 
184 206 218 198 211 221 214 231 232 220 231 232 219 232 232 219 232 232 218 230 232 219 232 232 
217 232 230 219 232 232 230 239 249 238 246 252 238 246 252 238 246 252 224 236 239 219 230 232 
218 230 232 224 236 239 170 178 190 91 77 82 91 77 82 91 77 82 91 77 82 167 125 126 
167 125 126 167 125 126 128 108 115 91 77 82 57 90 110 57 90 110 57 90 110 173 188 188 
219 230 232 216 230 230 217 232 230 217 232 230 219 232 232 219 232 232 218 230 232 214 231 232 
214 231 232 210 230 230 216 230 230 209 224 225 161 189 201 147 181 186 147 181 186 155 184 190 
57 90 110 32 34 38 38 39 43 37 39 43 38 40 44 38 40 44 38 40 44 38 40 44 
38 40 44 38 40 44 38 40 44 38 39 43 36 37 41 36 37 41 37 39 43 36 38 42 
37 38 42 37 38 42 37 38 42 37 37 44 39 40 46 36 40 45 34 39 43 35 39 44 
35 39 44 35 39 44 35 39 44 35 39 44 35 39 44 35 39 44 34 38 43 35 39 44 
35 39 44 35 39 44 38 40 44 39 41 45 39 41 45 39 41 45 39 41 45 39 41 45 
39 41 45 39 41 45 39 41 45 39 41 45 39 41 45 39 41 45 39 41 45 39 41 45 
39 41 45 39 41 45 39 41 45 39 41 45 39 41 45 39 41 45 39 41 45 39 41 45 
39 41 45 39 41 45 39 41 45 39 41 46 38 41 47 38 41 47 38 41 46 39 41 45 
39 41 45 39 41 45 39 41 45 39 41 45 39 41 46 38 41 47 38 41 47 38 41 47 
38 41 47 38 41 47 38 42 47 38 42 47 38 41 47 38 41 47 38 41 47 38 41 47 
39 41 45 39 41 45 40 42 46 40 42 46 40 42 46 40 42 46 40 42 46 40 42 46 
39 40 47 38 40 49 38 40 49 38 42 47 
39 41 45 39 41 45 39 41 45 39 41 45 39 41 45 39 41 45 39 41 45 39 41 45 
39 41 45 39 41 45 39 41 45 39 41 45 39 41 45 39 41 45 39 41 45 39 41 45 
38 40 44 39 41 45 39 41 45 39 41 45 39 40 44 39 41 45 39 41 45 39 41 45 
39 41 45 39 41 45 39 41 45 39 41 45 39 41 45 38 40 44 39 41 45 39 41 45 
39 41 45 39 41 45 39 41 45 39 41 45 39 41 45 39 41 45 39 41 45 39 41 45 
39 41 45 39 41 45 39 41 45 39 41 45 39 41 45 39 41 45 39 41 45 39 41 45 
39 41 45 39 41 45 39 41 45 39 41 45 39 41 45 39 41 45 39 41 45 39 41 45 
39 41 45 38 40 44 38 40 44 39 41 45 39 41 45 39 41 45 39 41 45 39 41 45 
39 41 45 39 41 45 39 41 46 37 41 46 36 40 46 38 40 45 38 41 45 38 41 45 
38 41 45 38 41 45 38 41 45 38 41 45 38 41 45 38 41 45 36 40 46 36 40 46 
36 40 46 36 40 46 36 40 46 36 40 46 36 40 46 36 40 46 37 40 46 38 40 44 
31 27 36 91 77 82 161 189 201 147 182 191 147 181 186 161 189 201 209 224 225 219 230 232 
218 230 232 219 232 232 219 232 232 219 232 232 219 232 232 219 232 232 219 232 232 219 232 232 
219 230 232 218 230 232 193 211 218 147 176 186 147 176 186 147 176 186 137 160 165 60 64 71 
59 51 57 59 51 57 60 64 71 137 160 165 153 177 190 147 176 186 147 176 186 193 211 218 
220 231 236 216 230 230 218 230 230 219 230 232 219 232 232 219 232 232 218 230 232 218 230 232 
219 232 232 219 230 232 218 230 232 213 225 229 193 211 218 191 208 219 191 208 219 191 208 219 
161 189 201 147 176 189 147 182 191 147 182 191 184 200 204 215 230 230 218 230 232 219 232 232 
219 232 232 219 232 232 219 232 232 219 232 232 217 232 230 219 232 232 219 232 232 216 230 230 
213 225 229 175 197 204 147 176 186 153 177 190 147 181 186 161 189 201 191 208 219 191 208 219 
191 208 219 196 218 223 218 230 232 220 231 232 219 232 232 219 232 232 218 230 232 219 232 232 
217 232 230 219 232 232 230 239 249 238 246 252 238 246 252 238 246 252 224 236 239 216 230 230 
214 230 229 218 232 236 184 206 218 147 165 171 147 165 171 147 176 186 137 160 165 60 64 71 
59 51 57 59 51 57 60 64 71 137 160 165 147 176 186 147 176 186 147 176 186 193 211 218 
220 231 236 216 230 230 217 232 230 217 232 230 218 230 232 218 230 232 217 232 230 214 231 232 
214 231 232 214 231 232 214 231 232 204 220 224 161 189 201 147 182 191 147 182 191 155 184 190 
91 77 82 32 34 39 38 40 44 38 40 44 38 40 44 38 40 44 38 40 44 38 40 44 
38 40 44 38 40 44 38 40 44 38 40 44 37 39 43 37 39 43 38 40 44 38 40 44 
38 39 44 38 37 44 38 37 44 38 37 44 38 39 44 36 39 45 34 39 43 35 39 44 
35 39 44 35 39 44 36 39 45 36 39 45 35 39 44 36 39 45 34 39 43 34 38 43 
35 39 44 35 39 44 39 41 45 39 41 45 39 41 45 39 41 45 39 41 45 39 41 45 
39 41 45 39 41 45 39 40 44 38 40 44 38 40 44 39 41 45 38 40 44 39 41 45 
39 41 45 39 41 45 39 41 45 39 41 45 39 41 45 38 40 44 39 41 45 39 41 45 
39 41 45 39 41 45 39 41 45 39 41 45 39 41 45 39 41 46 39 41 45 39 41 45 
39 41 45 39 41 45 38 41 47 38 41 47 38 41 47 38 41 47 38 41 47 38 41 47 
38 41 47 38 41 47 38 41 47 38 41 47 38 42 47 38 41 47 38 41 47 38 42 47 
38 42 47 38 42 47 38 42 47 39 41 46 38 42 47 40 42 46 40 42 46 40 42 46 
39 40 47 38 40 49 38 40 49 38 42 47 
39 41 45 39 41 45 39 41 45 39 40 44 38 40 44 39 41 45 38 40 44 39 41 45 
39 41 45 39 41 45 39 41 45 39 41 45 39 41 45 39 41 45 39 41 45 39 41 45 
38 40 44 39 41 45 39 41 45 39 41 45 38 40 44 38 40 44 39 41 45 39 41 45 
39 41 45 39 41 45 39 41 45 39 41 45 38 40 44 39 41 45 39 41 45 39 41 45 
39 41 45 39 41 45 39 41 45 39 41 45 39 41 45 39 41 45 39 41 45 39 41 45 
39 41 45 39 41 45 39 41 45 39 41 45 39 41 45 39 41 45 39 41 45 39 41 45 
39 41 45 39 41 45 39 41 45 39 41 45 39 41 45 39 41 45 39 41 45 39 41 45 
39 41 45 38 40 44 39 40 44 39 41 45 39 41 45 39 41 45 39 41 45 39 41 45 
39 41 45 39 41 45 39 41 46 37 41 46 37 40 46 38 41 45 39 40 44 39 40 44 
39 41 45 39 41 45 39 41 45 39 40 44 39 41 45 39 41 45 37 40 46 36 40 46 
36 40 46 36 40 46 36 40 46 36 40 46 36 40 46 36 40 46 38 40 47 38 40 44 
31 27 36 91 77 82 161 189 201 147 176 189 147 181 186 161 189 201 209 224 225 219 230 232 
217 232 230 219 230 232 220 231 232 220 231 232 220 231 232 219 232 232 219 232 232 217 232 230 
216 230 230 218 230 232 196 218 223 153 177 190 147 182 191 155 184 190 137 160 165 59 51 57 
32 29 37 31 33 37 59 51 57 147 165 171 175 197 204 175 197 204 173 188 188 196 218 223 
218 232 236 216 230 230 216 230 230 217 232 230 218 230 232 218 230 232 218 230 232 215 230 230 
213 225 229 213 225 229 213 225 229 209 224 232 184 206 218 184 206 218 184 206 218 184 206 218 
161 189 201 147 176 189 147 182 191 155 184 190 184 200 204 215 230 230 219 232 232 219 232 232 
218 230 232 218 230 232 219 232 232 216 230 230 215 230 230 216 230 230 216 230 230 216 230 230 
213 225 229 184 200 204 153 177 190 170 178 190 170 178 190 175 197 204 184 206 218 184 206 218 
184 206 218 196 218 223 215 230 230 218 230 232 218 230 232 218 230 232 219 232 232 219 232 232 
220 231 236 220 231 236 230 239 249 232 247 250 232 247 250 232 247 250 224 236 239 220 231 236 
220 231 236 220 231 236 198 211 221 161 189 201 161 189 201 161 189 201 147 165 171 41 46 52 
34 33 43 34 32 40 60 64 71 137 160 165 155 184 190 147 182 191 155 184 190 193 211 218 
220 231 236 218 230 232 216 230 230 219 232 232 219 232 232 219 232 232 219 232 232 218 230 232 
218 230 232 214 231 232 214 231 232 204 220 224 161 189 201 147 182 191 147 182 191 155 184 190 
91 77 82 32 33 43 38 39 43 38 39 43 38 40 44 38 40 44 38 40 44 38 40 44 
38 40 44 38 40 44 38 40 44 38 40 44 37 39 43 38 39 43 38 39 43 38 39 43 
37 39 44 38 37 44 38 37 44 38 37 44 38 38 44 36 39 45 34 39 43 35 39 44 
35 39 44 35 39 44 35 39 44 35 39 44 35 39 44 36 39 45 34 38 44 34 38 43 
35 39 44 36 39 45 39 41 46 39 41 45 39 41 45 39 41 45 39 41 45 39 41 45 
39 41 45 39 41 45 39 41 45 38 39 43 38 39 43 38 39 43 38 39 43 39 41 45 
39 41 45 39 41 45 39 41 45 39 41 45 39 41 45 39 41 45 39 41 45 39 41 45 
39 41 45 39 41 45 39 41 45 39 41 45 39 41 45 39 41 45 39 41 45 39 41 45 
39 41 45 39 41 46 38 41 47 38 41 47 38 41 47 38 41 47 38 41 47 38 42 47 
38 41 47 38 41 47 38 41 47 38 41 47 38 42 47 38 41 47 38 41 47 38 42 47 
38 42 47 38 42 47 38 42 47 38 41 47 38 42 47 40 42 46 40 42 46 40 42 46 
39 40 47 38 40 49 38 40 49 38 42 47 
39 41 45 39 40 44 39 41 45 39 40 44 37 39 43 38 40 44 38 40 44 39 41 45 
39 41 45 39 41 45 39 41 45 39 41 45 39 41 45 39 41 45 39 41 45 39 41 45 
39 41 45 39 41 45 39 41 45 39 41 45 39 41 45 39 41 45 39 41 45 38 40 44 
39 40 44 39 41 45 39 41 45 38 40 44 38 40 44 38 40 44 39 41 45 39 41 45 
39 41 45 39 41 45 39 41 45 39 41 45 39 41 45 39 41 45 39 41 45 39 41 45 
39 41 45 39 41 45 39 41 45 39 41 45 39 41 45 39 41 45 39 41 45 39 41 45 
39 41 45 39 41 45 39 41 45 39 41 45 39 41 45 39 41 45 39 41 45 39 41 45 
39 41 45 39 41 45 39 41 45 39 41 45 39 41 45 39 41 45 39 41 45 39 41 45 
39 41 45 39 41 45 39 41 46 38 41 47 36 40 45 38 40 45 38 40 44 38 40 44 
39 41 45 39 41 45 39 41 45 38 40 44 39 41 45 39 41 45 38 41 47 37 40 46 
36 40 46 36 40 46 36 40 46 36 40 46 36 40 46 36 40 46 38 40 47 38 40 44 
31 27 36 91 77 82 161 189 201 153 177 190 147 181 186 161 189 201 209 224 225 219 230 232 
215 230 230 218 230 232 230 239 249 238 246 252 238 246 252 232 247 250 224 236 239 218 230 232 
218 230 232 220 231 232 193 211 218 147 180 183 147 181 186 147 182 191 137 160 165 60 64 71 
35 34 39 32 34 39 60 64 71 184 200 204 214 231 232 214 231 232 214 230 229 218 230 232 
214 231 232 214 231 232 214 231 232 214 231 232 216 230 230 218 230 232 218 230 232 209 224 232 
193 211 218 191 208 219 191 208 219 184 206 218 161 189 201 161 189 201 155 184 190 155 184 190 
147 176 189 147 182 191 147 182 191 147 182 191 184 200 204 214 231 232 218 230 232 219 232 232 
217 232 230 216 230 230 216 230 230 215 230 230 215 230 230 215 230 230 215 230 228 216 230 230 
216 230 230 198 197 196 211 189 184 211 189 184 211 189 184 173 188 188 170 178 190 155 184 190 
155 184 190 184 200 204 210 230 230 214 231 232 215 230 230 219 232 232 232 247 250 238 246 252 
238 246 252 232 247 250 224 236 239 220 231 232 220 231 232 220 231 236 230 239 249 238 246 252 
238 246 252 238 246 252 218 232 236 184 206 218 191 208 219 191 212 218 170 178 190 41 46 52 
35 35 43 34 33 43 60 64 71 137 160 165 155 184 190 147 181 186 147 180 183 191 212 218 
218 232 236 219 232 232 215 230 228 224 236 239 232 247 250 232 247 250 232 247 250 230 239 249 
219 230 232 218 230 232 218 230 232 204 220 224 161 189 201 147 181 186 147 181 186 155 184 190 
57 90 110 32 33 43 37 38 43 37 39 42 38 40 44 38 40 44 38 40 44 38 40 44 
38 40 44 38 40 44 38 40 44 37 39 43 36 38 42 37 38 42 37 38 42 38 39 43 
38 39 44 38 37 44 38 37 44 38 37 44 38 39 44 36 40 45 34 39 43 35 39 44 
35 39 44 35 39 44 35 39 44 35 39 44 36 40 45 35 39 45 35 39 44 36 40 45 
35 39 45 37 41 46 39 41 45 40 42 46 39 41 45 39 41 45 39 41 45 39 41 45 
39 41 45 39 41 45 39 41 45 39 41 45 39 41 45 39 41 45 39 41 45 39 41 45 
39 41 45 39 41 45 39 41 45 39 41 45 39 41 45 39 41 45 39 41 45 39 41 45 
39 41 45 39 41 45 39 41 45 39 41 45 39 41 45 39 41 45 39 41 45 39 41 45 
39 41 45 39 41 46 38 41 47 38 41 47 38 41 47 38 41 47 38 41 47 38 41 47 
38 41 47 38 41 47 38 41 47 38 41 47 38 41 47 37 41 46 38 41 47 38 41 47 
38 41 47 38 41 47 38 42 47 38 41 47 38 42 47 40 42 46 40 42 46 40 42 46 
38 42 47 38 40 49 38 40 49 38 42 47 
38 40 44 39 41 45 39 41 45 39 40 44 38 39 43 38 40 44 39 41 45 38 40 44 
39 41 45 39 41 45 39 41 45 39 41 45 39 41 45 39 41 45 39 41 45 39 41 45 
39 41 45 39 41 45 39 41 45 39 41 45 39 41 45 39 41 45 39 41 45 39 40 44 
39 41 45 39 41 45 39 41 45 38 40 44 37 39 43 38 39 43 39 41 45 39 41 45 
39 41 45 39 41 45 39 41 45 39 41 45 39 41 45 39 41 45 39 41 45 39 41 45 
39 41 45 39 41 45 39 41 45 39 41 45 39 41 45 39 41 45 39 41 45 39 41 45 
39 41 45 39 41 45 39 41 45 39 41 45 39 41 45 39 41 45 39 41 45 39 41 45 
39 41 45 37 40 44 36 40 44 37 41 44 38 41 45 39 41 45 39 41 45 39 41 45 
39 41 45 39 41 45 39 41 45 39 41 45 39 41 45 38 40 44 37 38 42 38 40 44 
38 40 44 39 41 45 39 41 45 39 41 45 39 41 45 38 41 46 35 39 44 36 40 45 
36 40 46 36 40 46 36 40 46 36 40 46 36 40 46 36 40 46 38 40 47 39 40 44 
31 27 36 91 77 82 161 189 201 153 177 190 147 181 186 161 189 201 204 220 224 219 232 232 
215 230 230 218 230 232 230 239 249 238 246 252 238 246 252 238 246 252 224 236 239 219 232 232 
218 230 232 218 232 236 191 212 218 147 176 186 147 181 186 147 182 191 137 160 165 60 64 71 
36 35 41 35 34 40 60 64 71 184 200 204 218 232 236 214 231 232 216 230 230 215 230 230 
215 230 230 214 230 229 214 230 229 215 230 230 215 230 230 215 230 230 214 231 232 209 224 232 
191 212 218 184 206 218 184 206 218 184 206 218 155 184 190 147 182 191 147 182 191 147 182 191 
147 182 191 147 182 191 147 182 191 155 184 190 184 200 204 216 230 230 218 230 232 218 230 232 
216 230 230 215 230 230 214 230 229 215 230 230 215 230 230 215 230 230 214 230 229 214 230 229 
215 230 228 198 197 196 211 189 184 211 189 184 211 189 184 173 188 188 155 184 190 153 177 190 
147 176 186 175 197 204 213 225 229 216 230 230 215 230 230 219 232 232 238 246 252 238 246 252 
238 246 252 232 247 250 220 231 236 215 230 228 215 230 230 218 230 232 230 239 249 238 246 252 
238 246 252 238 246 252 214 232 236 184 206 218 184 206 218 184 206 218 170 178 190 41 46 52 
35 36 45 36 35 45 60 64 71 137 160 165 155 184 190 147 180 183 147 176 186 191 212 218 
214 232 236 219 232 232 216 230 230 224 236 239 238 246 252 238 246 252 238 246 252 230 239 249 
219 230 232 218 230 230 219 230 232 204 220 224 161 189 201 147 181 186 147 181 186 155 184 190 
91 77 82 37 35 44 39 40 47 38 38 46 38 40 44 38 40 44 38 40 44 38 40 44 
38 40 44 38 40 44 38 40 44 37 38 42 35 36 40 37 38 43 38 37 44 38 38 44 
38 37 44 38 37 44 38 37 44 38 37 44 38 38 44 36 39 45 34 39 43 35 39 44 
35 39 44 35 39 44 35 39 44 35 39 44 35 39 44 35 39 44 35 39 44 35 39 44 
37 40 46 36 40 46 39 41 45 39 41 45 39 41 45 39 41 45 39 41 45 39 41 45 
39 41 45 39 41 45 39 41 45 39 41 45 39 41 45 39 41 45 39 41 45 39 41 45 
39 41 45 39 41 45 39 41 45 39 41 45 39 41 45 39 41 45 39 41 45 38 40 44 
38 40 44 39 41 45 39 41 45 39 41 45 39 41 45 39 41 45 39 41 45 39 41 45 
39 41 45 39 41 45 39 41 45 39 41 45 39 41 46 38 41 47 38 41 47 37 41 46 
38 41 47 38 41 47 38 41 47 38 41 47 38 41 47 38 41 47 38 41 47 38 41 47 
38 41 47 38 41 47 38 42 47 38 41 47 37 41 46 38 42 47 38 42 47 38 42 47 
38 42 47 38 42 47 38 42 47 40 42 46 
38 40 44 39 41 45 39 41 45 39 41 45 38 40 44 38 40 44 39 41 45 39 41 45 
39 41 45 39 41 45 39 41 45 39 41 45 39 41 45 39 41 45 39 41 45 39 41 45 
39 41 45 39 41 45 39 41 45 39 41 45 39 41 45 39 41 45 39 41 45 39 41 45 
38 40 44 39 40 44 38 40 44 38 40 44 38 40 44 38 40 44 39 41 45 39 41 45 
39 41 45 39 41 45 39 41 45 39 41 45 39 41 45 39 41 45 39 41 45 39 41 45 
39 41 45 39 41 45 39 41 45 39 41 45 39 41 45 39 41 45 39 41 45 39 41 45 
39 41 45 39 41 45 39 41 45 39 41 45 39 41 45 39 41 45 39 41 45 39 41 45 
39 41 45 37 40 44 36 40 44 37 41 44 38 41 45 39 41 45 39 41 45 39 41 45 
39 41 45 39 41 45 39 41 45 39 41 45 39 41 45 39 41 45 38 40 44 39 41 45 
39 41 45 39 41 45 39 41 45 39 41 45 39 41 45 38 41 45 35 39 45 36 40 45 
36 40 46 36 40 46 36 40 46 36 40 46 36 40 46 36 40 46 37 40 46 39 39 42 
31 27 36 91 77 82 161 189 201 147 182 191 147 176 186 155 184 190 204 220 224 219 232 232 
216 230 230 219 232 232 232 247 250 238 246 252 238 246 252 238 246 252 224 236 239 219 232 232 
219 232 232 214 231 232 191 212 218 147 176 186 147 181 186 155 184 190 137 160 165 60 64 71 
36 35 41 36 35 41 60 64 71 184 200 204 219 232 232 216 230 230 216 230 230 218 230 232 
218 230 232 217 232 230 215 230 230 214 230 229 215 230 230 214 230 229 214 231 232 209 224 232 
191 212 218 184 206 218 191 208 219 184 206 218 147 182 191 147 182 191 147 182 191 147 182 191 
147 181 186 147 181 186 147 181 186 147 181 186 184 200 204 214 231 232 219 230 232 218 230 232 
216 230 230 215 230 230 214 230 229 215 230 230 215 230 230 215 230 230 214 230 229 214 230 229 
215 230 228 198 197 196 211 189 184 211 189 184 211 189 184 173 188 188 153 177 190 147 182 191 
147 176 186 175 197 204 213 225 229 218 230 232 218 230 232 219 232 232 232 247 250 238 246 252 
238 246 252 232 247 250 220 231 236 213 225 229 214 230 229 214 231 232 230 239 249 238 246 252 
238 246 252 238 246 252 214 232 236 184 206 218 191 208 219 191 208 219 170 178 190 41 46 52 
37 37 44 38 36 46 60 64 71 137 160 165 155 184 190 147 180 183 147 176 186 191 212 218 
214 231 232 214 231 232 215 230 228 224 236 239 238 246 252 238 246 252 238 246 252 232 247 250 
219 230 232 218 230 232 214 231 232 196 218 223 155 184 190 147 176 186 147 181 186 155 184 190 
91 77 82 35 35 43 38 40 47 38 38 46 38 40 44 38 40 44 38 40 44 38 40 44 
38 40 44 38 40 44 38 40 44 37 38 42 36 37 41 37 38 43 38 37 44 38 37 44 
38 37 44 38 37 44 38 37 44 38 37 44 38 38 44 36 39 45 34 39 43 35 39 44 
35 39 44 35 39 44 35 39 44 35 39 44 35 39 44 35 39 44 35 39 44 35 39 44 
36 40 45 36 40 46 39 41 45 39 41 45 39 41 45 39 41 45 39 41 45 39 41 45 
39 41 45 39 41 45 39 41 45 39 41 45 39 41 45 39 41 45 39 41 45 39 41 45 
39 41 45 39 41 45 39 41 45 39 41 45 39 41 45 39 41 45 39 41 45 38 40 44 
38 40 44 39 41 45 39 41 45 39 41 45 39 41 45 39 41 45 39 41 45 39 41 45 
39 41 45 39 41 45 39 41 45 39 41 45 39 41 46 38 41 47 38 41 47 37 41 46 
38 41 47 38 41 47 38 41 47 38 41 47 38 41 47 38 41 47 38 41 47 38 41 47 
38 41 47 38 41 47 38 42 47 38 42 47 38 41 47 38 42 47 38 42 47 38 42 47 
38 42 47 38 42 47 38 42 47 40 42 46 
39 41 45 39 41 45 39 41 45 38 40 44 38 40 44 39 41 45 39 41 45 39 41 45 
39 41 45 39 41 45 39 41 45 39 41 45 39 41 45 39 41 45 38 39 43 39 41 45 
39 41 45 39 41 45 39 41 45 39 41 45 39 41 45 39 41 45 39 41 45 39 41 45 
39 41 45 38 39 43 37 38 42 39 40 44 39 41 45 39 41 45 39 41 45 38 40 44 
39 40 44 39 41 45 39 41 45 39 41 45 39 41 45 39 41 45 39 41 45 39 41 45 
39 41 45 39 41 45 39 41 45 39 41 45 39 41 45 39 41 45 39 41 45 39 41 45 
39 41 45 39 41 45 39 41 45 39 41 45 39 41 45 39 41 45 39 41 45 39 41 45 
39 41 45 38 40 44 36 40 44 38 42 45 38 41 44 37 39 43 39 41 45 39 41 45 
39 41 45 39 41 45 39 41 45 39 41 45 39 41 45 39 41 45 39 41 45 39 41 45 
39 41 45 39 41 45 39 41 45 39 41 45 39 41 45 38 41 45 36 40 46 36 40 46 
36 40 46 36 40 46 36 40 46 36 40 46 36 40 46 36 40 46 37 41 46 39 39 42 
32 29 37 57 90 110 161 189 201 147 182 191 147 181 186 161 189 201 204 220 224 218 230 232 
216 230 230 219 230 232 230 239 249 238 246 252 238 246 252 238 246 252 224 236 239 218 230 232 
216 230 230 214 231 232 191 212 218 147 180 183 147 181 186 155 184 190 137 160 165 60 64 71 
35 36 40 35 34 39 60 64 71 184 200 204 219 232 232 219 232 232 219 232 232 219 232 232 
219 232 232 219 232 232 214 231 232 214 230 229 214 230 229 214 230 229 214 231 232 204 220 224 
193 211 218 191 208 219 191 208 219 184 206 218 155 184 190 155 184 190 170 178 190 170 178 190 
153 177 190 153 177 190 153 177 190 155 184 190 184 200 204 210 230 230 214 231 232 210 230 230 
214 231 232 214 231 232 214 230 229 215 230 230 215 230 230 215 230 230 214 230 229 215 230 230 
215 230 228 198 197 196 211 189 184 211 189 184 211 189 184 173 188 188 153 177 190 153 177 190 
147 176 186 175 197 204 213 225 229 218 230 230 219 232 232 219 232 232 232 247 250 238 246 252 
238 246 252 232 247 250 224 236 239 216 230 230 214 231 232 214 231 232 224 236 239 232 247 250 
238 246 252 238 246 252 220 231 236 191 208 219 193 211 218 198 211 221 173 188 188 41 46 52 
36 35 42 36 35 45 60 64 71 137 160 165 155 184 190 147 181 186 147 181 186 191 212 218 
214 230 229 215 230 230 216 230 230 224 236 239 238 246 252 238 246 252 238 246 252 232 247 250 
220 231 232 213 225 229 214 231 232 196 218 223 155 184 190 147 176 186 147 181 186 155 184 190 
91 77 82 34 33 43 38 38 46 37 37 44 38 40 44 38 40 44 38 40 44 38 40 44 
38 40 44 38 40 44 37 39 43 37 38 43 37 38 42 38 37 44 38 37 44 38 37 44 
38 37 44 38 37 44 38 37 44 38 37 44 38 39 44 36 40 45 35 39 44 35 39 44 
35 39 44 35 39 44 35 39 44 35 39 44 35 39 44 35 39 44 35 39 44 35 39 44 
35 39 44 37 41 46 39 41 45 39 41 45 39 41 45 39 41 45 39 41 45 39 41 45 
39 41 45 39 41 45 39 41 45 39 41 45 39 41 45 39 41 45 39 41 45 39 41 45 
39 41 45 39 41 45 39 41 45 39 41 45 39 41 45 39 41 45 39 41 45 39 41 45 
39 41 45 39 41 45 39 41 45 39 41 45 39 41 45 39 41 45 39 41 45 39 41 45 
39 41 45 39 41 45 39 41 45 39 41 45 39 41 46 38 41 47 38 41 47 38 41 47 
38 41 47 38 41 47 38 42 47 38 42 47 38 41 47 38 41 47 38 41 47 38 42 47 
38 42 47 38 42 47 38 42 47 38 42 47 38 42 47 38 42 47 38 42 47 38 42 47 
38 42 47 38 42 47 38 42 47 40 42 46 
39 41 45 39 41 45 39 41 45 39 41 45 38 40 44 39 41 45 39 41 45 39 40 44 
38 40 44 39 41 45 39 41 45 39 41 45 39 41 45 39 41 45 39 41 45 39 41 45 
39 41 45 39 41 45 39 41 45 39 41 45 39 41 45 39 41 45 39 41 45 39 41 45 
39 41 45 39 40 44 38 40 44 39 41 45 39 41 45 39 41 45 39 41 45 39 41 45 
39 41 45 39 41 45 39 41 45 39 41 45 39 41 45 39 41 45 39 41 45 39 41 45 
39 41 45 39 41 45 39 41 45 39 41 45 39 41 45 39 41 45 39 41 45 39 41 45 
39 41 45 39 41 45 39 41 45 39 41 45 39 41 45 39 41 45 39 41 45 39 41 45 
39 41 45 39 41 45 38 41 45 39 41 45 39 41 45 38 40 44 39 41 45 39 41 45 
39 41 45 39 41 45 39 41 45 39 41 45 39 41 45 39 41 45 39 41 45 39 41 45 
38 40 44 39 41 45 39 41 45 38 41 47 37 40 46 37 40 46 36 40 46 36 40 46 
36 40 46 36 40 46 36 40 46 36 40 46 36 40 46 36 40 46 38 40 47 38 36 46 
32 29 37 57 90 110 161 189 201 147 182 191 147 181 186 161 189 201 220 231 236 230 239 249 
230 239 249 230 239 249 224 236 239 220 231 236 220 237 237 218 232 236 224 236 239 230 239 249 
230 239 249 232 247 250 204 220 224 147 180 183 147 181 186 155 184 190 137 160 165 60 64 71 
35 34 39 34 34 39 60 64 71 184 200 204 219 232 232 218 230 232 216 230 230 219 232 232 
218 230 232 218 230 232 214 231 232 214 230 229 210 230 230 210 230 230 214 232 236 196 218 223 
175 197 204 161 189 201 161 189 201 173 188 188 220 204 201 220 204 201 220 204 201 220 204 201 
198 197 196 173 188 188 198 197 196 198 197 196 173 188 188 161 189 201 161 189 201 161 189 201 
184 200 204 213 225 229 214 231 232 215 230 230 216 230 230 214 230 229 215 230 230 218 230 232 
216 230 230 227 220 211 235 220 211 227 220 211 227 220 211 220 204 201 211 189 184 198 197 196 
198 197 196 173 188 188 173 188 188 175 197 204 175 197 204 175 197 204 209 224 232 218 232 236 
220 231 236 220 231 236 219 232 232 214 231 232 210 230 230 210 230 230 214 231 232 220 231 236 
220 231 236 220 231 236 218 230 232 209 224 232 209 224 232 214 231 232 184 200 204 59 51 57 
35 35 43 34 36 45 60 64 71 137 160 165 155 184 190 147 181 186 153 177 190 204 220 224 
230 239 249 230 239 249 230 239 249 230 239 249 220 231 236 220 231 236 224 236 239 224 236 239 
230 239 249 230 239 249 230 239 249 214 231 232 161 189 201 147 176 186 147 181 186 155 184 190 
91 77 82 32 33 43 36 39 45 34 38 43 35 39 44 36 38 42 37 39 43 38 40 44 
38 40 44 38 39 43 38 37 44 38 37 44 38 37 44 38 37 44 38 37 44 38 37 44 
38 37 44 38 37 44 38 37 44 38 37 44 38 39 43 38 40 44 36 40 44 35 39 44 
35 39 44 35 39 44 35 39 44 35 39 44 35 39 44 35 39 44 35 39 44 35 39 44 
35 39 44 37 41 46 40 42 46 39 41 45 39 41 45 39 41 45 39 41 45 39 41 45 
39 41 45 39 41 45 39 41 45 39 41 45 39 41 45 39 41 45 39 41 45 39 41 45 
39 41 45 39 41 45 39 41 45 39 41 45 39 41 45 39 41 45 39 41 45 39 41 45 
39 41 45 39 41 45 39 41 45 39 41 45 39 41 45 39 41 45 39 41 45 39 41 45 
39 41 45 39 41 45 39 41 45 39 41 45 39 41 46 38 41 47 38 41 47 38 41 47 
38 41 47 38 41 47 38 41 47 38 41 47 38 41 47 38 41 47 38 41 47 38 42 47 
38 42 47 38 42 47 38 42 47 40 42 46 40 42 46 40 42 46 40 42 46 40 42 46 
40 42 46 40 42 46 40 42 46 38 42 47 
38 40 44 38 40 44 39 40 44 39 40 44 39 41 45 39 41 45 39 41 45 39 40 44 
39 40 44 39 41 45 39 41 45 39 41 45 39 41 45 39 41 45 39 41 45 39 41 45 
39 41 45 39 41 45 39 41 45 39 41 45 39 41 45 39 41 45 39 41 45 39 41 45 
39 41 45 39 40 44 38 40 44 39 41 45 39 41 45 39 41 45 39 41 45 39 41 45 
39 41 45 38 40 44 38 40 44 39 41 45 39 41 45 39 41 45 39 41 45 39 41 45 
39 41 45 39 41 45 39 41 45 39 41 45 39 41 45 39 41 45 39 41 45 39 41 45 
39 41 45 39 41 45 39 41 45 39 41 45 39 41 45 39 41 45 39 41 45 39 41 45 
39 40 44 39 41 45 39 41 45 39 41 45 39 41 45 39 41 45 39 41 45 39 41 45 
39 41 45 39 41 45 39 41 45 39 41 45 39 41 45 39 41 45 39 41 45 39 40 44 
38 39 43 38 40 44 39 42 45 37 41 46 37 40 46 36 40 46 36 40 46 36 40 46 
36 40 46 36 40 46 36 40 46 36 40 46 36 40 46 36 40 46 38 40 47 38 36 46 
31 27 36 57 90 110 161 189 201 147 182 191 147 182 191 175 197 204 224 236 239 245 247 252 
238 246 252 232 247 250 220 231 236 213 225 229 213 225 229 213 225 229 224 236 239 238 246 252 
238 246 252 238 246 252 210 230 230 147 181 186 147 182 191 155 184 190 137 160 165 60 64 71 
35 35 40 36 34 38 60 64 71 198 197 196 219 232 232 214 230 229 214 230 229 216 230 230 
216 230 230 215 230 230 210 230 230 210 230 230 210 230 230 210 230 230 214 231 232 191 213 222 
155 184 190 153 177 190 153 177 190 170 178 190 227 220 211 238 222 213 240 224 218 240 224 218 
220 204 201 211 189 184 211 189 184 211 189 184 170 178 190 147 176 186 147 176 186 147 176 186 
175 197 204 209 224 232 214 231 232 214 230 229 216 230 230 214 230 229 215 230 230 218 230 232 
215 230 228 240 224 218 240 224 218 240 224 218 238 222 213 220 204 201 211 189 184 211 189 184 
211 189 184 173 188 188 153 177 190 147 181 186 147 180 183 155 184 190 209 224 232 215 230 230 
215 230 230 218 230 232 216 230 230 214 230 229 210 230 230 210 230 230 214 230 229 214 230 229 
213 225 229 213 225 229 213 225 229 214 231 232 214 231 232 214 231 232 184 200 204 41 46 52 
33 33 43 33 33 43 60 64 71 137 160 165 155 184 190 153 177 190 155 184 190 213 225 229 
238 246 252 238 246 252 238 246 252 224 236 239 213 225 229 213 225 229 213 225 229 220 231 232 
232 247 250 238 246 252 238 246 252 224 236 239 175 197 204 153 177 190 147 181 186 155 184 190 
91 77 82 28 35 39 34 38 43 34 38 44 36 39 45 37 39 44 37 39 43 38 40 44 
38 39 43 37 38 42 38 37 44 38 37 44 38 37 44 38 37 44 38 37 44 38 37 44 
38 37 44 38 37 44 38 37 44 38 37 44 38 39 43 37 39 43 36 39 42 35 39 44 
35 39 44 35 39 44 35 39 44 35 39 44 35 39 44 35 39 44 35 39 44 35 39 44 
35 40 45 36 40 45 38 41 45 39 41 45 39 41 45 39 41 45 39 41 45 39 41 45 
39 41 45 39 41 45 39 41 45 39 41 45 39 41 45 39 41 45 39 41 45 39 41 45 
39 41 45 39 41 45 39 41 45 39 41 45 39 41 45 39 41 45 39 41 45 39 41 45 
39 41 45 39 41 45 39 41 45 39 41 45 39 41 45 39 41 45 39 41 45 39 41 45 
39 41 45 39 41 45 39 41 45 39 41 45 39 41 46 38 41 47 38 41 47 38 41 47 
38 41 47 38 41 47 38 41 47 38 41 47 38 41 47 38 41 47 38 41 47 38 42 47 
38 42 47 38 42 47 38 42 47 40 42 46 40 42 46 40 42 46 40 42 46 40 42 46 
40 42 46 40 42 46 40 42 46 38 42 47 
39 41 45 39 41 45 38 39 43 38 39 43 39 41 45 39 41 45 38 40 44 39 41 45 
39 41 45 39 41 45 39 40 44 39 41 45 39 41 45 39 41 45 39 41 45 39 41 45 
39 41 45 39 41 45 39 41 45 39 41 45 39 41 45 39 41 45 39 41 45 39 41 45 
39 41 45 39 41 45 39 41 45 39 41 45 39 41 45 39 41 45 39 41 45 39 41 45 
39 41 45 39 41 45 39 41 45 39 41 45 39 41 45 39 41 45 39 41 45 39 41 45 
39 41 45 39 41 45 39 41 45 39 41 45 39 41 45 39 41 45 39 41 45 39 41 45 
39 41 45 39 41 45 39 41 45 39 41 45 39 41 45 39 41 45 38 40 44 38 40 44 
38 39 43 39 41 45 39 41 45 39 41 45 38 40 44 39 41 45 39 41 45 39 41 45 
39 41 45 39 41 45 39 41 45 39 41 45 39 41 45 39 41 45 39 41 45 39 41 45 
38 41 45 38 41 45 37 41 45 36 40 46 36 40 46 36 40 46 36 40 46 36 40 46 
36 40 46 36 40 46 36 40 46 36 40 46 37 40 46 35 39 45 35 39 45 36 35 45 
22 23 35 60 64 71 155 184 190 147 176 189 147 182 191 175 197 204 230 239 249 245 247 252 
238 246 252 232 247 250 218 232 236 213 225 229 213 225 229 209 224 225 224 236 239 238 246 252 
238 246 252 245 247 252 209 224 232 147 180 183 147 182 191 155 184 190 137 160 165 60 64 71 
35 35 40 35 34 39 60 64 71 184 200 204 219 232 232 214 230 229 215 230 230 214 230 229 
215 230 230 214 230 229 210 230 230 210 230 230 210 230 230 214 231 232 214 232 236 193 212 222 
155 184 190 147 176 186 147 176 186 155 184 190 227 220 211 240 224 218 240 224 218 240 224 218 
220 204 201 211 189 184 211 189 184 211 189 184 173 188 188 153 177 190 147 176 189 147 176 189 
175 197 204 210 230 230 219 232 232 214 231 232 216 230 230 214 230 229 214 230 229 216 230 230 
215 230 228 227 220 211 238 222 213 238 222 213 235 220 211 220 204 201 211 189 184 211 189 184 
211 189 184 173 188 188 155 184 190 147 182 191 147 176 186 155 184 190 210 230 230 219 232 232 
218 230 232 218 230 232 214 231 232 214 230 229 210 230 230 210 230 230 214 230 229 210 230 230 
210 230 230 210 230 230 214 230 229 214 230 229 214 230 229 214 231 232 184 200 204 41 46 52 
34 32 40 32 33 43 60 64 71 137 160 165 155 184 190 153 177 190 155 184 190 209 224 232 
238 246 252 238 246 252 238 246 252 224 236 239 213 225 229 213 225 229 213 225 229 220 231 236 
232 247 250 238 246 252 238 246 252 224 236 239 175 197 204 153 177 190 147 181 186 147 181 186 
57 90 110 26 31 37 32 35 41 33 37 43 36 39 45 38 41 46 38 40 44 38 39 44 
37 38 43 37 38 43 38 37 44 38 37 44 38 37 44 38 37 44 38 37 44 38 37 44 
38 37 44 38 37 44 38 37 44 38 37 44 37 38 42 37 38 42 36 39 42 35 39 45 
35 39 44 35 39 44 35 39 44 35 39 44 35 39 44 35 39 44 35 39 44 35 39 44 
35 39 44 38 41 46 39 42 45 39 41 45 39 41 45 39 41 46 39 41 45 39 41 46 
40 42 46 39 41 46 39 41 46 39 41 46 39 41 46 39 41 45 39 41 45 39 41 45 
39 41 45 39 41 45 39 41 45 39 41 45 39 41 45 39 41 45 39 41 45 39 41 45 
39 41 45 39 41 45 39 41 45 39 41 45 39 41 45 39 41 45 39 41 45 39 41 45 
39 41 45 39 41 45 39 41 46 39 41 46 39 41 46 38 41 47 38 41 47 38 41 47 
38 41 47 38 41 47 38 41 47 38 41 47 38 41 47 38 41 47 38 41 47 38 42 47 
38 42 47 38 42 47 40 42 46 40 42 46 40 42 46 40 42 46 40 42 46 40 42 46 
40 42 46 40 42 46 40 42 46 38 42 47 
39 41 45 39 41 45 38 40 44 39 40 44 39 40 44 39 41 45 39 41 45 39 41 45 
39 41 45 39 41 45 39 41 45 39 41 45 39 41 45 39 41 45 39 41 45 39 41 45 
39 41 45 39 41 45 39 41 45 39 41 45 39 41 45 39 41 45 39 41 45 39 41 45 
39 41 45 39 41 45 39 41 45 39 41 45 39 41 45 39 41 45 39 41 45 39 41 45 
39 41 45 39 41 45 39 41 45 39 41 45 39 41 45 39 41 45 39 41 45 39 41 45 
39 41 45 39 41 45 39 41 45 39 41 45 39 41 45 39 41 45 39 41 45 39 41 45 
39 41 45 39 41 45 39 41 45 39 41 45 39 41 45 39 41 45 38 40 44 38 39 43 
38 39 43 39 41 45 39 41 45 39 41 45 37 39 43 38 40 44 39 42 45 39 41 45 
39 41 45 39 41 45 39 41 45 39 41 45 39 41 45 39 41 45 39 41 45 38 41 45 
37 40 46 37 40 46 36 40 46 36 40 46 36 40 46 36 40 46 36 40 46 36 40 46 
36 40 46 36 40 46 36 40 46 37 40 46 37 40 46 41 46 52 41 46 52 59 51 57 
41 46 52 57 90 110 155 184 190 147 182 191 147 182 191 175 197 204 224 236 239 238 246 252 
238 246 252 232 247 250 220 231 236 215 230 230 215 230 230 213 225 229 224 236 239 232 247 250 
232 247 250 238 246 252 209 224 232 147 176 186 147 182 191 155 184 190 137 160 165 60 64 71 
35 35 40 36 34 38 60 64 71 184 200 204 214 231 232 210 230 230 214 230 229 214 230 229 
215 230 230 214 230 229 210 230 230 210 230 230 210 230 230 210 230 230 210 230 230 193 211 218 
155 184 190 153 177 190 153 177 190 170 178 190 227 220 211 240 224 218 238 222 213 240 224 218 
220 204 201 211 189 184 211 189 184 211 189 184 173 188 188 155 184 190 153 177 190 153 177 190 
175 197 204 209 224 225 214 231 232 210 230 230 213 225 229 215 230 230 218 230 232 216 230 230 
215 230 228 227 220 211 237 221 211 235 220 211 235 220 211 220 204 201 211 189 184 211 189 184 
211 189 184 173 188 188 170 178 190 153 177 190 153 177 190 173 188 188 209 224 225 210 230 230 
213 225 229 213 225 229 210 230 230 214 230 229 210 230 230 210 230 230 214 230 229 214 231 232 
214 231 232 214 231 232 215 230 230 214 230 229 214 230 229 214 231 232 184 200 204 41 46 52 
32 34 39 32 33 43 60 64 71 137 160 165 155 184 190 153 177 190 153 177 190 209 224 232 
232 247 250 238 246 252 232 247 250 230 239 249 215 230 230 216 230 230 218 230 232 220 231 236 
230 239 249 232 247 250 238 246 252 224 236 239 175 197 204 153 177 190 147 182 191 155 184 190 
57 90 110 41 46 52 59 51 57 59 51 57 41 46 52 35 39 45 37 38 43 38 37 44 
38 37 44 38 37 44 38 37 44 38 37 44 38 37 44 38 37 44 38 37 44 38 37 44 
38 37 44 38 38 41 38 38 41 38 38 41 37 38 42 37 38 42 36 39 42 35 39 44 
35 39 44 35 39 44 35 39 44 35 39 44 35 39 44 35 39 44 35 39 44 35 39 44 
35 39 45 38 41 46 39 41 45 39 41 45 39 41 46 38 41 47 38 41 47 38 41 47 
38 41 47 38 41 47 38 41 47 38 41 47 38 41 47 39 41 46 39 41 45 39 41 45 
39 41 45 39 41 45 39 41 45 39 41 45 39 41 45 39 41 45 39 41 45 39 41 45 
39 41 45 39 41 45 39 41 45 39 41 45 39 41 45 39 41 45 39 41 45 39 41 45 
39 41 45 39 42 45 38 41 47 38 41 47 38 41 47 38 42 47 38 41 47 38 41 47 
38 41 47 38 41 47 38 42 47 38 42 47 38 41 47 38 41 47 38 41 47 38 42 47 
40 42 46 40 42 46 40 42 46 40 42 46 40 42 46 40 42 46 40 42 46 40 42 46 
38 42 47 38 42 47 38 42 47 38 42 47 
39 41 45 38 40 44 38 40 44 39 40 44 38 40 44 38 40 44 39 41 45 39 41 45 
39 41 45 39 41 45 39 41 45 39 41 45 39 41 45 39 41 45 39 41 45 39 41 45 
39 41 45 39 41 45 39 41 45 39 41 45 39 41 45 39 41 45 39 40 44 39 40 44 
39 41 45 39 41 45 39 41 45 39 40 44 39 40 44 39 41 45 39 41 45 39 41 45 
39 41 45 39 41 45 39 41 45 39 41 45 39 41 45 39 41 45 39 41 45 39 41 45 
39 41 45 39 41 45 39 41 45 39 41 45 39 41 45 39 41 45 39 41 45 39 41 45 
39 41 45 39 41 45 39 41 45 39 41 45 39 41 45 39 41 45 39 41 45 38 40 44 
38 40 44 39 41 45 39 41 45 39 41 45 38 40 44 39 41 45 39 41 45 39 41 45 
39 41 45 39 41 45 39 41 45 39 41 45 39 41 45 39 41 45 39 41 45 38 41 45 
36 40 46 36 40 46 36 40 46 36 40 46 36 40 46 36 40 46 36 40 46 36 40 46 
36 40 46 36 40 46 36 40 46 36 39 46 34 38 48 97 113 122 137 160 165 137 160 165 
137 160 165 137 160 165 184 206 218 175 197 204 175 197 204 184 206 218 209 224 232 214 231 232 
210 230 230 218 230 232 224 236 239 230 239 249 230 239 249 230 239 249 218 232 236 209 224 232 
209 224 232 214 232 236 191 208 219 147 176 189 147 182 191 155 184 190 137 160 165 60 64 71 
35 35 40 36 34 38 60 64 71 184 200 204 214 231 232 210 230 230 214 230 229 214 230 229 
215 230 230 215 230 230 214 231 232 196 218 223 184 200 204 175 197 204 175 197 204 175 197 204 
173 188 188 173 188 188 173 188 188 198 197 196 227 220 211 238 222 213 238 222 213 238 222 213 
227 220 211 220 204 201 220 204 201 220 204 201 198 197 196 173 188 188 173 188 188 173 188 188 
184 200 204 184 200 204 184 200 204 175 197 204 184 200 204 214 230 229 219 230 232 216 230 230 
215 230 228 227 220 211 237 221 211 237 221 211 238 222 213 235 220 211 220 204 201 220 204 201 
220 204 201 211 189 184 173 188 188 173 188 188 173 188 188 173 188 188 175 197 204 175 197 204 
175 197 204 184 200 204 204 220 224 214 231 232 214 230 229 214 230 229 224 236 239 230 239 249 
230 239 249 230 239 249 224 236 239 214 230 229 214 230 229 218 230 232 184 200 204 41 46 52 
31 33 37 32 35 41 60 64 71 137 160 165 155 184 190 147 182 191 147 182 191 191 212 218 
209 224 232 214 231 232 209 224 232 218 232 236 230 239 249 224 236 239 230 239 249 224 236 239 
209 224 232 209 224 232 209 224 232 204 220 224 184 206 218 175 197 204 175 197 204 175 197 204 
137 160 165 137 160 165 137 160 165 137 160 165 57 90 110 32 35 41 36 37 42 38 37 44 
38 37 44 38 37 44 38 37 44 38 37 44 38 37 44 38 37 44 38 37 44 38 37 44 
38 37 44 39 39 42 39 39 42 39 40 44 38 40 44 37 39 43 36 39 44 35 39 44 
35 39 44 35 39 44 35 39 44 35 39 44 35 39 44 35 39 44 35 39 44 35 39 44 
35 39 45 37 41 46 39 41 45 39 41 45 39 41 46 38 41 47 38 41 47 38 41 47 
38 41 47 37 41 46 38 41 47 38 41 47 38 41 47 39 41 46 39 41 45 39 41 45 
39 41 45 39 41 45 39 41 45 39 41 45 39 41 45 39 41 45 39 41 45 39 41 45 
39 41 45 39 41 45 39 41 45 39 41 45 39 41 45 39 41 45 39 41 45 39 41 45 
39 41 45 39 41 46 38 41 47 38 41 47 38 41 47 38 41 47 38 41 47 38 41 47 
38 41 47 38 41 47 38 41 47 38 42 47 38 41 47 38 41 47 38 42 47 38 42 47 
40 42 46 40 42 46 40 42 46 40 42 46 40 42 46 40 42 46 40 42 46 40 42 46 
38 42 47 38 42 47 38 42 47 38 42 47 
39 41 45 39 41 45 39 41 45 38 40 44 38 40 44 38 40 44 39 41 45 39 41 45 
39 41 45 39 41 45 39 41 45 39 41 45 39 41 45 39 41 45 39 41 45 39 41 45 
39 41 45 39 41 45 39 41 45 39 41 45 39 41 45 39 41 45 38 40 44 39 40 44 
39 41 45 39 41 45 39 41 45 39 40 44 39 40 44 39 40 44 39 41 45 39 41 45 
39 41 45 39 41 45 39 41 45 39 41 45 39 41 45 39 41 45 39 41 45 39 41 45 
39 41 45 39 41 45 39 41 45 39 41 45 39 41 45 39 41 45 39 41 45 39 41 45 
39 41 45 39 41 45 39 41 45 39 41 45 39 41 45 39 41 45 39 41 45 39 41 45 
39 41 45 39 41 45 39 41 45 39 41 45 39 41 45 39 41 45 39 41 45 39 41 45 
39 41 45 39 41 45 39 41 45 39 41 45 39 41 45 39 41 45 39 41 45 38 41 45 
36 40 46 36 40 46 36 40 46 36 40 46 36 40 46 36 40 46 36 40 46 36 40 46 
36 40 46 36 40 46 37 40 46 36 39 46 34 38 48 97 113 122 155 184 190 155 184 190 
155 184 190 175 197 204 196 218 223 193 212 222 193 212 222 191 212 218 191 212 218 191 212 218 
191 212 218 204 220 224 230 239 249 238 246 252 238 246 252 238 246 252 213 225 229 193 211 218 
193 212 222 193 212 222 175 197 204 147 176 189 147 182 191 155 184 190 137 160 165 60 64 71 
36 35 42 36 34 38 60 64 71 184 200 204 216 230 230 210 230 230 214 230 229 214 230 229 
215 230 230 215 230 230 214 231 232 191 212 218 147 176 186 147 180 183 147 180 183 170 178 190 
211 189 184 211 189 184 211 189 184 211 189 184 227 220 211 237 221 211 237 221 211 238 224 211 
240 224 218 238 224 211 238 222 213 238 220 208 220 204 201 211 189 184 211 189 184 211 189 184 
173 188 188 153 177 190 147 176 186 147 176 186 155 184 190 214 230 229 218 230 232 216 230 230 
215 230 228 227 220 211 238 222 213 238 222 213 238 222 213 240 224 218 240 224 218 238 222 213 
238 222 213 220 204 201 211 189 184 211 189 184 211 189 184 211 189 184 147 176 186 147 176 186 
147 180 183 155 184 190 196 218 223 218 232 236 214 230 229 216 230 230 230 239 249 238 246 252 
245 247 252 245 247 252 230 239 249 215 230 228 216 230 230 215 230 230 184 200 204 41 46 52 
33 35 40 32 34 39 60 64 71 137 160 165 155 184 190 147 182 191 147 182 191 175 197 204 
191 213 222 193 212 222 191 208 219 214 231 232 238 246 252 238 246 252 238 246 252 230 239 249 
198 211 221 191 208 219 191 208 219 191 208 219 191 212 218 191 208 219 191 212 218 191 213 222 
175 197 204 155 184 190 155 184 190 155 184 190 97 113 122 26 31 37 36 37 42 38 37 44 
38 37 44 38 37 44 38 37 44 38 37 44 38 37 44 38 37 44 38 37 44 38 37 44 
38 37 44 38 37 44 39 40 44 39 40 44 39 40 44 37 40 45 35 40 45 35 39 45 
35 39 44 36 39 44 36 40 44 36 40 44 35 39 44 35 39 44 35 39 44 36 39 44 
36 40 44 38 41 45 39 41 45 39 41 45 39 41 46 38 41 47 38 41 47 38 41 47 
38 41 47 37 41 46 38 41 47 38 41 47 38 41 47 38 41 46 38 41 45 39 42 45 
39 42 45 39 42 45 39 41 45 39 41 46 39 41 46 39 41 46 39 41 46 38 41 46 
38 41 46 39 41 46 39 41 46 39 41 46 39 41 46 39 41 46 39 41 45 39 41 45 
39 41 45 39 41 45 39 41 46 39 41 46 38 41 47 38 41 47 38 41 47 38 41 47 
38 41 47 38 41 47 38 41 47 39 41 46 38 42 47 40 42 46 40 42 46 40 42 46 
40 42 46 40 42 46 40 42 46 39 42 45 39 42 45 40 42 46 40 42 46 40 42 46 
40 42 46 40 42 46 40 42 46 38 42 47 
38 40 44 39 41 45 39 40 44 38 40 44 38 40 44 39 41 45 39 41 45 39 41 45 
39 41 45 39 41 45 39 41 45 39 41 45 39 41 45 39 41 45 39 41 45 39 41 45 
39 41 45 39 41 45 39 41 45 39 41 45 39 41 45 38 40 44 38 40 44 39 41 45 
39 41 45 39 41 45 39 41 45 39 41 45 39 41 45 39 41 45 39 41 45 39 41 45 
39 41 45 39 41 45 39 41 45 39 41 45 39 41 45 39 41 45 39 41 45 39 41 45 
39 41 45 39 41 45 39 41 45 39 41 45 38 40 44 38 40 44 39 41 45 39 41 45 
39 41 45 39 41 45 39 41 45 39 41 45 39 41 45 39 41 45 39 41 45 39 41 45 
39 41 45 39 41 45 39 41 45 39 41 45 39 41 45 39 41 45 39 41 45 39 41 45 
39 41 45 39 41 45 39 41 45 39 41 45 39 41 45 39 41 45 39 41 45 38 41 45 
36 40 46 36 40 46 36 40 46 36 40 46 36 40 46 36 40 46 36 40 46 36 40 46 
36 40 46 36 40 46 37 41 46 38 38 46 34 38 48 97 113 122 147 181 186 153 177 190 
147 176 186 161 189 201 191 213 222 193 212 222 193 211 218 191 212 218 193 211 218 191 212 218 
193 211 218 204 220 224 230 239 249 245 247 252 238 246 252 238 246 252 213 225 229 193 212 222 
193 212 222 193 212 222 175 197 204 147 176 189 147 182 191 155 184 190 137 160 165 60 64 71 
36 35 42 36 35 39 60 64 71 184 200 204 216 230 230 210 230 230 214 230 229 215 230 230 
215 230 230 215 230 230 216 230 230 191 212 218 147 181 186 147 181 186 147 181 186 170 178 190 
211 189 184 211 189 184 211 189 184 211 189 184 235 220 211 238 224 211 237 221 211 237 221 211 
238 224 211 238 224 211 238 222 213 238 222 213 220 204 201 211 189 184 211 189 184 211 189 184 
173 188 188 155 184 190 147 182 191 147 182 191 155 184 190 209 224 225 214 230 229 216 230 230 
215 230 228 227 220 211 238 222 213 238 222 213 238 224 211 238 222 213 238 222 213 238 224 211 
238 224 211 220 204 201 211 189 184 211 189 184 211 189 184 211 189 184 153 177 190 147 181 186 
147 181 186 155 184 190 196 218 223 214 232 236 214 231 232 214 231 232 230 239 249 238 246 252 
238 246 252 245 247 252 230 239 249 213 225 229 213 225 229 214 231 232 184 200 204 41 46 52 
33 36 42 32 35 42 60 64 71 137 160 165 155 184 190 147 181 186 147 182 191 175 197 204 
191 213 222 193 212 222 193 212 222 214 231 232 238 246 252 238 246 252 238 246 252 230 239 249 
198 211 221 191 208 219 191 208 219 191 208 219 191 208 219 191 208 219 191 212 218 191 213 222 
161 189 201 147 176 186 147 182 191 147 182 191 97 113 122 32 33 43 37 37 42 37 38 43 
38 37 44 38 37 44 38 37 44 38 37 44 38 37 44 38 37 44 38 37 44 38 37 44 
38 37 44 38 36 44 39 39 42 41 40 45 39 40 44 36 39 46 35 39 45 36 39 44 
36 39 44 37 40 44 38 40 44 37 40 44 35 39 44 35 39 44 35 39 44 37 40 44 
38 40 44 39 41 45 39 41 45 39 41 45 39 41 46 38 41 47 38 41 47 38 41 47 
38 41 47 38 41 47 38 41 47 38 41 47 38 41 47 37 40 45 36 40 44 38 42 45 
38 42 45 38 42 45 38 42 45 38 41 46 38 41 47 38 41 47 37 41 46 37 40 46 
37 40 46 38 41 46 38 41 47 38 41 47 38 42 47 38 41 47 38 41 46 39 41 45 
39 41 45 39 41 45 39 41 45 39 41 45 39 41 46 38 41 47 38 41 47 38 42 47 
38 41 47 38 41 47 39 41 46 39 41 45 40 42 46 40 42 46 40 42 46 40 42 46 
40 42 46 40 42 46 40 42 46 38 42 47 38 42 47 40 42 46 40 42 46 40 42 46 
40 42 46 40 42 46 40 42 46 39 42 45 
39 41 45 39 41 45 38 39 43 38 40 44 38 40 44 39 41 45 39 41 45 39 41 45 
39 41 45 39 41 45 39 41 45 39 41 45 39 41 45 39 41 45 39 41 45 38 40 44 
38 40 44 39 41 45 39 41 45 39 41 45 39 41 45 39 41 45 38 40 44 39 41 45 
39 41 45 39 41 45 39 41 45 39 41 45 39 41 45 39 41 45 39 41 45 39 41 45 
39 41 45 39 41 45 39 41 45 39 41 45 39 41 45 39 41 45 39 41 45 39 41 45 
39 41 45 39 41 45 39 41 45 39 41 45 39 41 45 39 41 45 39 41 45 39 41 45 
39 41 45 39 41 45 39 41 45 39 41 45 39 41 45 39 41 45 39 41 45 39 41 45 
39 41 45 39 41 45 39 41 45 38 40 44 39 41 45 39 41 45 39 41 45 39 41 45 
39 41 45 39 41 45 39 41 45 39 41 45 39 41 45 39 41 45 39 41 45 38 41 45 
36 40 46 36 40 46 36 40 46 36 40 46 36 40 46 36 40 46 36 40 46 36 40 46 
36 40 46 36 40 46 36 40 46 36 39 46 35 36 48 97 113 122 147 181 186 147 181 186 
147 176 186 161 189 201 191 213 222 191 213 222 193 212 222 193 212 222 193 212 222 193 212 222 
193 211 218 196 218 223 230 239 249 245 247 252 238 246 252 238 246 252 209 224 232 193 212 222 
193 212 222 193 212 222 175 197 204 147 176 189 147 182 191 155 184 190 137 160 165 60 64 71 
36 35 42 36 35 39 60 64 71 184 200 204 214 231 232 210 230 230 214 230 229 215 230 230 
215 230 230 216 230 230 218 230 232 191 212 218 147 181 186 147 181 186 155 184 190 170 178 190 
211 189 184 211 189 184 211 189 184 211 189 184 235 220 211 238 224 211 237 221 211 235 220 211 
238 224 211 240 224 218 240 224 218 240 224 218 220 204 201 211 189 184 211 189 184 211 189 184 
173 188 188 153 177 190 147 181 186 147 180 183 155 184 190 209 224 232 214 232 236 218 232 236 
217 232 230 227 220 211 238 222 213 237 221 211 235 220 211 240 224 218 240 224 218 240 224 218 
240 224 218 220 204 201 211 189 184 211 189 184 211 189 184 211 189 184 155 184 190 147 181 186 
147 176 186 153 177 190 193 211 218 220 237 237 214 232 236 214 232 236 230 239 249 238 246 252 
238 246 252 245 247 252 230 239 249 213 225 229 210 230 230 214 231 232 184 200 204 41 46 52 
33 36 42 32 35 42 60 64 71 137 160 165 155 184 190 147 181 186 147 181 186 175 197 204 
193 212 222 193 212 222 191 208 219 209 224 232 238 246 252 238 246 252 238 246 252 230 239 249 
193 212 222 191 212 218 193 212 222 193 212 222 193 212 222 193 212 222 193 212 222 191 213 222 
161 189 201 147 176 189 147 182 191 147 182 191 97 113 122 32 33 43 37 38 43 37 38 42 
38 37 44 38 37 44 38 37 44 38 37 44 38 37 44 38 37 44 38 37 44 38 37 44 
37 36 43 38 38 44 39 39 42 39 39 42 38 39 44 36 39 46 37 37 44 38 38 44 
38 38 44 38 39 44 38 40 44 37 40 44 36 39 44 35 39 44 36 39 44 38 40 44 
39 41 45 39 41 45 38 40 44 39 41 45 39 41 46 38 41 47 38 41 47 38 41 47 
38 41 47 38 41 47 38 41 47 38 41 47 38 41 47 37 41 46 37 41 45 38 42 45 
38 42 45 38 42 45 38 42 45 37 41 46 37 40 46 37 40 46 36 40 45 36 40 46 
36 40 46 37 40 46 37 40 46 38 41 47 38 41 47 38 41 47 38 41 46 39 41 45 
39 41 45 39 41 45 39 41 45 39 41 45 39 41 46 38 41 47 38 41 47 38 42 47 
38 41 47 38 41 47 39 41 45 39 41 45 40 42 46 40 42 46 40 42 46 40 42 46 
40 42 46 40 42 46 38 42 47 38 41 47 38 41 47 38 42 47 40 42 46 40 42 46 
40 42 46 40 42 46 40 42 46 39 42 45 
38 40 44 39 41 45 38 40 44 38 40 44 39 41 45 39 41 45 39 41 45 39 41 45 
39 41 45 39 41 45 39 41 45 39 41 45 39 41 45 39 41 45 39 41 45 38 40 44 
39 41 45 39 41 45 39 41 45 39 41 45 39 41 45 39 41 45 39 41 45 39 41 45 
39 41 45 39 41 45 39 41 45 39 41 45 39 41 45 39 41 45 39 41 45 39 41 45 
39 41 45 39 41 45 39 41 45 39 41 45 39 41 45 39 41 45 39 41 45 39 41 45 
39 41 45 39 41 45 39 41 45 39 41 45 39 41 45 39 41 45 39 41 45 39 41 45 
39 41 45 39 41 45 39 41 45 39 41 45 39 41 45 39 41 45 39 41 45 39 41 45 
39 41 45 39 41 45 39 40 44 37 38 42 39 41 45 39 41 45 39 41 45 39 41 45 
39 41 45 39 41 45 39 41 45 39 41 45 39 41 45 39 41 45 39 41 45 38 41 45 
36 40 46 36 40 46 36 40 46 36 40 46 36 40 46 36 40 46 36 40 46 36 40 46 
36 40 46 36 40 46 36 40 46 36 39 46 34 38 48 97 113 122 147 181 186 147 181 186 
147 176 186 161 189 201 191 213 222 191 213 222 193 212 222 193 212 222 191 213 222 193 212 222 
193 212 222 196 218 223 209 224 232 218 232 236 220 231 236 220 231 236 204 220 224 193 212 222 
193 212 222 193 212 222 175 197 204 147 176 189 147 182 191 155 184 190 137 160 165 60 64 71 
36 35 39 36 34 38 60 64 71 184 200 204 217 232 230 214 230 229 214 230 229 214 231 232 
214 231 232 215 230 230 216 230 230 191 212 218 147 181 186 147 181 186 147 181 186 173 188 188 
220 204 201 220 204 201 220 204 201 220 204 201 235 220 211 238 224 211 238 224 211 240 224 218 
171 159 166 167 125 126 171 159 166 171 159 166 171 159 166 220 204 201 220 204 201 220 204 201 
211 189 184 173 188 188 170 178 190 173 188 188 173 188 188 184 206 218 191 212 218 191 212 218 
193 211 218 227 220 211 240 224 218 238 222 213 237 221 211 211 189 184 171 159 166 171 159 166 
167 125 126 171 159 166 220 204 201 220 204 201 220 204 201 220 204 201 173 188 188 170 178 190 
170 178 190 173 188 188 184 200 204 191 212 218 184 206 218 184 206 218 209 224 232 224 236 239 
230 239 249 230 239 249 224 236 239 213 225 229 210 230 230 214 231 232 184 200 204 41 46 52 
33 37 42 33 36 42 60 64 71 137 160 165 155 184 190 147 181 186 147 181 186 175 197 204 
193 212 222 193 212 222 191 208 219 204 220 224 218 232 236 218 232 236 214 232 236 209 224 232 
193 212 222 193 212 222 193 212 222 193 212 222 193 212 222 193 212 222 193 212 222 191 213 222 
161 189 201 147 176 189 147 182 191 155 184 190 97 113 122 32 29 37 37 39 44 38 39 43 
38 38 44 38 37 44 38 37 44 38 37 44 38 37 44 37 36 43 38 37 44 38 36 44 
37 36 43 39 39 42 41 40 45 39 40 44 38 39 44 37 40 45 36 39 45 38 38 44 
38 38 44 38 38 44 38 39 44 36 39 44 35 39 44 35 40 43 36 40 45 37 40 44 
37 40 44 37 40 44 38 40 44 39 41 45 39 41 46 38 41 47 38 41 47 38 41 47 
39 41 46 39 41 46 38 41 46 37 40 46 38 41 47 37 41 46 37 41 46 38 41 46 
38 41 46 38 41 46 38 41 46 37 40 46 36 40 46 36 40 46 36 40 45 36 40 45 
37 40 46 37 40 46 37 41 46 38 41 47 38 41 47 38 41 47 38 41 46 39 41 45 
39 41 45 39 41 45 39 41 45 39 41 45 39 41 46 39 41 46 39 41 46 38 41 47 
38 42 47 38 42 47 40 42 46 40 42 46 40 42 46 40 42 46 40 42 46 40 42 46 
40 42 46 40 42 46 40 42 46 39 40 47 39 40 47 38 42 47 40 42 46 40 42 46 
40 42 46 40 42 46 40 42 46 40 42 46 
38 40 44 39 41 45 39 41 45 39 41 45 39 40 44 39 41 45 39 41 45 39 41 45 
39 41 45 39 41 45 38 40 44 39 41 45 39 41 45 39 41 45 39 41 45 39 41 45 
39 41 45 39 41 45 39 41 45 39 41 45 39 41 45 39 41 45 39 41 45 39 41 45 
39 41 45 39 41 45 39 41 45 39 41 45 39 41 45 39 41 45 39 41 45 39 41 45 
39 41 45 39 41 45 39 41 45 39 41 45 39 41 45 39 41 45 39 41 45 39 41 45 
39 41 45 39 41 45 39 41 45 39 41 45 39 41 45 39 41 45 39 41 45 39 41 45 
39 41 45 39 41 45 39 41 45 39 41 45 39 41 45 39 41 45 39 41 45 39 41 45 
39 41 45 39 41 45 39 40 44 37 38 42 39 41 45 39 41 45 39 41 45 39 41 45 
39 41 45 39 41 45 39 41 45 39 41 45 39 41 45 39 41 45 39 41 45 38 41 45 
36 40 46 36 40 46 36 40 46 36 40 46 36 40 46 36 40 46 36 40 46 36 40 46 
36 40 46 36 40 46 36 40 46 36 39 46 34 36 45 97 113 122 147 181 186 147 182 191 
147 181 186 161 189 201 191 213 222 191 212 218 193 212 222 191 213 222 191 213 222 193 212 222 
193 212 222 193 212 222 193 212 222 193 212 222 198 211 221 198 211 221 193 212 222 193 212 222 
191 213 222 191 213 222 184 206 218 147 176 189 147 182 191 155 184 190 137 160 165 60 64 71 
36 35 39 36 34 38 60 64 71 184 200 204 215 230 230 214 230 229 210 230 230 210 230 230 
210 230 230 214 230 229 216 230 230 193 211 218 147 181 186 147 181 186 147 180 183 173 188 188 
227 220 211 237 221 211 238 220 208 235 220 211 235 220 211 237 221 211 238 224 211 237 236 231 
128 108 115 40 35 41 41 46 52 59 51 57 171 159 166 240 224 218 240 224 218 238 224 211 
220 204 201 211 189 184 211 189 184 211 189 184 198 197 196 170 178 190 155 184 190 155 184 190 
155 184 190 220 204 201 240 224 218 240 224 218 235 220 211 171 159 166 59 51 57 41 46 52 
48 36 44 167 125 126 240 224 218 240 224 218 238 222 213 235 220 211 211 189 184 211 189 184 
211 189 184 198 197 196 170 178 190 153 177 190 147 181 186 153 177 190 193 211 218 218 230 232 
218 230 232 215 230 230 214 230 229 210 230 230 210 230 230 214 231 232 184 200 204 41 46 52 
30 37 41 33 36 42 60 64 71 137 160 165 155 184 190 147 181 186 147 181 186 175 197 204 
193 212 222 193 212 222 193 212 222 193 212 222 193 212 222 198 211 221 193 212 222 193 212 222 
193 212 222 193 212 222 193 212 222 193 212 222 191 208 219 191 212 218 191 212 218 191 208 219 
161 189 201 147 182 191 147 182 191 155 184 190 97 113 122 26 31 37 37 37 44 39 40 44 
38 39 44 38 37 44 38 37 44 38 37 44 38 37 44 38 37 44 38 37 44 37 36 43 
37 37 42 39 39 42 41 40 45 42 38 45 39 40 46 36 39 45 35 40 45 37 39 44 
38 38 44 37 38 43 37 39 44 35 39 44 35 39 44 36 40 45 37 41 46 37 41 46 
35 39 44 36 39 45 38 40 44 39 41 45 39 41 46 38 41 47 38 41 47 39 41 46 
39 41 45 39 41 45 38 40 45 36 40 46 38 41 47 36 40 46 36 40 46 38 41 47 
38 41 47 38 41 47 38 41 47 37 40 46 36 40 46 36 40 46 36 40 45 37 41 46 
38 41 47 38 41 47 38 41 47 38 41 47 38 41 47 38 41 47 38 41 46 39 41 45 
39 41 45 39 41 45 39 41 45 39 41 45 39 41 45 39 41 45 39 41 45 38 41 46 
38 42 47 38 42 47 40 42 46 40 42 46 40 42 46 40 42 46 40 42 46 40 42 46 
40 42 46 40 42 46 40 42 46 38 40 49 38 40 49 38 42 47 40 42 46 40 42 46 
40 42 46 40 42 46 40 42 46 40 42 46 
38 40 44 38 40 44 39 41 45 38 40 44 38 40 44 39 41 45 39 41 45 39 41 45 
39 41 45 39 41 45 38 40 44 38 40 44 39 41 45 39 41 45 39 41 45 39 41 45 
39 41 45 39 41 45 39 41 45 39 41 45 39 41 45 39 41 45 39 41 45 39 41 45 
38 40 44 38 40 44 39 41 45 39 41 45 39 41 45 39 41 45 39 41 45 39 41 45 
39 41 45 39 41 45 39 41 45 39 41 45 39 41 45 39 41 45 39 41 45 39 41 45 
39 41 45 39 41 45 39 41 45 39 41 45 39 41 45 39 41 45 39 41 45 39 41 45 
39 41 45 39 41 45 39 41 45 39 41 45 39 41 45 39 41 45 39 41 45 39 41 45 
39 41 45 39 41 45 39 41 45 39 40 44 39 41 45 39 41 45 39 41 45 39 41 45 
39 41 45 39 41 45 38 39 43 38 40 44 39 41 45 39 41 45 39 41 45 38 41 45 
36 40 46 36 40 46 36 40 46 36 40 46 36 40 46 36 40 46 36 40 46 36 40 46 
36 40 46 36 40 46 36 40 46 36 40 46 34 36 45 97 113 122 147 181 186 147 182 191 
147 180 183 175 197 204 214 231 232 209 224 232 209 224 232 209 224 232 193 212 222 191 208 219 
191 212 218 193 212 222 193 212 222 193 212 222 198 211 221 193 212 222 191 213 222 191 213 222 
191 213 222 191 213 222 184 206 218 153 177 190 147 182 191 155 184 190 137 160 165 60 64 71 
36 35 39 36 34 38 60 64 71 184 200 204 215 230 230 214 230 229 210 230 230 210 230 230 
210 230 230 214 230 229 216 230 230 193 211 218 147 182 191 147 181 186 147 180 183 173 188 188 
227 220 211 238 222 213 237 221 211 237 221 211 237 221 211 237 221 211 237 221 211 240 224 218 
128 108 115 31 27 36 37 36 43 41 40 46 167 125 126 238 222 213 238 222 213 238 224 211 
220 204 201 211 189 184 211 189 184 211 189 184 211 189 184 170 178 190 153 177 190 153 177 190 
155 184 190 220 204 201 240 224 218 238 224 211 227 220 211 167 125 126 38 36 44 35 35 43 
31 27 36 128 108 115 238 222 213 238 222 213 237 221 211 238 220 208 211 189 184 211 189 184 
211 189 184 211 189 184 170 178 190 147 176 186 147 176 186 147 181 186 191 212 218 210 230 230 
210 230 230 210 230 230 210 230 230 210 230 230 210 230 230 214 231 232 184 200 204 41 46 52 
30 37 41 32 35 41 60 64 71 137 160 165 155 184 190 147 181 186 147 181 186 175 197 204 
193 212 222 193 211 218 193 212 222 193 212 222 193 212 222 193 212 222 193 212 222 193 212 222 
193 212 222 193 212 222 193 212 222 193 212 222 204 220 224 209 224 232 213 225 229 213 225 229 
161 189 201 147 176 186 147 176 189 155 184 190 97 113 122 26 31 37 37 37 44 37 38 43 
38 37 44 38 37 44 38 37 44 38 37 44 38 37 44 38 37 44 38 37 44 38 37 44 
38 37 44 38 37 44 38 37 44 38 37 44 38 39 44 36 40 45 35 40 45 37 38 43 
38 37 44 37 38 43 37 39 44 35 39 44 35 40 45 37 41 46 37 40 46 35 39 45 
35 39 44 37 41 46 39 41 45 39 41 45 38 41 45 37 40 46 38 41 47 39 41 46 
39 41 45 39 41 45 38 41 46 38 41 47 38 41 47 38 41 47 38 41 47 38 41 47 
38 41 47 38 41 47 38 41 47 38 41 47 38 41 47 38 41 47 38 41 47 38 41 47 
38 41 47 38 41 47 38 41 47 38 41 47 38 41 47 38 41 47 38 41 46 39 41 45 
39 41 45 39 41 45 39 41 45 39 41 45 39 41 45 39 41 45 39 41 45 38 41 46 
38 42 47 38 42 47 40 42 46 40 42 46 40 42 46 40 42 46 40 42 46 40 42 46 
40 42 46 40 42 46 39 41 46 38 40 49 38 40 49 38 42 47 40 42 46 40 42 46 
40 42 46 40 42 46 40 42 46 40 42 46 
39 41 45 39 41 45 38 40 44 38 40 44 38 40 44 38 40 44 39 41 45 39 41 45 
39 41 45 39 41 45 39 41 45 39 41 45 39 41 45 39 41 45 39 41 45 39 41 45 
39 41 45 39 41 45 39 41 45 39 41 45 39 41 45 39 41 45 39 41 45 39 41 45 
38 40 44 39 41 45 39 41 45 39 41 45 39 41 45 39 41 45 39 41 45 39 41 45 
39 41 45 39 41 45 39 41 45 39 41 45 39 41 45 39 41 45 39 41 45 39 41 45 
39 41 45 39 41 45 39 41 45 39 41 45 39 41 45 39 41 45 38 40 45 37 40 46 
38 40 45 39 41 46 39 41 45 39 41 45 38 42 45 38 42 45 39 41 45 39 41 45 
39 41 45 38 40 44 39 41 45 39 41 45 39 41 45 39 41 45 39 41 45 39 41 45 
39 41 45 39 41 45 38 40 44 38 40 44 39 41 45 38 41 46 38 40 45 37 40 46 
36 40 46 36 40 46 36 40 46 36 40 46 36 40 46 36 40 46 36 40 46 36 40 46 
36 40 46 36 40 46 36 40 46 36 40 45 34 38 44 97 113 122 147 181 186 147 182 191 
147 176 186 175 197 204 245 247 252 238 246 252 238 246 252 230 239 249 198 211 221 191 208 219 
191 208 219 193 212 222 193 212 222 193 212 222 193 212 222 193 212 222 191 213 222 191 213 222 
193 212 222 193 212 222 175 197 204 153 177 190 147 182 191 155 184 190 137 160 165 60 64 71 
36 34 38 32 29 37 60 64 71 184 200 204 216 230 230 214 230 229 214 231 232 214 231 232 
210 230 230 214 230 229 216 230 230 193 211 218 147 182 191 147 182 191 147 176 186 173 188 188 
227 220 211 238 224 211 237 221 211 237 221 211 237 221 211 238 224 211 237 221 211 240 224 218 
128 108 115 31 27 36 38 38 44 41 40 46 167 125 126 235 220 211 237 221 211 238 222 213 
227 220 211 211 189 184 211 189 184 211 189 184 211 189 184 170 178 190 153 177 190 153 177 190 
170 178 190 220 204 201 238 222 213 237 221 211 235 220 211 167 125 126 41 40 46 36 39 42 
34 29 33 128 108 115 227 220 211 237 221 211 237 221 211 238 220 208 211 189 184 211 189 184 
211 189 184 211 189 184 170 178 190 147 181 186 147 181 186 147 181 186 191 212 218 210 230 230 
210 230 230 210 230 230 210 230 230 210 230 230 210 230 230 214 231 232 184 200 204 41 46 52 
32 35 42 31 35 39 60 64 71 137 160 165 155 184 190 147 181 186 153 177 190 184 200 204 
198 211 221 193 211 218 193 212 222 193 212 222 193 212 222 193 212 222 193 212 222 193 212 222 
193 212 222 193 212 222 191 212 218 196 218 223 224 236 239 238 246 252 245 247 252 238 246 252 
175 197 204 147 176 186 147 176 189 155 184 190 97 113 122 32 29 37 37 36 43 37 37 42 
38 37 44 38 37 44 38 37 44 38 37 44 38 37 44 38 37 44 38 37 44 38 37 44 
38 37 44 38 37 44 38 37 44 38 37 44 38 39 44 37 40 44 37 40 44 37 39 44 
37 38 43 38 38 44 38 40 44 36 40 44 36 40 45 36 40 45 35 39 44 35 39 44 
35 39 44 36 40 45 39 41 46 39 41 45 39 41 45 38 41 46 39 41 46 39 41 46 
39 41 45 39 41 45 39 41 46 39 41 46 39 41 46 39 41 46 39 41 46 39 41 46 
39 41 46 39 41 46 39 41 46 39 41 46 39 41 46 39 41 46 39 41 46 39 41 46 
39 41 46 39 41 46 39 41 46 39 41 46 39 41 46 39 41 46 39 41 45 39 41 45 
39 41 45 39 41 45 39 41 45 39 41 45 39 41 45 39 41 45 39 41 45 39 41 46 
39 41 46 39 41 46 40 42 46 40 42 46 40 42 46 39 41 45 39 41 45 40 42 46 
40 42 46 40 42 46 39 41 46 38 40 49 38 40 49 39 40 47 39 41 45 39 42 45 
40 42 46 40 42 46 40 42 46 40 42 46 
39 41 45 39 41 45 38 39 43 38 40 44 38 40 44 38 39 43 39 40 44 39 41 45 
39 41 45 39 41 45 39 41 45 39 41 45 39 41 45 39 41 45 39 41 45 39 41 45 
39 41 45 39 41 45 39 41 45 39 41 45 39 41 45 39 41 45 39 41 45 39 41 45 
39 41 45 39 41 45 39 41 45 39 41 45 39 41 45 39 41 45 39 41 45 39 41 45 
39 41 45 39 41 45 39 41 45 39 41 45 39 41 45 39 41 45 39 41 45 39 41 45 
39 41 45 39 41 45 39 41 45 39 41 45 39 41 45 39 41 45 37 40 46 36 40 46 
37 40 45 39 41 46 39 41 45 39 41 45 38 42 45 38 42 45 39 41 45 39 41 45 
39 41 45 38 40 44 39 41 45 39 41 45 39 41 45 38 40 44 37 39 43 39 41 45 
39 41 45 39 41 45 39 41 45 39 41 45 39 41 46 38 41 47 37 40 46 36 40 46 
36 40 46 36 40 46 36 40 46 36 40 46 36 40 46 36 40 46 36 40 46 36 40 46 
36 40 46 36 40 46 36 40 46 37 39 44 34 38 44 97 113 122 153 177 190 155 184 190 
147 176 189 175 197 204 238 246 252 238 246 252 238 246 252 230 239 249 204 220 224 191 208 219 
193 211 218 193 212 222 193 212 222 193 212 222 193 212 222 193 212 222 193 212 222 193 212 222 
193 212 222 193 212 222 184 200 204 153 177 190 147 182 191 155 184 190 137 160 165 60 64 71 
36 34 38 36 34 38 60 64 71 184 200 204 217 232 230 214 230 229 215 230 230 215 230 228 
214 230 229 214 230 229 216 230 230 191 208 219 153 177 190 147 182 191 147 176 186 173 188 188 
227 220 211 238 224 211 237 221 211 237 221 211 235 220 211 237 221 211 238 224 211 240 224 218 
128 108 115 31 27 36 36 37 41 41 40 46 167 125 126 238 222 213 238 224 211 238 222 213 
227 220 211 211 189 184 211 189 184 211 189 184 198 197 196 170 178 190 153 177 190 170 178 190 
170 178 190 220 204 201 238 222 213 238 224 211 235 220 211 171 159 166 41 40 46 37 39 44 
31 27 36 128 108 115 235 220 211 238 222 213 240 224 218 237 221 211 211 189 184 211 189 184 
211 189 184 211 189 184 173 188 188 147 181 186 147 180 183 147 180 183 184 206 218 210 230 230 
210 230 230 210 230 230 210 230 230 210 230 230 210 230 230 214 231 232 184 200 204 41 46 52 
33 33 43 32 34 39 60 64 71 137 160 165 155 184 190 147 181 186 153 177 190 184 200 204 
193 212 222 193 211 218 193 212 222 193 212 222 193 212 222 193 212 222 193 212 222 193 212 222 
193 212 222 193 212 222 191 212 218 196 218 223 230 239 249 238 246 252 238 246 252 238 246 252 
175 197 204 147 176 186 147 181 186 155 184 190 97 113 122 32 29 37 38 37 44 38 38 41 
37 37 42 38 37 44 38 37 44 38 37 44 38 37 44 38 37 44 38 37 44 38 37 44 
38 37 44 38 37 44 38 37 44 37 38 43 38 40 44 38 40 44 38 40 44 38 39 43 
37 38 42 38 39 43 38 40 44 38 40 44 36 40 46 35 39 45 35 39 44 35 39 44 
35 39 44 37 40 46 39 41 45 39 41 45 39 41 45 39 41 45 39 41 45 39 41 45 
39 41 45 39 41 45 39 41 45 39 41 45 39 41 45 39 41 45 39 41 45 39 41 45 
39 41 45 39 41 45 39 41 45 39 41 45 39 41 45 39 41 45 39 41 45 39 41 45 
39 41 45 39 41 45 39 41 45 39 41 45 39 41 45 39 41 45 39 41 45 39 41 45 
39 41 45 39 41 45 39 41 45 39 41 45 39 41 45 39 41 45 39 41 45 39 41 45 
39 41 45 39 41 45 40 42 46 40 42 46 40 42 46 39 41 45 39 41 45 40 42 46 
40 42 46 40 42 46 39 41 46 39 40 47 38 40 49 39 40 47 39 41 45 39 42 45 
40 42 46 40 42 46 40 42 46 40 42 46 
39 41 45 39 41 45 39 41 45 39 41 45 39 41 45 39 41 45 38 40 44 39 41 45 
39 41 45 39 41 45 39 41 45 39 41 45 39 41 45 39 41 45 39 41 45 39 41 45 
39 41 45 39 41 45 39 41 45 39 41 45 39 41 45 39 41 45 39 41 45 39 41 45 
39 41 45 39 41 45 39 41 45 39 41 45 39 41 45 39 41 45 39 41 45 39 41 45 
39 41 45 39 41 45 39 41 45 39 41 45 39 41 45 39 41 45 39 41 45 39 41 45 
39 41 45 39 41 45 39 41 45 39 41 45 39 41 45 39 41 45 38 41 47 37 41 46 
37 40 46 38 41 45 39 41 45 39 41 45 38 42 45 38 42 45 39 41 45 39 41 45 
39 41 45 38 40 44 39 41 45 39 41 45 39 40 44 39 41 45 39 41 45 39 41 45 
39 41 45 39 41 45 39 41 45 39 41 45 38 41 45 37 40 46 36 40 46 36 40 46 
36 40 46 36 40 46 36 40 46 36 40 46 36 40 46 36 40 46 36 40 46 36 40 46 
36 40 46 36 40 46 36 40 46 36 39 45 34 38 44 97 113 122 153 177 190 155 184 190 
147 176 189 175 197 204 238 246 252 238 246 252 238 246 252 230 239 249 196 218 223 193 211 218 
191 213 222 193 212 222 193 212 222 193 212 222 193 212 222 193 212 222 193 212 222 193 212 222 
193 212 222 193 212 222 175 197 204 147 176 189 147 182 191 155 184 190 137 160 165 60 64 71 
36 34 38 36 34 38 60 64 71 184 200 204 219 232 232 214 230 229 214 230 229 215 230 228 
214 230 229 214 230 229 218 230 232 193 211 218 153 177 190 147 182 191 147 176 186 173 188 188 
227 220 211 237 221 211 237 221 211 237 221 211 235 220 211 237 221 211 238 224 211 237 236 231 
128 108 115 22 23 35 36 35 41 41 40 46 167 125 126 238 222 213 238 224 211 237 221 211 
238 222 213 238 222 213 238 222 213 240 224 218 238 220 208 211 189 184 211 189 184 211 189 184 
211 189 184 220 204 201 238 224 211 238 224 211 235 220 211 171 159 166 41 40 46 37 39 44 
31 27 36 128 108 115 238 224 211 240 224 218 235 220 211 238 222 213 238 222 213 238 222 213 
240 224 218 227 220 211 173 188 188 147 176 186 147 181 186 147 181 186 191 212 218 210 230 230 
214 231 232 210 230 230 210 230 230 210 230 230 210 230 230 214 231 232 184 200 204 41 46 52 
33 34 40 34 32 40 60 64 71 137 160 165 155 184 190 147 181 186 153 177 190 184 200 204 
193 212 222 193 212 222 193 212 222 193 212 222 193 211 218 193 212 222 193 211 218 191 208 219 
191 208 219 191 212 218 191 208 219 198 211 221 224 236 239 238 246 252 238 246 252 238 246 252 
175 197 204 147 176 186 147 181 186 147 181 186 97 113 122 32 33 43 38 37 44 38 38 41 
38 37 44 38 37 44 38 37 44 38 37 44 38 37 44 38 37 44 38 37 44 38 37 44 
38 37 44 38 37 44 38 37 44 38 37 44 37 38 42 37 39 43 38 40 44 38 40 44 
38 40 44 38 40 44 38 40 44 38 41 45 36 39 44 35 39 44 35 39 44 35 39 44 
35 39 44 36 39 44 39 41 45 40 42 46 39 41 45 39 41 45 39 41 45 39 41 45 
39 41 45 39 41 45 39 41 45 39 41 45 39 41 45 39 41 45 39 41 45 39 41 45 
39 41 45 39 41 45 39 41 45 39 41 45 39 41 45 39 41 45 39 41 45 39 41 45 
39 41 45 39 41 45 39 41 45 39 41 45 39 41 45 39 41 45 39 41 45 39 41 45 
39 41 45 39 41 45 39 41 45 39 41 45 39 41 45 39 41 45 39 41 45 39 41 45 
39 41 45 39 41 45 40 42 46 40 42 46 40 42 46 39 41 45 39 41 45 40 42 46 
40 42 46 40 42 46 40 42 46 38 40 49 38 40 49 38 42 47 40 42 46 40 42 46 
40 42 46 40 42 46 40 42 46 40 42 46 
39 41 45 39 41 45 39 41 45 39 41 45 39 41 45 39 41 45 39 41 45 39 41 45 
39 41 45 39 41 45 39 41 45 41 40 45 41 40 45 41 40 45 39 41 45 39 41 45 
39 41 45 41 40 45 41 40 45 41 40 45 39 41 45 39 41 45 39 41 45 39 41 45 
39 41 45 39 41 45 39 41 45 39 41 45 39 41 45 39 41 45 39 41 45 39 41 45 
39 41 45 39 41 45 39 41 45 39 41 45 39 41 45 39 41 45 39 41 45 39 41 45 
39 41 45 39 41 45 39 41 45 38 41 46 38 41 46 37 40 45 37 40 46 36 40 46 
37 41 46 38 41 46 38 41 46 38 41 46 38 41 46 38 42 45 39 41 46 39 41 45 
39 41 45 37 40 45 37 40 46 37 40 45 38 41 45 39 41 45 39 41 45 38 41 45 
37 40 44 37 40 44 38 40 44 39 41 45 38 41 45 37 40 46 36 40 46 36 40 46 
36 40 46 36 40 46 36 40 46 36 40 46 36 40 46 36 40 46 36 40 46 36 40 46 
36 40 46 36 40 46 36 40 46 35 39 45 34 36 45 97 113 122 153 177 190 155 184 190 
147 176 186 175 197 204 232 247 250 232 247 250 230 239 249 224 236 239 198 211 221 191 208 219 
193 212 222 193 212 222 193 212 222 191 213 222 191 212 218 191 212 218 191 212 218 193 212 222 
193 212 222 193 212 222 175 197 204 147 176 189 147 182 191 155 184 190 137 160 165 60 64 71 
35 34 39 34 34 39 60 64 71 184 200 204 218 230 232 214 230 229 216 230 230 215 230 228 
214 230 229 214 230 229 214 231 232 191 212 218 147 182 191 147 181 186 147 176 186 173 188 188 
227 220 211 238 222 213 237 221 211 238 222 213 238 222 213 237 221 211 237 221 211 240 224 218 
128 108 115 31 27 36 37 36 43 41 40 46 167 125 126 237 221 211 238 222 213 238 222 213 
238 222 213 238 222 213 238 222 213 237 221 211 238 220 208 211 189 184 211 189 184 211 189 184 
211 189 184 220 204 201 238 224 211 238 224 211 235 220 211 171 159 166 41 40 46 37 39 44 
31 27 36 128 108 115 238 222 213 238 222 213 235 220 211 237 221 211 237 221 211 237 221 211 
238 222 213 227 220 211 173 188 188 147 176 186 147 181 186 147 181 186 191 212 218 210 230 230 
210 230 230 210 230 230 210 230 230 210 230 230 210 230 230 214 231 232 184 200 204 41 46 52 
33 34 40 36 34 42 60 64 71 137 160 165 155 184 190 147 181 186 153 177 190 175 197 204 
193 211 218 193 212 222 193 212 222 193 212 222 191 213 222 191 213 222 191 213 222 191 208 219 
191 208 219 191 208 219 191 208 219 193 212 222 224 236 239 230 239 249 238 246 252 232 247 250 
175 197 204 147 176 186 147 181 186 155 184 190 97 113 122 34 32 40 38 37 44 38 38 41 
38 37 44 38 37 44 38 37 44 38 37 44 37 36 43 38 37 44 38 37 44 37 36 43 
38 37 44 38 37 44 38 37 44 38 37 44 37 38 42 37 38 42 37 39 43 38 40 44 
38 40 44 36 39 44 36 40 44 36 40 44 35 39 44 35 39 44 35 39 44 37 40 44 
37 40 45 37 40 44 38 40 44 40 42 46 39 41 45 39 41 45 39 41 45 39 41 45 
39 41 45 39 41 45 39 41 45 39 41 45 39 41 45 39 41 45 39 41 45 39 41 45 
39 41 45 39 41 45 39 41 45 39 41 45 39 41 45 39 41 45 39 41 45 39 41 45 
39 41 46 38 41 46 38 41 46 38 41 46 39 41 45 39 41 45 39 41 45 39 41 45 
39 41 45 39 41 45 39 41 45 39 41 45 39 41 45 39 41 45 39 41 45 39 41 45 
39 41 45 39 41 45 40 42 46 40 42 46 40 42 46 39 41 45 39 41 45 40 42 46 
40 42 46 40 42 46 40 42 46 40 42 46 38 42 47 40 42 46 40 42 46 40 42 46 
40 42 46 40 42 46 40 42 46 40 42 46 
39 41 45 39 41 45 39 41 45 38 40 44 38 40 44 39 41 45 39 41 45 39 41 45 
39 41 45 39 41 45 39 41 45 41 40 45 41 40 45 41 40 45 39 41 45 39 41 45 
39 41 45 41 40 45 41 40 45 41 40 45 39 41 45 39 41 45 39 41 45 39 41 45 
39 41 45 39 41 45 39 41 45 39 41 45 39 41 45 39 41 45 39 41 45 39 41 45 
39 41 45 39 41 45 39 41 45 39 41 45 39 41 45 39 41 45 39 41 45 39 41 45 
39 41 45 39 41 45 39 41 45 38 41 47 38 41 47 37 41 46 37 41 46 38 41 47 
38 41 47 38 41 47 38 41 47 38 41 47 38 41 47 38 41 47 38 41 46 39 41 45 
39 41 45 37 40 46 36 40 46 36 40 46 37 40 45 39 41 45 39 41 45 37 41 45 
36 40 44 37 40 44 38 40 44 39 41 45 39 41 45 37 40 46 36 40 46 36 40 46 
36 40 46 36 40 46 36 40 46 36 40 46 36 40 46 36 40 46 36 40 46 36 40 46 
36 40 46 36 40 46 36 40 46 36 39 46 34 38 44 97 113 122 153 177 190 155 184 190 
147 180 183 161 189 201 196 218 223 198 211 221 196 218 223 198 211 221 193 211 218 191 212 218 
191 212 218 193 211 218 191 212 218 191 212 218 191 212 218 191 212 218 193 211 218 193 211 218 
193 212 222 193 212 222 184 200 204 147 176 186 147 181 186 155 184 190 137 160 165 60 64 71 
35 34 40 32 34 39 60 64 71 184 200 204 218 232 236 214 231 232 214 231 232 214 230 229 
210 230 230 215 230 230 210 230 230 191 212 218 147 181 186 147 181 186 147 176 186 173 188 188 
227 220 211 238 222 213 237 221 211 238 222 213 237 221 211 237 221 211 237 221 211 240 224 218 
128 108 115 31 27 36 38 36 46 41 40 46 167 125 126 237 221 211 238 222 213 238 222 213 
238 222 213 237 221 211 237 221 211 237 221 211 238 220 208 211 189 184 211 189 184 211 189 184 
211 189 184 220 204 201 238 224 211 238 224 211 235 220 211 171 159 166 41 40 46 37 39 44 
31 27 36 128 108 115 238 222 213 238 222 213 237 221 211 237 221 211 238 224 211 237 221 211 
237 221 211 227 220 211 173 188 188 147 181 186 147 181 186 147 181 186 191 212 218 210 230 230 
210 230 230 210 230 230 210 230 230 214 231 232 214 231 232 218 230 232 184 200 204 41 46 52 
34 33 43 36 34 42 60 64 71 137 160 165 155 184 190 147 181 186 147 181 186 175 197 204 
191 212 218 193 211 218 193 212 222 193 212 222 193 212 222 191 212 218 191 208 219 191 212 218 
191 208 219 191 208 219 191 208 219 191 212 218 193 212 222 198 211 221 198 211 221 198 211 221 
161 189 201 147 176 186 147 176 186 155 184 190 97 113 122 34 32 40 38 37 44 38 38 41 
38 37 44 38 37 44 38 37 44 38 37 44 37 36 43 38 37 44 38 37 44 37 36 43 
38 37 44 38 37 44 38 37 44 38 37 44 37 38 42 37 38 42 38 40 44 38 40 44 
38 40 44 36 39 44 35 39 44 35 39 44 35 39 44 35 39 44 35 39 44 38 40 44 
39 41 45 39 41 45 38 40 44 39 41 45 39 41 45 39 41 45 39 41 45 39 41 45 
39 41 45 39 41 45 39 41 45 39 41 45 39 41 45 39 41 45 39 41 45 39 41 45 
39 41 45 39 41 45 39 41 45 39 41 45 39 41 45 39 41 45 39 41 45 39 41 45 
39 41 46 38 41 47 38 41 47 38 41 46 39 41 45 39 41 45 39 41 45 39 41 45 
39 41 45 39 41 45 39 41 45 39 41 45 39 41 45 39 41 45 39 41 45 39 41 45 
39 41 45 39 41 45 40 42 46 40 42 46 40 42 46 39 41 45 39 41 45 40 42 46 
40 42 46 40 42 46 40 42 46 39 42 45 40 42 46 40 42 46 40 42 46 40 42 46 
40 42 46 40 42 46 40 42 46 40 42 46 
39 41 45 39 41 45 39 41 45 38 40 44 38 40 44 39 41 45 39 41 45 39 41 45 
39 41 45 39 41 45 39 41 45 41 40 45 41 40 45 41 40 45 39 41 45 39 41 45 
39 41 45 41 40 45 41 40 45 41 40 45 39 41 45 39 41 45 39 41 45 39 41 45 
39 41 45 38 40 44 39 41 45 39 41 45 39 41 45 39 41 45 39 41 45 39 41 45 
39 41 45 39 41 45 39 41 45 39 41 45 39 41 45 39 41 45 39 41 45 39 41 45 
39 41 45 39 41 45 39 41 45 38 41 47 38 41 47 38 41 47 38 41 47 38 41 47 
38 41 47 38 41 47 38 41 47 38 41 47 37 40 46 36 40 45 38 41 45 39 41 45 
39 41 45 37 40 46 36 40 46 36 40 46 38 41 45 39 41 45 39 41 45 37 40 44 
37 41 45 38 41 45 38 40 44 39 41 45 39 41 46 38 41 47 37 40 46 36 40 46 
36 40 46 36 40 46 36 40 46 36 40 46 36 40 46 36 40 46 36 40 46 36 40 46 
36 40 46 36 40 46 36 40 46 37 40 46 35 39 45 97 113 122 147 181 186 155 184 190 
147 181 186 161 189 201 193 212 222 191 208 219 191 208 219 193 211 218 196 218 223 196 218 223 
196 218 223 196 218 223 196 218 223 204 220 224 204 220 224 196 218 223 193 211 218 193 211 218 
191 208 219 193 212 222 184 206 218 147 176 186 147 181 186 155 184 190 137 160 165 60 64 71 
36 35 39 35 34 40 60 64 71 184 200 204 210 230 230 209 224 232 204 220 224 210 230 230 
214 231 232 216 230 230 215 230 228 191 212 218 147 181 186 147 181 186 147 176 186 173 188 188 
227 220 211 237 221 211 237 221 211 237 221 211 237 221 211 238 224 211 237 221 211 237 236 231 
128 108 115 31 27 36 37 35 44 41 40 46 167 125 126 238 222 213 238 224 211 237 221 211 
237 221 211 237 221 211 237 221 211 238 224 211 237 221 211 211 189 184 211 189 184 211 189 184 
211 189 184 220 204 201 238 224 211 238 224 211 235 220 211 171 159 166 41 40 46 38 39 44 
31 27 36 128 108 115 237 221 211 238 222 213 238 220 208 238 220 208 238 220 208 238 222 213 
238 222 213 227 220 211 173 188 188 147 176 186 147 181 186 147 181 186 191 212 218 210 230 230 
210 230 230 210 230 230 209 224 225 209 224 232 209 224 232 214 231 232 184 200 204 59 51 57 
35 35 43 36 34 42 60 64 71 137 160 165 155 184 190 147 181 186 147 180 183 175 197 204 
191 212 218 191 208 219 191 213 222 193 212 222 196 218 223 196 218 223 198 211 221 198 211 221 
193 211 218 191 208 219 193 212 222 193 212 222 191 212 218 191 212 218 191 208 219 191 212 218 
155 184 190 147 176 186 147 181 186 155 184 190 97 113 122 32 29 37 37 36 43 37 37 42 
38 37 44 38 37 44 38 37 44 38 37 44 38 37 44 38 37 44 38 37 44 38 37 44 
38 37 44 38 37 44 38 37 44 38 37 44 37 38 42 38 39 43 38 41 45 38 40 44 
38 40 45 36 39 44 35 39 44 35 39 44 37 41 46 35 39 45 35 39 44 38 39 43 
39 41 45 39 41 45 39 41 45 39 41 45 39 41 45 39 41 45 39 41 45 39 41 45 
39 41 45 39 41 45 39 41 45 39 41 45 39 41 45 39 41 45 39 41 45 39 41 45 
39 41 45 39 41 45 39 41 45 39 41 45 39 41 45 39 41 45 39 41 45 39 41 45 
39 41 46 38 41 47 38 41 47 38 41 46 39 41 45 39 41 45 39 41 45 39 41 45 
39 41 45 39 41 45 39 41 45 39 41 45 39 41 45 39 41 45 39 41 45 39 41 45 
39 41 45 39 41 45 40 42 46 40 42 46 40 42 46 39 41 45 39 41 45 40 42 46 
40 42 46 40 42 46 40 42 46 40 42 46 40 42 46 40 42 46 40 42 46 40 42 46 
40 42 46 40 42 46 40 42 46 40 42 46 
39 41 45 39 41 45 39 41 45 38 40 44 39 41 45 39 41 45 39 41 45 39 41 45 
39 41 45 39 41 45 39 41 45 41 40 45 41 40 45 41 40 45 39 41 45 39 41 45 
39 41 45 41 40 45 41 40 45 41 40 45 39 41 45 39 41 45 39 41 45 39 41 45 
39 41 45 39 41 45 39 41 45 38 40 44 38 39 43 39 41 45 39 41 45 39 41 45 
39 41 45 39 41 45 39 41 45 39 41 45 39 41 45 39 41 45 39 41 45 39 41 45 
39 41 45 39 41 45 39 41 45 38 41 46 38 41 46 38 41 46 38 41 47 38 41 47 
38 41 47 38 41 47 38 41 47 38 41 47 37 41 46 37 41 45 38 41 45 37 41 45 
37 41 45 37 40 45 36 40 45 36 40 45 38 41 45 39 41 45 39 41 45 38 40 44 
39 41 45 39 41 45 39 41 45 39 41 45 39 41 45 37 41 46 37 40 46 36 40 46 
36 40 46 36 40 46 36 40 46 36 40 46 36 40 46 36 40 46 36 40 46 36 40 46 
36 40 46 36 40 46 36 40 46 36 40 46 35 39 45 97 113 122 153 177 190 147 182 191 
147 176 186 161 189 201 193 212 222 193 212 222 191 208 219 198 211 221 224 236 239 230 239 249 
230 239 249 230 239 249 230 239 249 230 239 249 230 239 249 230 239 249 204 220 224 191 208 219 
191 208 219 193 212 222 175 197 204 147 176 186 147 181 186 155 184 190 137 160 165 60 64 71 
36 35 41 36 35 41 60 64 71 147 165 171 175 197 204 161 189 201 155 184 190 191 213 222 
218 232 236 216 230 230 215 230 228 193 211 218 147 181 186 147 181 186 147 176 186 173 188 188 
227 220 211 237 221 211 238 220 208 238 220 208 238 220 208 238 224 211 238 224 211 240 224 218 
128 108 115 31 27 36 36 35 45 41 40 46 167 125 126 237 221 211 238 224 211 237 221 211 
237 221 211 238 224 211 238 224 211 237 221 211 237 221 211 238 220 208 227 220 211 220 204 201 
227 220 211 237 221 211 238 224 211 238 224 211 235 220 211 171 159 166 41 40 46 38 39 44 
31 27 36 128 108 115 237 221 211 238 224 211 238 220 208 238 220 208 237 221 211 237 221 211 
238 222 213 227 220 211 175 197 204 147 176 186 147 181 186 147 181 186 191 212 218 210 230 230 
215 230 230 214 231 232 193 211 218 161 189 201 175 197 204 175 197 204 153 177 190 41 46 52 
35 36 45 35 35 43 60 64 71 137 160 165 155 184 190 147 180 183 147 180 183 175 197 204 
191 208 219 191 208 219 184 206 218 204 220 224 230 239 249 230 239 249 230 239 249 218 232 236 
193 211 218 191 208 219 191 208 219 191 208 219 191 208 219 193 211 218 191 212 218 191 212 218 
161 189 201 147 176 186 147 176 186 147 181 186 97 113 122 32 29 37 38 36 44 38 37 44 
38 37 44 38 37 44 38 37 44 38 37 44 38 37 44 38 37 44 38 37 44 38 37 44 
38 37 44 38 37 44 38 37 44 38 37 44 38 39 43 38 40 44 37 40 44 36 40 44 
36 40 44 36 39 44 35 39 44 35 39 44 36 40 45 35 39 45 35 39 43 38 39 43 
39 41 45 39 41 45 39 41 45 39 41 45 39 41 45 39 41 45 39 41 45 39 41 45 
39 41 45 39 41 45 39 41 45 39 41 45 39 41 45 39 41 45 39 41 45 39 41 45 
39 41 45 39 41 45 39 41 45 39 41 45 39 41 45 39 41 45 39 41 45 39 41 45 
39 41 46 38 41 47 38 41 47 38 41 46 39 41 46 39 41 46 39 41 45 39 41 45 
39 41 45 39 41 45 39 41 45 39 41 45 39 41 45 39 41 45 39 41 45 39 41 45 
39 41 45 39 41 45 40 42 46 40 42 46 40 42 46 39 41 45 39 41 45 40 42 46 
40 42 46 40 42 46 40 42 46 40 42 46 40 42 46 40 42 46 40 42 46 40 42 46 
40 42 46 40 42 46 40 42 46 40 42 46 
38 40 44 38 40 44 39 41 45 39 41 45 39 41 45 39 41 45 39 41 45 39 41 45 
39 41 45 39 41 45 39 41 45 39 41 45 39 41 45 39 41 45 41 40 45 41 40 45 
41 40 45 41 40 45 41 40 45 41 40 45 39 41 45 39 41 45 39 41 45 39 41 45 
39 41 45 39 41 45 39 41 45 38 40 44 38 40 44 39 41 45 39 41 45 39 41 45 
39 41 45 39 41 45 39 41 45 39 41 45 39 41 45 39 41 45 39 41 45 39 41 45 
39 41 45 39 41 45 39 41 45 39 41 45 39 41 45 39 41 45 38 41 47 38 41 47 
38 41 47 38 41 47 38 41 47 38 41 47 38 42 45 38 42 45 37 41 44 36 40 44 
36 40 44 36 40 44 36 40 44 36 40 44 38 41 45 39 41 45 39 41 45 39 41 45 
39 41 45 39 41 45 39 41 45 39 41 45 38 41 45 37 40 46 36 40 46 36 40 46 
36 40 46 36 40 46 36 40 46 36 40 46 36 40 46 36 40 46 36 40 46 36 40 46 
36 40 46 36 40 46 36 40 46 36 39 45 34 38 44 97 113 122 153 177 190 147 182 191 
147 176 186 161 189 201 191 213 222 193 212 222 193 212 222 196 218 223 230 239 249 238 246 252 
238 246 252 245 247 252 245 247 252 238 246 252 238 246 252 238 246 252 209 224 232 191 208 219 
191 208 219 193 212 222 175 197 204 147 176 186 147 181 186 155 184 190 137 160 165 60 64 71 
37 37 42 36 37 41 59 51 57 137 160 165 153 177 190 147 176 186 147 176 186 191 212 218 
218 232 236 216 230 230 213 225 229 193 211 218 147 181 186 147 181 186 147 176 186 173 188 188 
227 220 211 238 224 211 238 224 211 238 220 208 237 221 211 238 220 208 238 220 208 240 224 218 
128 108 115 31 27 36 38 36 46 41 46 52 167 125 126 238 220 208 238 220 208 238 220 208 
238 220 208 238 224 211 238 224 211 238 220 208 238 224 211 238 224 211 238 222 213 237 221 211 
238 224 211 238 224 211 237 221 211 238 222 213 235 220 211 171 159 166 41 40 46 37 39 44 
26 31 37 128 108 115 238 220 208 238 224 211 238 224 211 237 221 211 238 224 211 237 221 211 
238 222 213 227 220 211 175 197 204 147 176 189 147 182 191 147 180 183 184 206 218 214 231 232 
214 231 232 218 232 236 191 208 219 147 176 186 147 176 186 153 177 190 137 160 165 41 46 52 
36 39 46 37 37 44 60 64 71 137 160 165 155 184 190 147 180 183 147 180 183 175 197 204 
191 208 219 184 206 218 184 206 218 209 224 232 238 246 252 238 246 252 238 246 252 230 239 249 
198 211 221 191 208 219 191 208 219 191 208 219 191 208 219 191 212 218 191 212 218 191 212 218 
161 189 201 147 176 186 147 176 186 147 181 186 97 113 122 31 33 37 38 38 44 38 38 44 
37 36 43 38 37 44 37 36 43 37 36 43 38 37 44 38 37 44 38 37 44 38 37 44 
38 37 44 38 37 44 38 37 44 37 38 43 38 40 44 38 41 44 36 40 44 35 39 44 
35 39 44 36 39 45 36 39 45 35 39 44 35 39 44 35 39 44 35 39 44 38 40 44 
38 40 44 38 40 44 38 40 44 39 41 45 39 41 45 39 41 45 39 41 45 39 41 45 
39 41 45 39 41 45 39 41 45 39 41 45 39 41 45 39 41 45 38 40 44 39 41 45 
39 41 45 39 41 45 39 41 45 39 41 45 39 41 45 39 41 45 39 41 45 39 41 45 
39 41 46 38 41 47 37 41 46 38 41 47 38 41 47 38 41 47 38 41 46 39 41 45 
39 41 45 39 41 45 39 41 45 39 41 45 39 41 45 39 41 45 39 41 45 39 41 45 
39 41 45 39 41 45 40 42 46 40 42 46 40 42 46 40 42 46 40 42 46 40 42 46 
40 42 46 40 42 46 40 42 46 40 42 46 40 42 46 40 42 46 40 42 46 40 42 46 
40 42 46 40 42 46 40 42 46 40 42 46 
38 40 44 39 41 45 39 41 45 39 41 45 39 41 45 39 41 45 39 41 45 39 41 45 
39 41 45 39 41 45 39 41 45 39 41 45 39 41 45 39 41 45 41 40 45 41 40 45 
41 40 45 41 40 45 41 40 45 41 40 45 39 41 45 39 41 45 39 41 45 39 41 45 
39 41 45 39 41 45 39 41 45 39 41 45 38 39 43 39 41 45 39 41 45 39 41 45 
39 41 45 39 41 45 39 41 45 39 41 45 39 41 45 39 41 45 39 41 45 39 41 45 
39 41 45 39 41 45 39 41 45 39 41 45 39 41 45 39 41 45 38 41 47 38 41 47 
38 41 47 38 41 47 38 41 47 38 41 46 38 42 45 38 42 45 38 41 44 37 40 44 
36 40 44 36 40 44 36 40 44 36 40 44 38 41 45 39 41 45 39 41 45 39 41 45 
39 41 45 39 41 45 39 41 45 39 41 45 38 41 45 37 40 46 36 40 46 36 40 46 
36 40 46 36 40 46 36 40 46 36 40 46 36 40 46 36 40 46 36 40 46 36 40 46 
36 40 46 36 40 46 36 40 46 36 39 45 34 38 44 97 113 122 153 177 190 155 184 190 
147 176 189 161 189 201 191 213 222 193 212 222 193 212 222 204 220 224 232 247 250 238 246 252 
238 246 252 238 246 252 238 246 252 238 246 252 238 246 252 232 247 250 209 224 225 191 208 219 
191 208 219 193 211 218 175 197 204 147 176 186 147 181 186 155 184 190 137 160 165 60 64 71 
37 37 42 36 37 41 59 51 57 137 160 165 153 177 190 147 176 189 147 176 186 191 212 218 
214 232 236 216 230 230 216 230 230 191 208 219 153 177 190 147 181 186 153 177 190 173 188 188 
227 220 211 238 224 211 237 221 211 238 220 208 237 221 211 238 220 208 238 220 208 237 236 231 
128 108 115 22 23 35 35 34 40 42 38 45 167 125 126 237 221 211 238 220 208 238 220 208 
238 220 208 238 224 211 238 224 211 238 224 211 238 224 211 238 224 211 238 222 213 237 221 211 
237 221 211 237 221 211 237 221 211 238 222 213 235 220 211 171 159 166 36 35 41 32 34 39 
22 23 35 128 108 115 237 221 211 238 224 211 238 224 211 238 220 208 237 221 211 238 224 211 
238 222 213 227 220 211 173 188 188 147 176 189 147 182 191 147 181 186 191 212 218 215 230 230 
215 230 230 214 232 236 191 212 218 147 176 186 147 181 186 155 184 190 137 160 165 41 46 52 
35 38 44 35 38 43 60 64 71 137 160 165 155 184 190 147 180 183 147 176 186 175 197 204 
191 208 219 191 208 219 184 206 218 209 224 232 238 246 252 238 246 252 238 246 252 224 236 239 
198 211 221 191 212 218 191 212 218 191 208 219 191 208 219 191 208 219 191 212 218 191 212 218 
161 189 201 147 176 186 147 176 186 147 181 186 97 113 122 31 33 37 36 38 43 36 37 42 
37 36 43 38 37 44 38 37 44 36 35 42 37 36 43 38 37 44 37 37 42 37 36 43 
37 36 43 38 37 44 38 37 44 37 38 43 38 40 44 39 41 45 37 40 45 35 39 44 
35 39 44 36 39 45 36 40 45 35 39 44 35 39 44 35 39 44 35 39 44 38 40 44 
38 40 44 38 40 44 38 40 44 39 41 45 39 41 45 39 41 45 39 41 45 39 41 45 
39 41 45 39 41 45 39 41 45 39 41 45 40 42 46 39 41 45 39 41 45 39 41 45 
39 41 45 39 41 45 39 41 45 39 41 45 39 41 45 39 41 45 39 41 45 39 41 45 
39 41 46 38 41 46 37 40 46 37 40 46 38 41 46 38 41 47 38 41 46 39 41 45 
39 41 45 39 41 45 39 41 45 39 41 45 39 41 45 39 41 45 39 41 45 39 41 45 
39 41 45 39 41 45 40 42 46 40 42 46 40 42 46 40 42 46 40 42 46 40 42 46 
40 42 46 40 42 46 40 42 46 40 42 46 40 42 46 40 42 46 40 42 46 40 42 46 
40 42 46 40 42 46 40 42 46 40 42 46 
39 41 45 39 41 45 39 41 45 39 41 45 39 41 45 39 41 45 39 41 45 39 41 45 
39 41 45 39 41 45 39 41 45 39 41 45 39 41 45 39 41 45 41 40 45 41 40 45 
41 40 45 41 40 46 41 40 46 41 40 46 39 41 46 39 41 45 39 41 45 39 41 45 
39 41 45 39 41 45 39 41 45 39 41 45 38 40 44 39 41 45 39 41 45 39 41 45 
39 41 45 39 41 45 39 41 45 39 41 45 39 41 45 39 41 45 39 41 45 39 41 45 
39 41 45 39 41 45 39 41 45 39 41 45 39 41 45 39 41 45 39 41 46 39 41 46 
39 41 46 39 41 46 39 41 46 39 41 46 39 42 45 39 42 45 39 41 45 38 41 45 
38 41 45 38 41 45 38 41 45 38 41 45 39 41 45 39 41 45 39 41 45 39 41 45 
39 41 45 39 41 45 39 41 45 39 41 45 39 41 45 38 41 45 38 41 46 38 41 46 
36 40 46 36 40 46 36 40 46 36 40 46 36 40 46 36 40 46 36 40 46 36 40 46 
36 40 46 36 40 46 36 40 46 36 39 46 34 38 44 97 113 122 153 177 190 155 184 190 
147 181 186 161 189 201 196 218 223 193 212 222 193 212 222 204 220 224 230 239 249 232 247 250 
230 239 249 230 239 249 238 246 252 238 246 252 232 247 250 232 247 250 213 225 229 198 211 221 
198 211 221 198 211 221 184 200 204 147 176 186 147 181 186 155 184 190 137 160 165 60 64 71 
34 35 40 32 35 38 59 51 57 137 160 165 155 184 190 153 177 190 147 176 186 191 212 218 
214 232 236 216 230 230 214 231 232 193 211 218 153 177 190 153 177 190 153 177 190 173 188 188 
227 220 211 238 224 211 237 221 211 237 221 211 238 220 208 235 220 211 237 221 211 240 224 218 
128 108 115 41 46 52 59 51 57 59 51 57 167 125 126 237 221 211 238 224 211 238 224 211 
238 220 208 238 224 211 238 224 211 237 221 211 237 221 211 237 221 211 237 221 211 237 221 211 
237 221 211 237 221 211 237 221 211 238 224 211 235 220 211 171 159 166 59 51 57 59 51 57 
41 46 52 128 108 115 237 221 211 238 224 211 238 220 208 238 220 208 237 221 211 238 224 211 
238 222 213 227 220 211 173 188 188 147 176 186 147 182 191 147 181 186 191 212 218 215 230 230 
215 230 230 214 232 236 191 212 218 147 176 186 147 181 186 147 181 186 137 160 165 41 46 52 
34 36 41 31 35 39 60 64 71 137 160 165 173 188 188 155 184 190 155 184 190 175 197 204 
191 208 219 191 208 219 184 206 218 209 224 232 238 246 252 238 246 252 238 246 252 224 236 239 
193 211 218 191 212 218 191 212 218 191 212 218 193 211 218 198 211 221 193 211 218 193 211 218 
161 189 201 147 176 189 147 181 186 147 181 186 97 113 122 32 29 37 36 38 43 37 39 44 
38 37 44 38 37 44 38 37 44 37 36 43 37 36 43 37 36 43 37 36 43 37 36 43 
37 36 43 38 37 44 38 37 44 38 37 44 38 40 44 39 41 45 37 40 44 35 39 44 
35 39 44 35 39 44 35 39 44 35 39 44 37 39 44 37 40 44 37 40 44 38 40 44 
38 40 44 38 40 44 38 40 44 39 41 45 39 41 45 39 41 45 39 41 45 39 41 45 
39 41 45 39 41 45 39 41 45 39 41 45 39 41 45 39 41 45 39 41 45 39 41 45 
39 41 46 39 41 46 39 41 46 39 41 45 39 41 45 39 41 45 39 41 45 39 41 45 
39 41 45 39 41 46 38 41 46 38 41 46 39 41 46 39 41 46 39 41 45 39 41 45 
39 41 45 39 41 45 39 41 45 39 41 45 39 41 45 39 41 45 39 41 45 39 41 45 
39 41 45 39 41 45 40 42 46 40 42 46 40 42 46 40 42 46 40 42 46 40 42 46 
40 42 46 40 42 46 40 42 46 40 42 46 40 42 46 40 42 46 40 42 46 40 42 46 
40 42 46 40 42 46 40 42 46 40 42 46 
39 41 45 38 40 44 38 40 44 38 40 44 39 40 44 39 41 45 39 41 45 39 41 45 
39 41 45 39 41 45 39 41 45 39 41 45 39 41 45 39 41 45 41 40 45 41 40 45 
41 40 45 41 40 46 41 40 46 41 40 46 39 41 46 39 41 45 39 41 45 39 41 45 
39 41 45 39 41 45 39 41 45 39 41 45 39 41 45 39 41 45 39 41 45 39 41 45 
39 41 45 39 41 45 39 41 45 39 41 45 39 41 45 39 41 45 39 41 45 39 41 45 
39 41 45 39 41 45 39 41 45 39 41 45 39 41 45 39 41 45 39 41 45 39 41 45 
39 41 45 39 41 45 39 41 45 39 41 45 39 41 45 39 41 45 39 41 45 39 41 45 
39 41 45 39 41 45 39 41 45 39 41 45 39 41 45 39 41 45 39 41 45 39 41 45 
39 41 45 39 41 45 39 41 45 39 41 45 39 41 45 39 41 45 39 41 45 38 41 45 
36 40 46 36 40 46 36 40 46 36 40 46 36 40 46 36 40 46 36 40 46 36 40 46 
36 40 46 36 40 46 36 40 46 36 39 46 34 36 45 97 113 122 153 177 190 155 184 190 
147 176 186 175 197 204 224 236 239 224 236 239 218 232 236 214 232 236 209 224 232 209 224 232 
209 224 232 209 224 232 230 239 249 238 246 252 220 231 236 213 225 229 220 231 236 224 236 239 
224 236 239 224 236 239 204 220 224 147 176 186 147 181 186 155 184 190 137 160 165 60 64 71 
33 34 40 31 33 37 41 46 52 137 160 165 155 184 190 153 177 190 147 176 186 191 212 218 
218 232 236 218 230 232 214 231 232 191 212 218 153 177 190 153 177 190 153 177 190 173 188 188 
227 220 211 238 222 213 237 221 211 237 221 211 235 220 211 237 221 211 237 221 211 238 222 213 
211 189 184 173 188 188 173 188 188 173 188 188 211 189 184 237 221 211 238 224 211 238 224 211 
237 221 211 238 222 213 237 221 211 237 221 211 237 221 211 237 221 211 237 221 211 237 221 211 
237 221 211 237 221 211 237 221 211 237 221 211 235 220 211 211 189 184 173 188 188 173 188 188 
171 159 166 211 189 184 235 220 211 238 220 208 238 220 208 238 220 208 237 221 211 237 221 211 
238 222 213 227 220 211 173 188 188 147 176 189 147 182 191 153 177 190 191 212 218 214 231 232 
215 230 230 218 232 236 191 212 218 153 177 190 147 181 186 147 181 186 137 160 165 41 46 52 
33 34 40 26 31 37 60 64 71 173 188 188 219 230 232 213 225 229 213 225 229 196 218 223 
193 212 222 191 208 219 184 206 218 209 224 232 238 246 252 238 246 252 238 246 252 224 236 239 
193 211 218 191 212 218 191 208 219 193 211 218 218 230 232 224 236 239 224 236 239 224 236 239 
175 197 204 147 176 189 147 176 189 147 181 186 97 113 122 32 29 37 36 37 42 37 38 43 
37 37 42 37 36 43 38 37 44 38 36 44 36 35 42 36 35 42 36 35 42 36 35 42 
37 36 43 36 35 42 37 37 42 38 37 44 38 40 44 38 41 44 36 40 44 35 39 44 
35 39 44 35 39 44 35 39 44 35 38 43 37 40 44 38 40 44 38 40 44 38 40 44 
39 41 45 38 40 44 38 40 44 39 41 45 39 41 45 39 41 45 39 41 45 39 41 45 
39 41 45 39 41 45 39 41 45 39 41 45 39 41 45 39 41 45 39 41 45 39 41 45 
38 41 46 38 41 47 38 41 47 39 41 46 39 41 45 39 41 45 39 41 45 39 41 45 
39 41 45 39 41 45 39 41 45 39 41 45 39 41 45 39 41 45 39 41 45 39 41 45 
39 41 45 39 41 45 39 41 45 39 41 45 39 41 45 39 41 45 39 41 45 39 41 45 
39 41 45 39 41 45 40 42 46 40 42 46 40 42 46 40 42 46 40 42 46 40 42 46 
40 42 46 40 42 46 40 42 46 40 42 46 40 42 46 40 42 46 40 42 46 40 42 46 
40 42 46 40 42 46 40 42 46 40 42 46 
39 41 45 39 41 45 38 40 44 38 40 44 38 40 44 39 41 45 39 41 45 39 41 45 
39 41 45 39 41 45 39 41 45 39 41 45 39 41 46 39 41 46 41 40 45 41 40 45 
41 40 45 39 40 46 39 40 46 39 40 46 39 41 46 39 41 45 39 41 45 39 41 45 
39 41 45 39 41 45 39 41 45 39 41 45 39 41 45 39 41 45 39 41 45 39 41 45 
39 41 45 39 41 45 39 41 45 39 41 45 39 41 45 39 41 45 39 41 45 39 41 45 
39 41 45 39 41 45 39 41 45 39 41 45 39 41 45 39 41 45 39 41 45 39 41 45 
39 41 45 39 41 45 39 41 45 39 41 45 39 41 45 39 41 45 39 41 45 39 41 45 
39 41 45 39 41 45 39 41 45 39 41 45 39 41 45 39 41 45 39 41 45 39 41 45 
39 41 45 39 41 45 39 41 45 39 41 45 39 41 45 39 41 45 39 41 45 38 41 45 
36 40 46 36 40 46 36 40 46 36 40 46 36 40 46 36 40 46 36 40 46 36 40 46 
36 40 46 36 40 46 36 40 46 35 39 45 34 36 45 97 113 122 147 180 183 147 181 186 
147 180 183 175 197 204 238 246 252 238 246 252 232 247 250 224 236 239 193 212 222 191 208 219 
191 208 219 196 218 223 230 239 249 238 246 252 209 224 232 193 211 218 224 236 239 238 246 252 
238 246 252 245 247 252 209 224 232 147 176 186 147 181 186 155 184 190 137 160 165 60 64 71 
34 32 40 31 33 37 59 51 57 137 160 165 155 184 190 153 177 190 147 176 186 193 211 218 
220 237 237 216 230 230 214 231 232 191 212 218 153 177 190 153 177 190 153 177 190 173 188 188 
227 220 211 238 222 213 235 220 211 235 220 211 238 224 211 238 224 211 238 224 211 235 220 211 
238 224 211 240 224 218 240 224 218 238 222 213 238 224 211 237 221 211 237 221 211 237 221 211 
237 221 211 238 222 213 237 221 211 237 221 211 237 221 211 237 221 211 237 221 211 235 220 211 
237 221 211 237 221 211 237 221 211 237 221 211 237 221 211 238 222 213 240 224 218 240 224 218 
238 224 211 238 224 211 237 221 211 237 221 211 237 221 211 235 220 211 237 221 211 237 221 211 
237 221 211 227 220 211 173 188 188 153 177 190 153 177 190 153 177 190 191 212 218 210 230 230 
216 230 230 220 237 237 193 211 218 153 177 190 147 181 186 147 181 186 137 160 165 41 46 52 
32 34 39 26 31 37 91 77 82 198 197 196 245 247 252 238 246 252 238 246 252 214 231 232 
198 211 221 193 211 218 184 206 218 209 224 232 238 246 252 238 246 252 238 246 252 224 236 239 
193 211 218 191 212 218 193 211 218 198 211 221 230 239 249 238 246 252 238 246 252 238 246 252 
175 197 204 147 176 189 147 176 189 155 184 190 97 113 122 32 29 37 37 36 43 36 37 41 
37 37 42 38 37 44 38 37 44 38 37 44 36 35 42 36 35 42 37 36 43 37 36 43 
36 35 42 35 34 40 37 36 43 37 38 43 38 40 44 38 40 44 36 39 42 34 39 43 
35 39 44 35 39 44 34 38 44 35 38 44 37 39 43 38 40 44 38 40 44 38 40 44 
39 41 45 38 40 44 38 40 44 39 41 45 39 41 45 39 41 45 39 41 45 39 41 45 
39 41 45 39 41 45 39 41 45 39 41 45 39 41 45 39 41 45 39 41 45 39 41 45 
38 41 46 38 41 46 38 41 46 39 41 46 39 41 45 39 41 45 39 41 45 39 41 45 
39 41 45 39 41 45 39 41 45 39 41 45 39 41 45 39 41 45 39 41 45 39 41 45 
39 41 45 39 41 45 39 41 45 39 41 45 39 41 45 39 41 45 39 41 45 39 41 45 
39 41 45 39 41 45 40 42 46 40 42 46 40 42 46 40 42 46 40 42 46 40 42 46 
40 42 46 40 42 46 40 42 46 40 42 46 40 42 46 40 42 46 40 42 46 40 42 46 
40 42 46 40 42 46 40 42 46 40 42 46 
38 40 44 38 40 44 39 41 45 39 41 45 39 41 45 39 41 45 41 40 45 41 40 45 
41 40 45 41 40 45 41 40 45 41 40 46 41 40 46 41 40 46 39 41 46 39 41 45 
39 41 45 39 41 45 39 41 45 39 41 45 39 41 45 39 41 45 39 41 45 39 41 45 
39 41 45 39 41 45 39 41 45 39 41 45 39 41 45 39 41 45 39 41 45 39 41 45 
39 41 45 39 41 45 39 41 45 39 41 45 39 41 45 39 41 45 39 41 45 39 41 45 
39 41 45 39 41 45 39 41 45 39 41 45 39 41 45 39 41 45 39 41 45 39 41 45 
39 41 45 39 41 45 39 41 45 39 41 45 39 41 45 39 41 45 39 41 45 39 41 45 
39 41 45 39 41 45 39 41 45 39 41 45 39 41 45 39 41 45 39 41 45 39 41 45 
39 41 45 39 41 45 39 41 45 39 41 45 39 41 45 39 41 45 39 41 45 38 41 45 
36 40 46 36 40 46 36 40 46 36 40 46 36 40 46 36 40 46 36 40 46 36 40 46 
36 40 46 36 40 46 36 40 46 35 39 45 32 35 42 97 113 122 147 180 183 147 181 186 
147 180 183 175 197 204 238 246 252 238 246 252 238 246 252 224 236 239 193 212 222 191 208 219 
191 208 219 204 220 224 230 239 249 238 246 252 213 225 229 198 211 221 224 236 239 238 246 252 
238 246 252 238 246 252 209 224 232 147 176 186 147 181 186 147 182 191 137 160 165 60 64 71 
34 32 40 33 33 43 59 51 57 137 160 165 155 184 190 147 181 186 147 176 186 191 212 218 
218 232 236 218 230 232 218 230 232 193 211 218 153 177 190 153 177 190 153 177 190 173 188 188 
227 220 211 238 224 211 235 220 211 235 220 211 237 221 211 238 224 211 238 224 211 237 221 211 
237 221 211 237 221 211 237 221 211 237 221 211 237 221 211 237 221 211 237 221 211 237 221 211 
237 221 211 237 221 211 237 221 211 237 221 211 238 220 208 235 220 211 235 220 211 235 220 211 
235 220 211 237 221 211 237 221 211 237 221 211 237 221 211 235 220 211 235 220 211 237 221 211 
237 221 211 238 222 213 238 222 213 238 222 213 238 222 213 237 221 211 237 221 211 238 224 211 
238 222 213 227 220 211 173 188 188 153 177 190 153 177 190 153 177 190 191 212 218 210 230 230 
218 230 232 220 231 232 193 211 218 153 177 190 153 177 190 153 177 190 137 160 165 41 46 52 
32 35 41 26 31 37 91 77 82 198 197 196 245 247 252 238 246 252 238 246 252 213 225 229 
198 211 221 193 211 218 184 206 218 204 220 224 238 246 252 238 246 252 238 246 252 224 236 239 
193 211 218 191 212 218 193 211 218 204 220 224 230 239 249 238 246 252 238 246 252 230 239 249 
175 197 204 147 176 186 147 182 191 155 184 190 97 113 122 31 33 37 37 37 42 36 37 42 
36 37 41 37 37 42 37 37 42 37 38 42 37 37 42 37 37 42 38 37 44 38 37 44 
38 37 44 37 36 43 37 36 43 37 37 42 38 40 44 38 40 44 36 39 42 34 38 43 
35 39 44 35 39 44 35 39 44 35 39 44 37 38 43 38 39 43 38 40 44 38 40 44 
38 40 44 38 40 44 38 40 44 39 41 45 39 41 45 39 41 45 39 41 45 39 41 45 
39 41 45 39 41 45 39 41 45 39 41 45 39 41 45 39 41 45 39 41 45 39 41 45 
39 41 45 39 41 45 39 41 45 39 41 45 39 41 45 39 41 45 39 41 45 39 41 45 
39 41 45 39 41 45 39 41 45 39 41 45 39 41 45 39 41 45 39 41 45 39 41 45 
39 41 45 39 41 45 39 41 45 40 42 46 39 41 45 39 41 45 39 41 45 39 41 45 
39 41 45 39 41 45 40 42 46 40 42 46 40 42 46 40 42 46 40 42 46 40 42 46 
40 42 46 40 42 46 40 42 46 40 42 46 40 42 46 40 42 46 40 42 46 40 42 46 
40 42 46 40 42 46 39 41 45 40 42 46 
39 41 45 38 40 44 38 40 44 38 40 44 38 40 44 39 40 44 41 40 45 41 40 45 
41 40 45 41 40 45 41 40 45 41 40 46 41 40 46 41 40 46 39 41 46 39 41 45 
39 41 45 39 41 45 39 41 45 39 41 45 39 41 45 39 41 45 39 41 45 39 41 45 
39 41 45 39 41 45 39 41 45 39 41 45 39 41 45 39 41 45 39 41 45 39 41 45 
38 40 44 39 41 45 39 41 45 39 41 45 38 40 44 38 40 44 39 41 45 39 41 45 
39 41 45 39 41 45 39 41 45 39 41 45 39 41 45 39 41 45 39 41 45 39 41 45 
39 41 45 39 41 45 39 41 45 39 41 45 39 41 45 39 41 45 39 41 45 39 41 45 
39 41 45 39 41 45 39 41 45 38 40 44 38 40 44 38 40 44 39 41 45 39 41 45 
39 41 45 39 41 45 39 41 45 39 41 45 39 41 45 39 41 45 39 41 45 38 41 45 
36 40 46 36 40 46 36 40 46 36 40 46 36 40 46 36 40 46 36 40 46 36 40 46 
36 40 46 36 40 46 36 40 46 35 39 45 33 37 43 97 113 122 147 181 186 147 181 186 
147 180 183 175 197 204 245 247 252 238 246 252 238 246 252 230 239 249 193 211 218 191 208 219 
191 208 219 198 211 221 224 236 239 238 246 252 213 225 229 193 211 218 220 237 237 238 246 252 
238 246 252 238 246 252 209 224 232 147 176 186 147 182 191 147 182 191 137 160 165 59 51 57 
34 32 40 34 33 43 60 64 71 147 165 171 161 189 201 155 184 190 155 184 190 191 212 218 
214 232 236 218 232 236 220 231 236 198 211 221 153 177 190 147 176 186 147 176 186 173 188 188 
227 220 211 240 224 218 240 224 218 238 224 211 237 221 211 237 221 211 237 221 211 237 221 211 
237 221 211 237 221 211 237 221 211 237 221 211 237 221 211 237 221 211 235 220 211 237 221 211 
237 221 211 235 220 211 237 221 211 237 221 211 238 220 208 235 220 211 235 220 211 235 220 211 
235 220 211 235 220 211 237 221 211 237 221 211 237 221 211 235 220 211 235 220 211 237 221 211 
238 224 211 238 222 213 238 222 213 238 222 213 238 220 208 237 221 211 238 222 213 240 224 218 
240 224 218 227 220 211 173 188 188 147 176 186 147 176 186 153 177 190 191 212 218 214 232 236 
214 232 236 214 232 236 193 211 218 155 184 190 161 189 201 161 189 201 147 165 171 41 46 52 
33 33 43 28 35 39 91 77 82 198 197 196 245 247 252 238 246 252 238 246 252 213 225 229 
193 211 218 191 208 219 184 206 218 204 220 224 238 246 252 238 246 252 238 246 252 224 236 239 
193 211 218 191 208 219 191 208 219 198 211 221 230 239 249 238 246 252 238 246 252 238 246 252 
175 197 204 147 176 186 147 182 191 155 184 190 97 113 122 31 33 37 38 39 43 38 39 43 
37 38 42 36 37 41 36 37 42 37 38 43 37 37 44 38 38 44 38 37 44 38 37 44 
37 36 43 38 37 44 37 36 43 37 37 42 37 39 43 37 39 43 37 38 43 37 38 43 
38 38 44 37 38 43 37 37 42 37 38 43 38 39 44 38 40 44 38 40 44 37 39 43 
37 39 43 37 39 43 38 40 44 39 41 45 39 41 45 39 41 45 39 41 45 40 42 46 
39 41 45 39 41 45 39 41 45 39 41 45 39 41 45 39 41 45 39 41 45 39 41 45 
39 41 45 39 41 45 39 41 45 39 41 45 39 41 45 39 41 45 39 41 45 39 41 45 
39 41 45 39 41 45 39 41 45 39 41 45 39 41 45 39 41 45 39 41 45 39 41 45 
39 41 45 39 41 45 39 41 45 39 41 45 39 41 45 39 41 45 39 41 45 39 41 45 
39 41 45 39 41 45 40 42 46 40 42 46 40 42 46 39 41 45 39 41 45 40 42 46 
40 42 46 40 42 46 40 42 46 40 42 46 40 42 46 40 42 46 40 42 46 40 42 46 
40 42 46 40 42 46 39 41 45 40 42 46 
39 41 45 38 40 44 38 40 44 38 40 44 38 40 44 38 40 44 38 39 44 41 40 45 
41 40 45 41 40 45 41 40 45 39 40 46 39 40 46 39 40 46 39 41 46 39 41 45 
39 41 45 39 41 45 39 41 45 39 41 45 39 41 45 39 41 45 39 41 45 39 41 45 
39 41 45 39 41 45 39 41 45 39 41 45 39 41 45 39 41 45 39 41 45 39 41 45 
38 40 44 39 41 45 39 41 45 39 41 45 38 40 44 38 40 44 39 41 45 39 41 45 
39 41 45 39 41 45 39 41 45 39 41 45 39 41 45 39 41 45 39 41 45 39 41 45 
39 41 45 39 41 45 39 41 45 39 41 45 39 41 45 39 41 45 39 41 45 39 41 45 
39 41 45 39 41 45 39 41 45 38 39 43 37 39 43 38 40 44 39 41 45 39 41 45 
39 41 45 39 41 45 39 41 45 39 41 45 39 41 45 39 41 45 39 41 45 38 41 45 
37 40 46 37 40 46 37 40 46 37 40 46 37 40 46 37 40 46 36 40 46 36 40 46 
36 40 46 36 40 46 36 40 46 35 39 45 33 37 43 97 113 122 147 180 183 147 181 186 
147 180 183 175 197 204 218 232 236 218 232 236 214 232 236 218 230 232 218 230 232 214 231 232 
218 230 232 220 231 236 230 239 249 238 246 252 224 236 239 214 232 236 210 230 230 213 225 229 
214 231 232 218 232 236 193 211 218 147 176 186 147 182 191 147 182 191 137 160 165 60 64 71 
35 34 40 37 37 44 41 46 52 97 113 122 97 113 122 97 113 122 97 113 122 147 176 186 
184 206 218 184 200 204 184 206 218 184 206 218 184 206 218 184 206 218 184 200 204 184 200 204 
191 208 219 198 197 196 198 197 196 198 197 196 227 220 211 237 221 211 235 220 211 237 221 211 
237 221 211 237 221 211 237 221 211 237 221 211 235 220 211 238 220 208 238 220 208 237 221 211 
238 224 211 237 221 211 237 221 211 237 221 211 235 220 211 238 222 213 235 220 211 235 220 211 
237 221 211 237 221 211 237 221 211 237 221 211 237 221 211 237 221 211 237 221 211 235 220 211 
235 220 211 237 221 211 237 221 211 238 222 213 237 221 211 227 220 211 198 197 196 198 197 196 
198 197 196 198 197 196 184 200 204 184 200 204 184 200 204 184 206 218 184 206 218 184 200 204 
184 200 204 184 206 218 147 165 171 97 113 122 97 113 122 97 113 122 97 113 122 41 46 52 
35 36 48 32 33 43 60 64 71 153 177 190 193 212 222 191 212 218 191 212 218 209 224 225 
218 230 232 214 232 236 214 231 232 224 236 239 238 246 252 238 246 252 238 246 252 230 239 249 
218 230 232 213 225 229 213 225 229 216 230 230 213 225 229 214 231 232 214 232 236 214 232 236 
175 197 204 147 176 186 147 181 186 155 184 190 97 113 122 31 33 37 39 40 46 38 40 45 
37 38 42 36 37 41 37 39 44 38 40 47 38 40 47 39 40 47 38 37 44 38 37 44 
36 35 41 38 37 44 36 35 41 36 35 42 37 37 42 37 38 42 37 38 43 38 37 44 
38 38 44 38 37 44 37 37 42 38 37 44 38 39 44 38 40 44 38 40 44 37 38 42 
37 38 42 37 38 42 37 39 43 39 41 45 39 41 45 39 41 45 39 41 45 39 41 45 
39 41 45 39 41 45 39 41 45 39 41 45 39 41 45 39 41 45 39 41 45 39 41 45 
39 41 45 39 41 45 39 41 45 39 41 45 39 41 45 39 41 45 39 41 45 39 41 45 
39 41 45 39 41 45 39 41 45 39 41 45 39 41 45 39 41 45 39 41 45 39 41 45 
39 41 45 39 41 45 39 41 45 39 41 45 39 41 45 39 41 45 39 41 45 39 41 45 
39 41 45 39 41 45 40 42 46 40 42 46 40 42 46 39 41 45 39 41 45 40 42 46 
40 42 46 40 42 46 40 42 46 40 42 46 40 42 46 40 42 46 40 42 46 40 42 46 
40 42 46 40 42 46 39 41 45 40 42 46 
39 41 45 39 41 45 39 41 45 39 41 45 39 41 45 39 41 45 39 41 45 39 41 45 
39 41 45 39 41 45 39 41 45 39 41 45 39 41 45 39 41 45 39 41 45 39 41 45 
40 42 46 39 41 45 39 41 45 39 41 45 39 41 45 39 41 45 39 41 45 39 41 45 
39 41 45 39 41 45 39 41 45 39 41 45 39 41 45 39 41 45 39 41 45 39 41 45 
39 41 45 39 41 45 39 41 45 38 40 44 39 41 45 39 41 45 39 41 45 39 41 45 
39 41 45 39 41 45 39 41 45 39 41 45 39 41 45 39 41 45 39 41 45 39 41 45 
39 41 45 39 41 45 39 41 45 39 41 45 39 41 45 39 41 45 39 41 45 39 41 45 
39 41 45 39 41 45 39 40 44 37 38 42 39 41 45 39 41 45 39 41 45 39 41 45 
39 41 45 39 41 45 39 41 45 39 41 45 39 41 45 39 41 45 39 41 45 39 41 45 
39 41 45 39 41 45 39 41 45 39 41 45 39 41 45 38 41 45 36 40 46 36 40 46 
36 40 46 36 40 46 36 40 46 35 39 45 33 37 43 97 113 122 147 180 183 147 181 186 
147 181 186 161 189 201 191 213 222 193 211 218 191 208 219 204 220 224 232 247 250 238 246 252 
238 246 252 238 246 252 238 246 252 238 246 252 238 246 252 238 246 252 209 224 232 191 212 218 
193 211 218 193 212 222 175 197 204 147 176 186 147 181 186 155 184 190 137 160 165 60 64 71 
36 35 42 39 41 46 39 41 46 39 42 45 39 42 45 39 42 45 26 35 43 97 113 122 
155 184 190 147 180 183 147 180 183 175 197 204 214 232 236 214 232 236 220 237 237 196 218 223 
155 184 190 147 176 186 147 180 183 170 178 190 227 220 211 238 222 213 238 222 213 235 220 211 
238 220 208 237 221 211 237 221 211 235 220 211 237 221 211 238 220 208 238 220 208 237 221 211 
238 222 213 238 222 213 238 222 213 238 222 213 238 222 213 238 222 213 237 221 211 237 221 211 
237 221 211 238 222 213 238 222 213 238 222 213 238 222 213 238 222 213 238 222 213 238 222 213 
238 222 213 235 220 211 235 220 211 238 222 213 238 222 213 227 220 211 170 178 190 147 180 183 
147 176 186 155 184 190 196 218 223 214 232 236 218 230 232 214 231 232 175 197 204 147 176 186 
147 176 186 155 184 190 97 113 122 34 38 48 37 41 46 38 42 47 37 41 46 37 40 46 
36 39 45 34 36 41 60 64 71 137 160 165 155 184 190 147 180 183 147 180 183 204 220 224 
232 247 250 238 246 252 238 246 252 238 246 252 238 246 252 238 246 252 238 246 252 238 246 252 
238 246 252 238 246 252 238 246 252 224 236 239 198 211 221 191 208 219 191 208 219 191 213 222 
161 189 201 147 181 186 147 181 186 147 181 186 97 113 122 32 33 43 38 40 47 38 38 49 
37 38 43 36 37 41 37 38 42 38 40 44 38 40 45 38 39 44 38 37 44 38 37 44 
38 37 44 37 38 42 36 37 41 36 37 42 38 37 44 38 37 44 38 37 44 38 37 44 
38 38 44 38 39 44 37 38 42 37 38 42 37 38 42 38 39 43 38 40 44 37 38 42 
37 38 42 37 38 42 37 39 43 39 41 45 39 41 45 39 41 45 39 41 45 39 41 45 
39 41 45 39 41 45 39 41 45 39 41 45 39 41 45 39 41 45 39 41 45 39 41 45 
39 41 45 39 41 45 39 41 45 39 41 45 39 41 45 39 41 45 39 41 45 39 41 45 
39 41 45 39 41 45 39 41 45 39 41 45 39 41 45 40 42 46 40 42 46 39 41 45 
39 41 45 39 41 45 39 41 45 39 41 45 39 41 45 39 41 45 40 42 46 39 41 45 
39 41 45 39 41 45 39 41 45 39 41 45 40 42 46 40 42 46 40 42 46 40 42 46 
40 42 46 40 42 46 40 42 46 40 42 46 40 42 46 40 42 46 40 42 46 40 42 46 
40 42 46 40 42 46 39 41 45 40 42 46 
39 41 45 39 41 45 38 40 44 39 41 45 39 41 45 39 41 45 39 41 45 39 41 45 
39 41 45 39 41 45 39 41 45 39 41 45 39 41 45 39 41 45 39 41 45 39 41 45 
39 41 45 39 41 45 39 41 45 39 41 45 39 41 45 39 41 45 39 41 45 39 41 45 
39 41 45 39 41 45 39 41 45 39 41 45 39 41 45 39 41 45 39 41 45 39 41 45 
39 41 45 39 41 45 39 41 45 39 41 45 39 41 45 39 41 45 39 41 45 39 41 45 
39 41 45 39 41 45 39 41 45 39 41 45 39 41 45 39 41 45 39 41 45 39 41 45 
39 41 45 39 41 45 39 41 45 39 41 45 39 41 45 39 41 45 39 41 45 39 41 45 
39 41 45 39 41 45 39 41 45 38 40 44 39 41 45 39 41 45 39 41 45 39 41 45 
39 41 45 39 41 45 39 41 45 39 41 45 39 41 45 39 41 45 39 41 45 39 41 45 
39 41 45 39 41 45 39 41 45 39 41 45 39 41 45 37 39 43 35 39 45 36 40 46 
36 40 46 36 40 46 36 40 46 36 40 46 35 39 45 97 113 122 147 180 183 147 181 186 
147 180 183 155 184 190 191 213 222 191 212 218 191 208 219 196 218 223 230 239 249 238 246 252 
238 246 252 238 246 252 238 246 252 238 246 252 238 246 252 238 246 252 209 224 232 191 212 218 
193 212 222 193 212 222 175 197 204 147 176 186 147 181 186 155 184 190 137 160 165 60 64 71 
37 37 42 39 41 45 39 41 45 39 41 45 38 40 44 37 38 42 26 31 37 97 113 122 
155 184 190 147 180 183 155 184 190 184 200 204 220 231 236 220 231 232 214 231 232 191 213 222 
155 184 190 147 176 186 147 176 189 170 178 190 227 220 211 238 222 213 238 222 213 237 221 211 
237 221 211 238 220 208 235 220 211 235 220 211 235 220 211 238 220 208 237 221 211 238 222 213 
238 222 213 238 222 213 237 221 211 238 222 213 238 222 213 238 222 213 238 222 213 237 221 211 
237 221 211 238 222 213 238 222 213 238 222 213 238 222 213 238 222 213 238 222 213 238 222 213 
238 222 213 237 221 211 237 221 211 238 222 213 238 222 213 227 220 211 155 184 190 147 181 186 
147 180 183 147 181 186 191 212 218 214 231 232 214 230 229 214 231 232 184 200 204 153 177 190 
147 180 183 155 184 190 97 113 122 27 36 45 33 37 42 33 37 42 33 37 42 36 40 45 
38 39 43 36 35 39 60 64 71 137 160 165 155 184 190 147 180 183 147 180 183 196 218 223 
230 239 249 238 246 252 238 246 252 238 246 252 238 246 252 238 246 252 238 246 252 238 246 252 
238 246 252 230 239 249 238 246 252 230 239 249 198 211 221 184 206 218 191 212 218 191 213 222 
161 189 201 147 176 186 147 181 186 147 181 186 97 113 122 34 32 40 38 38 49 38 38 49 
36 37 42 37 39 42 38 39 43 38 39 43 38 39 43 38 39 44 38 37 44 38 37 44 
38 37 44 38 38 46 37 37 44 39 40 46 38 37 44 38 37 44 38 37 44 38 37 44 
38 37 44 37 38 43 38 39 43 37 39 43 38 39 43 38 40 44 38 40 44 38 39 43 
38 40 44 38 40 44 38 40 44 39 41 45 39 41 45 39 41 45 39 41 45 39 41 45 
39 42 45 39 40 44 39 40 46 38 40 47 38 38 46 38 40 45 39 41 45 39 41 45 
39 41 45 39 41 45 39 41 45 39 41 45 39 41 45 39 41 45 39 41 45 39 41 45 
39 41 45 39 41 45 39 41 45 39 41 45 39 41 45 39 41 45 39 41 45 39 41 45 
39 41 45 39 41 45 39 41 45 39 41 45 39 41 45 39 41 45 39 41 45 39 41 45 
39 41 45 39 41 45 39 41 45 39 41 45 39 41 45 39 41 45 39 41 45 40 42 46 
40 42 46 40 42 46 40 42 46 40 42 46 40 42 46 40 42 46 40 42 46 40 42 46 
40 42 46 40 42 46 39 41 45 40 42 46 
39 41 45 39 41 45 38 40 44 39 41 45 39 41 45 39 41 45 39 41 45 39 41 45 
39 41 45 39 41 45 39 41 45 40 42 46 40 42 46 39 41 45 39 41 45 39 41 45 
39 41 45 39 41 45 39 41 45 39 41 45 39 41 45 39 41 45 39 41 45 39 41 45 
39 41 45 39 41 45 39 41 45 39 41 45 39 41 45 39 41 45 39 41 45 39 41 45 
39 41 45 39 41 45 39 41 45 39 41 45 39 41 45 39 41 45 39 41 45 39 41 45 
39 41 45 39 41 45 39 41 45 39 41 45 39 41 45 39 41 45 39 41 45 39 41 45 
39 41 45 39 41 45 39 41 45 39 41 45 39 41 45 39 41 45 39 41 45 39 41 45 
39 41 45 39 41 45 39 41 45 39 41 45 39 41 45 39 41 45 39 41 45 39 41 45 
39 41 45 39 41 45 39 41 45 39 41 45 39 41 45 39 41 45 39 41 45 39 41 45 
39 41 45 39 41 45 39 41 45 39 41 45 39 41 45 37 38 43 35 39 45 36 40 46 
36 40 46 36 40 46 36 40 46 36 40 46 34 38 44 97 113 122 147 181 186 147 181 186 
147 176 186 155 184 190 191 212 218 191 212 218 191 212 218 196 218 223 232 247 250 238 246 252 
238 246 252 238 246 252 238 246 252 238 246 252 238 246 252 238 246 252 213 225 229 193 211 218 
193 211 218 193 212 222 175 197 204 147 176 186 147 181 186 155 184 190 137 160 165 60 64 71 
36 37 42 39 41 45 38 39 43 38 39 43 38 39 43 37 38 42 26 31 37 97 113 122 
161 189 201 155 184 190 161 189 201 184 206 218 218 230 232 214 230 229 214 231 232 196 218 223 
161 189 201 155 184 190 155 184 190 170 178 190 227 220 211 238 222 213 238 222 213 238 222 213 
237 221 211 237 221 211 237 221 211 237 221 211 237 221 211 237 221 211 237 221 211 238 222 213 
238 222 213 238 222 213 237 221 211 235 220 211 238 222 213 238 222 213 238 222 213 237 221 211 
237 221 211 238 222 213 238 222 213 238 222 213 238 222 213 238 222 213 238 222 213 238 222 213 
238 222 213 238 222 213 238 222 213 238 222 213 240 224 218 227 220 211 155 184 190 155 184 190 
155 184 190 161 189 201 196 218 223 214 231 232 214 231 232 214 231 232 184 206 218 155 184 190 
155 184 190 161 189 201 97 113 122 27 36 45 35 38 43 33 38 43 34 38 44 36 40 45 
37 41 46 34 38 44 60 64 71 137 160 165 155 184 190 147 176 186 147 176 186 204 220 224 
232 247 250 238 246 252 238 246 252 238 246 252 238 246 252 238 246 252 238 246 252 238 246 252 
238 246 252 238 246 252 238 246 252 224 236 239 198 211 221 184 206 218 191 212 218 191 213 222 
155 184 190 147 176 186 147 176 186 147 181 186 97 113 122 34 32 40 38 38 49 38 38 49 
37 39 44 37 39 43 37 39 43 38 39 43 38 40 44 38 39 44 38 37 44 38 37 44 
36 35 42 37 37 44 35 36 45 38 36 46 38 36 44 38 37 44 38 37 44 38 37 44 
38 37 44 36 37 41 37 39 42 38 40 44 38 40 44 38 40 44 38 40 44 38 39 43 
39 41 45 39 41 45 39 41 45 39 41 45 39 41 45 39 41 45 39 41 45 39 41 45 
39 41 45 38 40 44 39 40 46 38 40 47 38 40 47 38 40 45 39 41 45 39 41 45 
39 41 45 39 41 45 39 41 45 39 41 45 39 41 45 39 41 45 39 41 45 39 41 45 
39 41 45 39 41 45 39 41 45 39 41 45 39 41 45 39 41 45 39 41 45 39 41 45 
39 41 45 39 41 45 39 41 45 39 41 45 39 41 45 39 41 45 39 41 45 39 41 45 
39 41 45 39 41 45 39 41 45 39 41 45 39 41 45 39 41 45 39 41 45 40 42 46 
40 42 46 40 42 46 40 42 46 40 42 46 40 42 46 40 42 46 40 42 46 40 42 46 
40 42 46 40 42 46 39 41 45 39 41 45 
38 40 44 38 40 44 38 40 44 39 41 45 39 41 45 39 41 45 39 41 45 39 41 45 
39 41 45 39 41 45 39 41 45 39 41 45 39 41 45 39 41 45 39 41 45 39 41 45 
39 41 45 39 41 45 39 41 45 39 41 45 39 41 45 39 41 45 39 41 45 39 41 45 
39 41 45 39 41 45 39 41 45 39 41 45 39 41 45 39 41 45 39 41 45 39 41 45 
39 41 45 39 41 45 39 41 45 39 41 45 39 41 45 39 41 45 39 41 45 39 41 45 
39 41 45 39 41 45 39 41 45 39 41 45 39 41 45 39 41 45 39 41 45 39 41 45 
39 41 45 39 41 45 39 41 45 39 41 45 39 41 45 39 41 45 39 41 45 39 41 45 
39 41 45 39 41 45 39 41 45 39 41 45 39 41 45 39 41 45 39 41 45 39 41 45 
39 41 45 39 41 45 39 41 45 39 41 45 39 41 45 39 41 45 39 41 45 39 41 45 
39 41 45 39 41 45 39 41 45 39 41 45 39 41 45 39 41 45 38 41 47 37 40 46 
36 40 46 36 40 46 36 40 46 35 39 45 33 37 43 97 113 122 147 180 183 147 181 186 
147 176 186 161 189 201 209 224 232 204 220 224 204 220 224 209 224 232 220 237 237 224 236 239 
224 236 239 224 236 239 232 247 250 238 246 252 230 239 249 224 236 239 213 225 229 209 224 225 
204 220 224 209 224 225 191 208 219 153 177 190 147 181 186 155 184 190 137 160 165 60 64 71 
34 36 40 39 41 45 38 40 44 37 38 43 38 38 46 38 38 46 32 35 41 97 113 122 
137 160 165 137 160 165 137 160 165 147 180 183 191 212 218 191 212 218 196 218 223 184 200 204 
137 160 165 137 160 165 137 160 165 137 160 165 220 204 201 227 220 211 227 220 211 227 220 211 
235 220 211 238 222 213 237 221 211 238 222 213 238 222 213 238 222 213 238 222 213 238 222 213 
238 222 213 238 222 213 238 222 213 238 222 213 238 222 213 238 222 213 238 222 213 238 222 213 
238 222 213 238 222 213 238 222 213 238 222 213 237 221 211 237 221 211 238 222 213 238 222 213 
238 222 213 235 220 211 227 220 211 220 204 201 238 220 208 220 204 201 137 160 165 137 160 165 
137 160 165 137 160 165 184 200 204 204 220 224 193 212 222 191 208 219 147 176 186 137 160 165 
137 160 165 137 160 165 97 113 122 35 39 45 36 40 45 36 40 45 36 40 46 36 40 46 
35 39 45 32 33 43 60 64 71 147 165 171 184 200 204 184 200 204 175 197 204 204 220 224 
224 236 239 224 236 239 224 236 239 230 239 249 238 246 252 238 246 252 238 246 252 230 239 249 
224 236 239 224 236 239 224 236 239 220 231 236 209 224 225 204 220 224 204 220 224 204 220 224 
161 189 201 147 176 186 147 180 183 155 184 190 97 113 122 34 32 40 38 36 49 38 36 49 
38 39 44 37 39 42 36 38 42 36 38 42 35 37 41 35 35 40 35 34 40 36 35 42 
36 35 42 37 38 42 35 36 41 36 35 42 37 36 43 38 37 44 38 37 44 38 37 44 
38 37 44 36 37 42 37 38 42 38 39 43 38 40 44 38 40 44 38 40 44 38 39 43 
39 41 45 39 41 45 39 41 45 39 41 45 38 40 44 39 41 45 39 41 45 39 41 45 
39 41 45 39 40 44 39 41 45 39 41 45 39 41 45 39 41 45 39 41 45 39 41 45 
39 41 45 39 41 45 39 41 45 39 41 45 39 41 45 39 41 45 39 41 45 39 41 45 
39 41 45 39 41 45 39 41 45 39 41 45 39 41 45 39 41 45 39 41 45 39 41 45 
39 41 45 39 41 45 39 41 45 39 41 45 39 41 45 39 41 45 39 41 45 39 41 45 
39 41 45 39 41 45 39 41 45 39 41 45 39 41 45 40 42 46 40 42 46 40 42 46 
40 42 46 40 42 46 40 42 46 40 42 46 40 42 46 40 42 46 40 42 46 40 42 46 
39 41 45 39 41 45 40 42 46 39 40 44 
39 41 45 39 41 45 38 39 43 38 40 44 38 40 44 39 41 45 39 41 45 39 41 45 
39 41 45 39 41 45 39 41 45 39 41 45 39 41 45 39 41 45 39 41 45 39 41 45 
39 41 45 39 41 45 39 41 45 39 41 45 39 41 45 39 41 45 39 41 45 39 41 45 
39 41 45 39 41 45 39 41 45 39 41 45 39 41 45 39 41 45 39 41 45 39 41 45 
38 40 44 39 41 45 39 41 45 39 41 45 39 41 45 39 41 45 39 41 45 39 41 45 
39 41 45 39 41 45 39 41 45 39 41 45 39 41 45 39 41 45 39 41 45 39 41 45 
39 41 45 39 41 45 39 41 45 39 41 45 39 41 45 39 41 45 39 41 45 39 41 45 
39 41 45 38 40 44 39 41 45 39 41 45 39 41 45 39 41 45 39 41 45 39 41 45 
38 40 44 39 40 44 39 41 45 39 41 45 38 40 44 38 40 44 39 41 45 39 41 45 
39 41 45 39 41 45 40 42 46 38 40 44 39 41 45 39 41 45 37 40 46 36 40 46 
36 40 46 36 40 46 36 40 46 35 39 45 34 36 45 97 113 122 147 176 186 147 176 186 
147 176 186 184 200 204 245 247 252 238 246 252 238 246 252 230 239 249 193 211 218 191 208 219 
193 211 218 198 211 221 230 239 249 238 246 252 209 224 225 191 208 219 220 231 236 238 246 252 
238 246 252 238 246 252 209 224 232 147 176 186 147 181 186 155 184 190 137 160 165 60 64 71 
33 35 40 38 38 46 38 38 46 38 38 49 38 36 49 38 36 49 38 38 49 36 39 46 
35 38 44 34 36 45 27 36 45 97 113 122 153 177 190 153 177 190 155 184 190 137 160 165 
60 64 71 32 33 43 26 35 43 59 51 57 205 158 163 211 189 184 211 189 184 211 189 184 
220 204 201 238 222 213 237 221 211 238 222 213 238 222 213 238 222 213 238 222 213 238 222 213 
238 222 213 238 222 213 238 222 213 238 222 213 238 222 213 237 221 211 237 221 211 237 221 211 
237 221 211 237 221 211 237 221 211 237 221 211 237 221 211 237 221 211 238 222 213 235 220 211 
238 222 213 220 204 201 211 189 184 211 189 184 211 189 184 171 159 166 41 46 52 26 35 43 
26 35 43 60 64 71 137 160 165 161 189 201 153 177 190 147 176 186 97 113 122 33 37 43 
34 36 45 35 36 48 38 40 47 38 41 47 36 40 45 36 40 45 36 40 46 36 40 45 
34 38 43 26 31 37 91 77 82 198 197 196 245 247 252 238 246 252 238 246 252 209 224 232 
191 208 219 191 208 219 191 208 219 209 224 232 238 246 252 238 246 252 238 246 252 224 236 239 
198 211 221 191 208 219 193 211 218 198 211 221 230 239 249 238 246 252 238 246 252 238 246 252 
184 200 204 147 176 186 147 180 183 153 177 190 97 113 122 32 29 37 37 35 44 37 36 43 
37 38 43 37 38 42 36 37 41 36 37 41 36 37 41 36 35 41 37 37 42 37 36 43 
37 37 42 35 36 40 37 39 43 37 39 44 37 38 43 37 38 43 37 38 43 36 39 44 
37 39 44 36 38 43 36 37 41 37 38 42 37 38 42 36 38 42 38 40 44 38 40 44 
38 39 43 38 40 44 39 41 45 39 41 45 39 41 45 39 41 45 39 41 45 39 41 45 
39 41 45 38 40 44 38 41 44 39 40 44 39 40 44 39 41 45 39 41 45 39 41 45 
39 41 45 39 41 45 39 41 45 39 41 45 39 41 45 39 41 45 39 41 45 39 41 45 
39 41 45 39 41 45 39 41 45 39 41 45 39 41 45 39 41 45 39 41 45 39 41 45 
39 41 45 39 41 45 39 41 45 39 41 45 39 41 45 39 41 45 39 41 45 39 41 45 
39 41 45 39 41 45 39 41 45 39 41 45 39 41 45 40 42 46 40 42 46 39 41 45 
40 42 46 40 42 46 40 42 46 40 42 46 40 42 46 40 42 46 40 42 46 40 42 46 
40 42 46 40 42 46 39 42 45 41 40 45 
39 41 45 39 41 45 38 39 43 37 39 43 38 40 44 39 41 45 39 41 45 39 41 45 
39 41 45 39 41 45 39 41 45 39 41 45 39 41 45 39 41 45 39 41 45 39 41 45 
39 41 45 39 41 45 39 41 45 39 41 45 39 41 45 39 41 45 39 41 45 39 41 45 
39 41 45 39 41 45 39 41 45 39 41 45 39 41 45 39 41 45 39 41 45 39 41 45 
38 40 44 39 41 45 39 41 45 39 41 45 39 41 45 39 41 45 39 41 45 39 41 45 
39 41 45 39 41 45 39 41 45 39 41 45 39 41 45 39 41 45 39 41 45 39 41 45 
39 41 45 39 41 45 39 41 45 39 41 45 39 41 45 39 41 45 39 41 45 39 41 45 
39 41 45 38 40 44 39 41 45 39 41 45 39 41 45 39 41 45 39 41 45 39 41 45 
38 40 44 39 41 45 39 41 45 39 41 45 39 41 45 39 40 44 39 40 44 39 41 45 
39 41 45 39 41 45 39 41 45 39 41 45 39 41 45 39 41 45 37 40 46 37 40 46 
36 40 46 36 40 46 36 40 46 35 38 48 34 38 48 97 113 122 147 176 186 147 176 186 
147 176 186 184 200 204 245 247 252 238 246 252 238 246 252 230 239 249 193 212 222 191 208 219 
193 211 218 198 211 221 224 236 239 238 246 252 209 224 232 193 211 218 224 236 239 238 246 252 
238 246 252 238 246 252 209 224 232 147 176 186 147 182 191 155 184 190 137 160 165 60 64 71 
33 34 40 38 38 46 38 36 49 38 38 49 38 38 49 38 36 49 35 36 48 35 36 45 
34 36 40 35 34 40 35 36 48 97 113 122 155 184 190 155 184 190 155 184 190 137 160 165 
60 64 71 33 33 43 32 33 43 59 51 57 171 159 166 211 189 184 211 189 184 211 189 184 
220 204 201 240 224 218 238 222 213 238 222 213 238 222 213 238 222 213 238 222 213 238 222 213 
238 222 213 238 222 213 238 222 213 238 222 213 238 222 213 238 222 213 238 222 213 235 220 211 
237 221 211 237 221 211 237 221 211 237 221 211 237 221 211 237 221 211 235 220 211 235 220 211 
238 222 213 220 204 201 211 189 184 211 189 184 211 189 184 171 159 166 41 46 52 32 33 43 
34 36 45 60 64 71 137 160 165 161 189 201 155 184 190 153 177 190 97 113 122 34 38 44 
34 36 40 36 39 45 36 39 46 36 40 46 36 40 45 36 40 45 36 40 46 36 40 46 
34 38 44 26 31 37 60 64 71 198 197 196 245 247 252 238 246 252 238 246 252 209 224 232 
191 208 219 191 208 219 191 208 219 209 224 232 238 246 252 238 246 252 238 246 252 224 236 239 
198 211 221 191 212 218 191 208 219 198 211 221 224 236 239 238 246 252 238 246 252 238 246 252 
184 200 204 153 177 190 147 180 183 147 182 191 97 113 122 31 33 37 36 35 42 36 35 41 
37 37 42 36 35 41 36 35 41 37 37 42 37 38 43 38 37 44 38 37 44 38 37 44 
37 37 42 35 36 40 36 37 41 36 38 42 36 39 42 36 39 44 35 39 44 34 39 43 
35 39 44 37 39 43 37 38 42 37 38 42 37 38 42 36 38 42 38 40 44 38 40 44 
37 39 43 38 40 44 39 41 45 39 41 45 39 41 45 39 41 45 39 41 45 39 41 45 
39 41 45 39 41 45 38 40 44 39 41 45 39 41 45 39 41 45 39 41 45 39 41 45 
39 41 45 39 41 45 39 41 45 39 41 45 39 41 45 39 41 45 39 41 45 39 41 45 
39 41 45 39 41 45 39 41 45 39 41 45 39 41 45 39 41 45 39 41 45 39 41 45 
39 41 45 39 41 45 39 41 45 39 41 45 39 41 45 39 41 46 39 41 46 39 41 45 
39 41 45 39 41 45 39 41 45 39 41 45 39 41 45 40 42 46 40 42 46 39 41 45 
40 42 46 40 42 46 40 42 46 40 42 46 40 42 46 40 42 46 40 42 46 40 42 46 
40 42 46 40 42 46 39 41 45 41 40 46 
39 41 45 38 40 44 38 40 44 38 40 44 38 40 44 38 40 44 39 41 45 39 41 45 
39 41 45 39 41 45 39 41 45 39 41 45 39 41 45 39 41 45 39 41 45 39 41 45 
39 41 45 39 41 45 39 41 45 39 41 45 39 41 45 39 41 45 38 41 45 38 39 43 
38 39 43 38 40 44 39 41 45 39 41 45 39 41 45 39 41 45 39 41 45 39 41 45 
39 41 45 39 41 45 39 41 45 39 41 45 39 41 45 39 41 45 39 41 45 39 41 45 
39 41 45 39 41 45 39 41 45 39 41 45 39 41 45 39 41 45 39 41 45 39 41 45 
39 41 45 39 41 45 39 41 45 39 41 45 39 41 45 39 41 45 39 41 45 39 41 45 
39 41 45 39 41 45 39 41 45 39 41 45 39 41 45 39 41 45 39 41 45 39 41 45 
39 41 45 39 41 45 39 41 45 39 40 44 39 40 44 39 40 44 38 40 44 38 40 44 
39 40 44 39 41 45 39 41 45 39 41 45 39 41 45 39 41 45 39 41 45 39 41 45 
38 40 45 36 40 46 36 40 46 35 40 47 34 36 45 97 113 122 155 184 190 155 184 190 
153 177 190 184 200 204 245 247 252 238 246 252 238 246 252 230 239 249 193 212 222 191 208 219 
193 211 218 198 211 221 224 236 239 238 246 252 209 224 225 193 211 218 224 236 239 238 246 252 
238 246 252 238 246 252 209 224 225 147 176 186 147 182 191 155 184 190 137 160 165 60 64 71 
33 34 40 38 38 46 38 36 49 38 38 49 38 38 49 38 38 49 38 38 46 38 38 49 
38 36 46 35 36 48 40 38 49 97 113 122 155 184 190 155 184 190 155 184 190 137 160 165 
60 64 71 32 33 43 32 33 43 59 51 57 171 159 166 211 189 184 211 189 184 211 189 184 
220 204 201 240 224 218 240 224 218 240 224 218 240 224 218 240 224 218 240 224 218 240 224 218 
240 224 218 240 224 218 240 224 218 240 224 218 240 224 218 240 224 218 240 224 218 240 224 218 
240 224 218 240 224 218 240 224 218 240 224 218 240 224 218 240 224 218 240 224 218 240 224 218 
240 224 218 227 220 211 211 189 184 211 189 184 211 189 184 171 159 166 41 40 46 31 35 39 
32 33 43 60 64 71 137 160 165 161 189 201 155 184 190 155 184 190 97 113 122 36 41 44 
34 38 41 36 40 46 36 40 46 35 39 44 36 40 46 36 40 46 36 40 46 35 39 45 
34 36 45 32 33 43 91 77 82 198 197 196 245 247 252 238 246 252 238 246 252 209 224 232 
191 208 219 191 208 219 191 208 219 209 224 232 238 246 252 238 246 252 238 246 252 224 236 239 
198 211 221 193 211 218 191 212 218 198 211 221 224 236 239 245 247 252 238 246 252 238 246 252 
184 200 204 153 177 190 147 181 186 155 184 190 97 113 122 32 33 43 38 37 44 37 37 42 
37 37 42 37 36 43 37 36 43 36 35 42 37 36 43 37 36 43 37 36 43 37 36 43 
37 37 42 35 36 41 35 36 40 35 35 40 36 38 42 38 40 44 37 40 44 36 39 45 
37 39 44 37 39 43 37 39 43 37 39 43 37 38 42 37 39 43 37 39 43 38 39 43 
38 40 44 38 39 43 39 41 45 39 41 45 39 41 45 39 41 45 39 41 45 39 41 45 
39 41 45 39 41 45 39 41 45 39 41 45 39 41 45 39 41 45 39 41 45 39 41 45 
39 41 45 39 41 45 39 41 45 39 41 45 39 41 45 39 41 45 39 41 45 39 41 45 
39 41 45 39 41 45 39 41 45 39 41 45 39 41 45 39 41 45 39 41 45 39 41 45 
39 41 45 39 41 45 39 41 45 39 41 45 39 41 46 38 41 47 38 41 47 39 41 46 
39 41 45 39 41 45 39 41 45 39 41 45 40 42 46 39 41 45 39 41 45 39 41 45 
39 41 45 40 42 46 40 42 46 40 42 46 40 42 46 40 42 46 40 42 46 40 42 46 
40 42 46 40 42 46 40 42 46 40 42 46 
39 41 45 39 41 45 39 41 45 38 40 44 38 40 44 38 40 44 39 41 45 39 41 45 
39 41 45 39 41 45 39 41 45 39 41 45 39 41 45 39 41 45 39 41 45 39 41 45 
39 41 45 39 41 45 39 41 45 39 41 45 39 41 45 39 41 45 38 40 44 38 39 43 
37 38 42 38 39 43 39 41 45 39 41 45 39 41 45 39 41 45 39 41 45 39 41 45 
39 41 45 39 41 45 39 41 45 39 40 44 39 41 45 39 41 45 39 41 45 39 41 45 
39 41 45 39 41 45 39 41 45 39 41 45 39 41 45 39 41 45 39 41 45 39 41 45 
39 41 45 39 41 45 39 41 45 39 41 45 39 41 45 39 41 45 39 41 45 39 41 45 
39 41 45 39 41 45 39 41 45 39 41 45 39 41 45 39 41 45 39 41 45 39 41 45 
39 41 45 39 41 45 39 41 45 39 41 45 39 41 45 39 41 45 39 41 45 39 41 45 
38 40 44 39 41 45 39 41 45 39 41 45 39 41 45 39 41 45 38 40 44 38 39 43 
37 39 43 35 39 45 36 40 46 35 40 45 33 37 43 97 113 122 137 160 165 147 165 171 
137 160 165 170 178 190 224 236 239 224 236 239 224 236 239 218 230 232 204 220 224 204 220 224 
204 220 224 213 225 229 230 239 249 238 246 252 213 225 229 198 211 221 214 231 232 230 239 249 
230 239 249 230 239 249 196 218 223 147 176 186 147 182 191 155 184 190 137 160 165 60 64 71 
34 36 40 37 39 44 37 37 44 35 36 45 38 38 46 38 40 47 38 38 49 38 38 49 
38 36 49 35 36 48 38 40 49 91 77 82 137 160 165 137 160 165 137 160 165 97 113 122 
59 51 57 35 35 43 32 35 42 59 51 57 171 159 166 171 159 166 171 159 166 171 159 166 
211 189 184 211 189 184 211 189 184 211 189 184 211 189 184 211 189 184 211 189 184 211 189 184 
211 189 184 211 189 184 211 189 184 211 189 184 211 189 184 211 189 184 211 189 184 211 189 184 
211 189 184 211 189 184 211 189 184 211 189 184 211 189 184 211 189 184 211 189 184 211 189 184 
211 189 184 211 189 184 171 159 166 171 159 166 171 159 166 171 159 166 41 46 52 32 35 41 
32 33 43 59 51 57 97 113 122 147 165 171 137 160 165 137 160 165 97 113 122 35 40 45 
35 39 42 36 40 46 36 40 46 36 40 45 36 40 46 36 40 46 36 40 45 34 38 43 
34 36 45 32 33 43 91 77 82 173 188 188 224 236 239 218 232 236 218 232 236 204 220 224 
191 208 219 191 208 219 191 208 219 209 224 232 238 246 252 238 246 252 238 246 252 224 236 239 
198 211 221 193 211 218 193 211 218 198 211 221 213 225 229 224 236 239 218 232 236 218 232 236 
170 178 190 137 160 165 137 160 165 137 160 165 97 113 122 32 33 43 38 38 44 38 38 41 
38 37 44 38 37 44 37 36 43 36 35 42 37 36 43 37 36 43 36 35 42 36 35 42 
36 35 42 35 35 43 36 35 45 36 35 42 36 37 41 38 40 44 37 38 43 38 38 44 
38 38 44 38 39 43 36 37 41 35 37 41 36 37 41 37 38 42 37 39 43 37 38 42 
37 39 43 37 38 42 38 39 43 39 40 44 39 41 45 39 41 45 39 41 45 39 41 45 
39 41 45 39 41 45 39 41 45 39 41 45 39 41 45 39 41 45 39 41 45 39 41 45 
39 41 45 39 41 45 39 41 45 39 41 45 39 41 45 39 41 45 39 41 45 39 41 45 
39 41 45 39 41 45 39 41 45 39 41 45 39 41 45 39 41 45 39 41 45 39 41 45 
39 41 45 39 41 45 39 41 45 39 41 45 39 41 46 38 41 47 38 41 47 39 41 46 
39 41 45 39 41 45 39 41 45 39 41 45 39 41 45 40 42 46 40 42 46 40 42 46 
40 42 46 40 42 46 40 42 46 40 42 46 40 42 46 40 42 46 40 42 46 40 42 46 
40 42 46 40 42 46 40 42 46 40 42 46 
39 41 45 39 41 45 39 41 45 39 41 45 39 41 45 38 40 44 39 41 45 39 41 45 
39 41 45 39 41 45 39 41 45 39 41 45 39 41 45 39 41 45 39 41 45 39 41 45 
39 41 45 39 41 45 39 41 45 39 41 45 39 41 45 39 41 45 38 40 44 39 40 44 
38 39 43 38 39 43 39 41 45 39 41 45 39 41 45 39 41 45 39 41 45 39 41 45 
39 41 45 39 41 45 39 41 45 39 41 45 39 41 45 39 41 45 39 41 45 39 41 45 
39 41 45 39 41 45 39 41 45 39 41 45 39 41 45 39 41 45 38 40 45 39 41 46 
39 41 46 39 41 45 39 41 45 39 41 45 39 41 45 39 41 45 39 41 45 39 41 45 
39 41 45 39 41 45 39 41 45 39 41 45 39 41 45 39 41 45 39 40 44 39 41 45 
39 41 45 39 41 45 39 41 45 39 41 45 39 41 45 39 41 45 39 41 45 39 41 45 
39 41 45 39 41 45 39 41 45 38 41 45 38 41 45 38 41 45 38 40 44 37 39 43 
37 39 44 37 40 45 37 40 46 36 40 46 35 39 45 60 64 71 60 64 71 60 64 71 
60 64 71 97 113 122 175 197 204 161 189 201 161 189 201 184 200 204 224 236 239 232 247 250 
230 239 249 230 239 249 238 246 252 238 246 252 230 239 249 224 236 239 209 224 232 196 218 223 
204 220 224 204 220 224 184 206 218 147 176 186 147 182 191 155 184 190 137 160 165 60 64 71 
34 35 40 38 39 43 37 38 43 35 38 43 37 39 44 38 40 45 38 40 47 38 40 47 
38 38 49 38 38 49 38 40 47 41 46 52 60 64 71 60 64 71 60 64 71 60 64 71 
38 42 47 38 39 44 37 39 44 40 42 46 60 64 71 60 64 71 60 64 71 60 64 71 
91 77 82 91 77 82 91 77 82 91 77 82 91 77 82 91 77 82 91 77 82 91 77 82 
91 77 82 91 77 82 91 77 82 91 77 82 91 77 82 91 77 82 91 77 82 91 77 82 
91 77 82 91 77 82 91 77 82 91 77 82 91 77 82 91 77 82 91 77 82 91 77 82 
91 77 82 60 64 71 60 64 71 60 64 71 60 64 71 60 64 71 41 40 45 37 39 44 
36 38 43 38 40 49 60 64 71 60 64 71 60 64 71 60 64 71 41 46 52 35 40 47 
36 40 44 36 40 46 36 40 46 36 40 46 36 40 46 36 40 45 36 39 44 35 38 43 
35 38 44 32 35 41 60 64 71 137 160 165 175 197 204 161 189 201 173 188 188 184 200 204 
191 208 219 191 208 219 191 208 219 209 224 232 238 246 252 238 246 252 238 246 252 224 236 239 
198 211 221 193 211 218 198 211 221 193 211 218 175 197 204 173 188 188 161 189 201 173 188 188 
97 113 122 60 64 71 60 64 71 60 64 71 59 51 57 37 36 43 38 37 44 38 37 44 
38 37 44 38 37 44 37 36 43 36 35 42 37 36 43 37 36 43 37 36 43 37 36 43 
35 35 43 35 36 48 35 36 48 35 36 45 36 37 42 38 39 44 38 38 44 38 38 44 
37 38 43 36 38 42 34 36 40 34 36 40 35 36 40 37 38 42 38 40 44 37 39 43 
37 38 42 37 38 42 38 39 43 39 41 45 39 41 45 39 41 45 39 41 45 38 41 45 
38 41 45 38 41 45 38 41 45 39 41 45 39 41 45 39 41 45 39 41 45 39 41 45 
39 41 45 39 41 45 39 41 45 39 41 45 39 41 45 39 41 45 39 41 45 39 41 45 
39 41 45 39 41 46 39 41 46 39 41 46 39 41 45 39 41 45 39 41 45 39 41 45 
39 41 45 39 41 45 39 41 45 39 41 45 39 41 45 38 41 46 38 41 46 39 41 45 
39 41 45 39 41 45 39 41 45 39 41 45 39 41 45 40 42 46 40 42 46 40 42 46 
40 42 46 40 42 46 40 42 46 40 42 46 40 42 46 40 42 46 40 42 46 40 42 46 
40 42 46 40 42 46 40 42 46 40 42 46 
39 41 45 39 41 45 39 41 45 39 41 45 39 41 45 39 40 44 39 40 44 39 41 45 
39 41 45 38 40 44 38 40 44 39 41 45 39 41 45 39 41 45 39 41 45 39 41 45 
39 41 45 39 41 45 39 41 45 39 41 45 39 41 45 39 41 45 39 41 45 39 41 45 
39 41 45 39 40 44 39 41 45 39 41 45 39 41 45 39 41 45 39 41 45 39 41 45 
38 40 44 38 40 44 39 41 45 39 41 45 39 41 45 39 41 45 39 41 45 39 41 45 
39 41 45 39 41 45 39 41 45 39 41 45 39 40 44 39 41 45 37 40 46 37 41 46 
37 41 46 39 41 45 39 41 45 39 41 45 39 41 45 39 41 45 39 41 45 39 41 45 
39 41 45 39 41 45 39 41 45 39 41 45 39 41 45 38 40 44 38 39 43 39 41 45 
39 41 45 39 41 45 39 41 45 39 41 45 39 41 45 39 41 45 39 40 44 39 40 44 
39 41 45 39 41 45 39 41 45 41 40 45 39 41 45 39 41 45 41 40 45 41 40 45 
39 41 45 39 40 46 39 40 46 39 40 46 38 40 45 35 38 43 32 34 39 32 34 39 
22 23 35 60 64 71 155 184 190 147 176 186 153 177 190 175 197 204 230 239 249 245 247 252 
238 246 252 238 246 252 238 246 252 238 246 252 238 246 252 238 246 252 209 224 232 193 211 218 
193 212 222 193 212 222 184 200 204 153 177 190 147 181 186 155 184 190 137 160 165 60 64 71 
34 35 40 39 41 45 38 40 44 35 38 43 35 39 45 36 40 46 39 41 45 39 41 45 
39 41 46 39 40 47 38 40 47 37 37 44 34 35 40 34 36 40 34 36 40 35 37 41 
38 40 44 39 41 45 39 41 45 38 40 44 34 36 41 32 35 38 32 34 38 32 34 38 
32 34 38 32 34 38 32 34 38 32 34 38 32 34 38 32 35 38 32 34 38 32 34 38 
32 35 38 32 35 38 32 34 38 32 34 38 32 34 38 32 34 38 32 34 38 32 34 38 
32 34 38 32 34 38 32 34 38 32 34 38 32 34 38 32 34 38 32 34 38 32 34 38 
32 34 38 32 34 39 32 34 39 32 35 41 31 33 37 32 34 39 38 38 44 39 41 45 
39 40 44 38 40 44 32 35 41 32 33 43 32 33 43 32 33 43 34 38 48 35 40 47 
36 40 46 36 40 46 36 40 46 36 40 46 36 40 46 37 39 44 37 38 43 37 38 43 
36 38 43 31 33 37 60 64 71 137 160 165 153 177 190 147 176 186 153 177 190 175 197 204 
191 208 219 191 208 219 191 208 219 209 224 232 238 246 252 238 246 252 238 246 252 224 236 239 
198 211 221 191 208 219 198 211 221 191 208 219 170 178 190 147 176 186 147 176 186 147 176 186 
91 77 82 26 31 37 34 32 40 34 32 40 34 33 43 38 37 44 38 37 44 37 36 43 
37 36 43 37 36 43 37 36 43 37 36 43 37 36 43 37 36 43 37 36 43 38 37 44 
38 36 46 35 36 48 38 38 49 37 37 44 36 37 42 39 40 46 38 39 44 38 40 44 
37 39 43 35 37 41 34 35 39 35 36 40 34 36 40 35 36 40 37 39 43 38 39 43 
38 39 43 38 39 43 38 40 44 39 41 45 39 41 45 39 41 45 39 41 45 38 41 46 
37 40 46 37 40 46 38 41 45 39 41 45 39 41 45 39 41 45 39 41 45 39 41 45 
39 41 45 39 41 45 39 41 45 39 41 45 39 41 45 39 41 45 39 41 45 39 41 45 
39 41 46 38 41 47 38 41 47 38 41 46 39 41 45 39 41 45 39 41 45 39 41 45 
39 41 45 39 41 45 39 41 45 39 41 45 39 41 45 39 41 45 39 41 45 39 41 45 
40 42 46 40 42 46 40 42 46 40 42 46 40 42 46 39 41 45 39 41 45 40 42 46 
40 42 46 40 42 46 40 42 46 40 42 46 40 42 46 40 42 46 40 42 46 40 42 46 
40 42 46 40 42 46 40 42 46 40 42 46 
38 40 44 38 40 44 38 40 44 39 41 45 39 41 45 39 41 45 39 41 45 39 41 45 
39 41 45 39 41 45 39 41 45 39 41 45 39 41 45 39 41 45 39 41 45 39 41 45 
39 41 45 39 41 45 39 41 45 39 41 45 39 41 45 39 41 45 39 41 45 39 41 45 
39 41 45 39 41 45 39 41 45 38 40 44 38 40 44 39 41 45 39 41 45 39 41 45 
39 41 45 39 41 45 39 41 45 39 41 45 39 41 45 39 41 45 39 41 45 39 41 45 
39 41 45 39 41 45 39 41 45 39 41 45 39 41 45 39 41 45 38 41 47 37 40 46 
36 40 45 39 41 45 39 42 45 39 41 45 39 41 45 39 41 45 39 41 45 39 41 45 
39 41 45 39 41 45 39 41 45 39 41 45 39 41 45 39 41 45 38 40 44 39 41 45 
39 41 45 39 41 45 39 41 45 39 41 45 39 41 45 39 41 45 38 39 43 38 39 43 
39 41 45 39 41 45 41 40 45 42 38 45 42 38 45 42 38 45 42 38 45 42 38 45 
42 38 45 42 38 45 42 38 45 41 40 46 39 40 47 39 40 46 41 40 45 37 39 44 
32 29 37 91 77 82 161 189 201 155 184 190 155 184 190 175 197 204 230 239 249 245 247 252 
238 246 252 238 246 252 238 246 252 238 246 252 238 246 252 238 246 252 209 224 232 193 211 218 
193 212 222 196 218 223 184 206 218 153 177 190 147 181 186 155 184 190 137 160 165 60 64 71 
34 35 40 39 40 44 38 40 44 35 39 44 36 40 45 36 40 46 39 41 45 39 41 45 
39 41 45 39 41 46 39 41 46 39 41 46 39 41 45 39 41 45 39 41 45 39 41 45 
39 41 45 39 41 45 39 41 45 39 41 45 39 41 45 38 41 44 39 41 45 39 41 45 
39 41 45 39 41 45 39 41 45 39 41 45 39 41 45 39 41 45 39 41 45 39 41 45 
39 41 45 39 41 45 39 41 45 39 41 45 39 41 45 39 41 45 39 41 45 39 41 45 
39 41 45 39 41 45 39 41 45 39 41 45 39 41 45 39 41 45 39 41 45 39 41 45 
39 41 45 37 40 46 36 40 46 36 40 46 36 40 45 36 40 46 37 40 45 39 41 45 
39 41 45 38 41 44 36 40 44 36 40 45 36 40 46 36 40 46 36 40 46 36 40 46 
36 40 46 36 40 46 36 40 46 36 40 46 36 40 46 38 40 45 38 39 44 37 38 43 
35 38 43 31 33 37 60 64 71 137 160 165 155 184 190 153 177 190 153 177 190 175 197 204 
191 208 219 191 212 218 184 206 218 209 224 232 238 246 252 238 246 252 238 246 252 224 236 239 
198 211 221 191 208 219 193 212 222 191 208 219 173 188 188 155 184 190 155 184 190 155 184 190 
91 77 82 32 34 39 37 36 43 37 36 43 38 39 44 38 38 44 38 37 44 37 36 43 
37 36 43 37 36 43 37 36 43 37 36 43 38 37 44 38 37 44 38 38 44 38 38 44 
38 36 46 35 36 48 38 36 49 35 36 45 36 37 42 38 38 44 38 39 44 38 39 43 
38 39 43 36 37 41 35 36 40 36 37 41 36 38 42 37 38 42 38 39 43 39 40 44 
39 40 44 38 40 45 38 40 44 38 41 45 39 41 45 39 41 45 39 41 45 38 41 46 
38 41 47 38 41 47 39 41 46 39 41 45 39 41 45 39 41 45 39 41 45 39 41 45 
39 41 45 39 41 45 39 41 45 39 41 45 39 41 45 39 41 45 39 41 45 39 41 45 
39 41 46 38 41 47 38 41 47 38 41 46 39 41 45 39 41 45 39 41 45 39 41 45 
40 42 46 40 42 46 39 41 45 39 41 45 39 41 45 39 41 45 39 41 45 39 41 45 
40 42 46 40 42 46 40 42 46 40 42 46 40 42 46 40 42 46 40 42 46 40 42 46 
40 42 46 40 42 46 40 42 46 40 42 46 40 42 46 40 42 46 40 42 46 40 42 46 
40 42 46 40 42 46 40 42 46 40 42 46 
39 41 45 39 41 45 39 41 45 39 41 45 39 41 45 39 41 45 39 41 45 39 41 45 
39 41 45 39 41 45 39 41 45 39 41 45 39 41 45 39 41 45 39 41 45 39 41 45 
39 41 45 39 41 45 39 41 45 39 41 45 38 40 44 38 40 44 39 41 45 39 41 45 
38 39 43 38 40 44 39 41 45 39 41 45 38 40 44 39 41 45 39 41 45 39 41 45 
39 41 45 39 41 45 39 41 45 39 41 45 39 41 45 39 41 45 39 41 45 39 41 45 
39 41 45 39 41 45 39 41 45 39 41 45 39 41 45 39 41 45 38 42 45 38 41 46 
37 41 45 38 41 46 39 41 46 39 41 46 39 41 45 39 41 45 39 41 45 39 41 45 
39 41 45 39 41 45 39 41 45 39 41 45 39 41 45 39 41 45 39 41 45 39 41 45 
39 41 45 39 41 45 39 41 45 39 41 45 39 41 45 39 40 44 38 40 44 38 40 44 
39 41 45 39 41 45 39 41 45 41 40 45 41 40 45 42 38 45 42 38 45 42 38 45 
42 38 45 42 38 45 42 38 45 41 40 46 39 41 46 39 40 46 39 40 44 38 40 45 
31 33 37 60 64 71 147 176 186 147 176 186 147 165 171 170 178 190 218 230 232 230 239 249 
230 239 249 230 239 249 230 239 249 232 247 250 232 247 250 232 247 250 209 224 232 193 212 222 
193 212 222 193 212 222 184 206 218 153 177 190 155 184 190 155 184 190 137 160 165 60 64 71 
32 35 42 38 40 45 37 40 45 37 40 46 37 40 46 36 40 46 37 40 46 37 40 46 
37 40 46 37 40 46 37 40 46 37 40 46 37 40 46 37 40 46 38 41 45 39 41 45 
39 41 45 39 41 45 39 41 45 39 41 45 39 41 45 39 41 45 39 41 45 39 41 45 
39 41 45 39 41 45 39 41 45 39 41 45 39 41 45 39 41 45 39 41 45 39 41 45 
39 41 45 39 41 45 39 41 45 39 41 45 39 41 45 39 41 45 39 41 45 39 41 45 
39 41 45 39 41 45 39 41 45 39 41 45 39 41 45 39 41 45 39 41 46 38 41 46 
37 40 46 36 40 46 36 40 46 36 40 46 36 40 46 36 40 46 36 40 46 37 40 46 
37 40 46 37 40 46 36 40 45 36 40 45 36 40 46 36 40 46 36 40 46 36 40 46 
36 40 46 36 40 46 36 40 46 36 40 46 36 40 46 38 41 46 38 39 43 37 38 43 
36 37 42 32 34 38 60 64 71 137 160 165 155 184 190 153 177 190 155 184 190 175 197 204 
191 213 222 191 213 222 191 208 219 209 224 232 232 247 250 230 239 249 230 239 249 224 236 239 
191 208 219 184 206 218 184 206 218 184 200 204 153 177 190 147 165 171 147 165 171 147 165 171 
91 77 82 34 33 43 42 38 45 39 39 42 38 38 44 38 39 44 37 38 43 38 37 44 
38 37 44 38 37 44 38 37 44 37 36 43 37 36 43 38 38 44 38 39 44 38 39 44 
37 36 43 36 35 45 36 35 45 35 35 43 37 37 42 38 38 44 38 39 44 38 40 44 
37 39 43 37 38 42 36 37 41 36 37 41 35 36 40 37 38 42 38 40 44 38 40 44 
38 39 44 38 40 45 38 40 44 38 40 44 39 41 45 39 41 45 39 41 45 39 41 45 
39 41 46 39 41 46 39 41 45 39 41 45 39 41 45 39 41 45 39 41 45 39 41 45 
39 41 45 39 41 45 39 41 45 39 41 45 39 41 45 39 41 45 39 41 45 39 41 45 
39 41 46 38 41 47 38 41 47 38 41 46 39 41 45 39 41 45 39 41 45 39 41 45 
39 41 45 39 41 45 39 41 45 39 41 45 39 41 45 39 41 45 39 41 45 39 41 45 
39 41 45 39 41 45 39 41 45 39 41 45 39 41 45 40 42 46 40 42 46 40 42 46 
40 42 46 40 42 46 40 42 46 40 42 46 40 42 46 40 42 46 40 42 46 40 42 46 
40 42 46 40 42 46 40 42 46 40 42 46 
39 41 45 39 41 45 39 41 45 39 41 45 39 41 45 39 41 45 39 41 45 39 41 45 
39 41 45 39 41 45 39 41 45 39 41 45 39 41 45 39 41 45 39 41 45 39 41 45 
39 41 45 39 41 45 39 41 45 39 41 45 39 41 45 38 40 44 39 41 45 38 40 44 
37 39 43 38 39 43 39 41 45 39 41 45 38 40 44 39 41 45 39 41 45 39 41 45 
39 41 45 39 41 45 39 41 45 39 41 45 39 41 45 39 41 45 39 41 45 39 41 45 
39 41 45 39 41 45 39 41 45 39 41 45 39 41 45 39 41 45 38 42 45 38 42 45 
37 41 46 38 41 47 38 41 47 38 41 47 39 41 46 39 41 45 39 41 45 39 41 45 
39 41 45 39 40 44 39 40 44 39 41 45 39 41 45 39 41 45 39 41 45 39 41 45 
39 41 45 39 41 45 39 41 45 39 41 45 39 41 45 38 40 44 39 41 45 39 41 45 
39 41 45 39 41 45 38 41 45 38 41 45 41 40 45 42 38 45 42 38 45 42 38 45 
42 38 45 42 38 45 42 38 45 41 40 46 39 40 46 38 39 44 38 39 44 41 40 46 
37 38 43 59 51 57 97 113 122 57 90 110 57 90 110 97 113 122 170 178 190 175 197 204 
175 197 204 184 200 204 198 211 221 209 224 232 209 224 232 209 224 232 196 218 223 193 212 222 
193 212 222 193 211 218 184 206 218 184 200 204 184 206 218 184 206 218 153 177 190 60 64 71 
32 35 42 38 40 47 37 41 45 37 41 46 37 40 46 36 40 46 36 40 46 36 40 46 
36 40 46 36 40 46 36 40 46 36 40 46 36 40 46 36 40 46 37 40 46 39 41 45 
39 41 45 39 41 45 39 41 45 39 41 45 39 41 45 39 41 45 39 41 45 39 41 45 
39 41 45 39 41 45 39 41 45 39 41 45 39 41 45 39 41 45 39 41 45 39 41 45 
39 41 45 39 41 45 39 41 45 39 41 45 39 41 45 39 41 45 39 41 45 39 41 45 
39 41 45 39 41 45 39 41 45 39 41 45 39 41 45 39 41 45 38 41 46 37 40 46 
36 40 46 36 40 46 36 40 46 36 40 46 36 40 46 36 40 46 36 40 46 36 40 46 
36 40 46 36 40 46 36 40 46 36 40 46 36 40 46 36 40 46 36 40 46 36 40 46 
36 40 46 36 40 46 36 40 46 36 40 46 36 40 46 37 40 45 38 39 43 37 38 42 
36 37 42 32 34 38 60 64 71 147 165 171 184 206 218 175 197 204 175 197 204 184 206 218 
191 212 218 193 212 222 191 208 219 193 212 222 209 224 232 209 224 232 209 224 232 198 211 221 
161 189 201 155 184 190 161 189 201 147 165 171 97 113 122 91 77 82 91 77 82 91 77 82 
59 51 57 37 37 44 41 40 45 38 38 44 38 36 46 38 38 46 38 38 46 38 38 46 
38 37 44 37 36 43 37 36 43 36 35 42 37 36 43 38 38 44 38 39 43 38 39 43 
36 37 42 37 36 43 37 36 43 37 36 43 37 36 43 38 37 44 38 38 44 37 39 43 
37 39 43 37 38 42 37 38 42 36 37 41 34 36 40 36 37 41 37 39 43 38 38 44 
37 37 42 37 38 43 37 39 43 38 39 43 38 40 44 38 41 44 39 41 45 39 41 45 
39 41 45 39 41 45 39 41 45 39 41 45 39 41 45 39 41 45 39 41 45 39 41 45 
39 41 45 39 41 45 39 41 45 39 41 45 39 41 45 39 41 45 39 41 45 39 41 45 
39 41 46 38 41 47 38 41 47 38 41 46 39 41 45 39 41 45 39 41 45 39 41 45 
39 41 45 39 41 45 39 41 45 39 41 45 39 41 45 39 41 45 39 41 45 39 41 45 
39 41 45 39 41 45 39 41 45 39 41 45 39 41 45 40 42 46 40 42 46 40 42 46 
40 42 46 40 42 46 40 42 46 40 42 46 40 42 46 40 42 46 40 42 46 40 42 46 
40 42 46 40 42 46 40 42 46 40 42 46 
39 41 45 39 40 44 39 40 44 39 41 45 39 41 45 39 41 45 39 41 45 39 41 45 
39 41 45 39 41 45 39 41 45 39 41 45 39 41 45 39 41 45 39 41 45 39 41 45 
39 41 45 39 41 45 39 41 45 39 41 45 39 41 45 39 41 45 39 41 45 39 41 45 
39 41 45 39 41 45 39 41 45 39 41 45 39 41 45 39 41 45 39 41 45 39 41 45 
39 41 45 39 41 45 39 41 45 39 41 45 39 41 45 39 41 45 39 41 45 39 41 45 
39 41 45 39 41 45 39 41 45 39 41 45 39 41 45 39 41 45 38 42 45 37 41 45 
37 40 45 38 41 46 38 41 47 38 41 47 39 41 46 39 41 45 39 41 45 38 40 44 
38 40 44 38 39 43 38 39 43 39 41 45 39 41 45 39 41 45 39 41 45 39 41 45 
39 41 45 39 41 45 39 41 45 39 41 45 39 41 45 39 41 45 39 41 45 39 41 45 
39 41 45 39 41 45 39 41 45 38 41 45 41 40 45 42 38 45 42 38 45 42 38 45 
42 38 45 42 38 45 42 38 45 42 38 45 42 38 45 38 37 44 42 38 45 41 40 46 
42 38 45 42 38 45 36 40 46 35 40 47 35 36 45 60 64 71 137 160 165 155 184 190 
153 177 190 155 184 190 184 206 218 193 212 222 191 212 218 191 212 218 191 213 222 193 212 222 
193 212 222 193 212 222 193 212 222 193 212 222 193 212 222 196 218 223 170 178 190 60 64 71 
32 33 43 38 40 47 37 40 45 36 40 46 36 40 46 36 40 46 36 40 46 36 40 46 
36 40 46 36 40 46 36 40 46 36 40 46 36 40 46 36 40 46 37 40 46 39 41 45 
39 41 45 39 41 45 39 41 45 39 41 45 39 41 45 39 41 45 39 41 45 39 41 45 
39 41 45 39 41 45 39 41 45 39 41 45 39 41 45 39 41 45 39 41 45 39 41 45 
39 41 45 39 41 45 39 41 45 39 41 45 39 41 45 39 41 45 39 41 45 39 41 45 
39 41 45 39 41 45 39 41 45 39 41 45 39 41 45 39 41 45 37 41 46 36 40 46 
36 40 46 36 40 46 36 40 46 36 40 46 36 40 46 36 40 46 36 40 46 36 40 46 
36 40 46 36 40 46 36 40 46 36 40 46 36 40 46 36 40 46 36 40 46 36 40 46 
36 40 46 36 40 46 36 40 46 36 40 46 36 40 46 36 39 42 37 39 43 37 38 42 
37 38 43 32 34 38 60 64 71 170 178 190 196 218 223 191 208 219 191 208 219 191 208 219 
191 208 219 191 208 219 191 208 219 191 208 219 191 208 219 193 212 222 193 212 222 184 206 218 
153 177 190 153 177 190 155 184 190 137 160 165 60 64 71 33 33 43 38 36 49 36 35 45 
35 35 43 36 37 41 38 38 44 38 36 46 38 38 49 38 38 49 38 38 49 38 38 49 
38 37 44 37 36 43 37 36 43 38 37 44 38 37 44 37 37 42 36 37 41 37 38 42 
37 38 42 37 38 42 37 38 42 37 37 42 38 36 44 38 37 44 37 38 43 37 38 42 
37 38 42 37 38 42 37 38 42 37 38 42 36 38 42 37 38 42 36 37 42 37 37 42 
38 37 44 38 37 44 38 39 43 39 40 44 39 40 44 39 40 44 39 41 45 39 41 45 
39 41 45 39 41 45 39 41 45 39 41 45 39 41 45 39 41 45 39 41 45 39 41 45 
39 41 45 39 41 45 39 41 45 39 41 45 39 41 45 39 41 45 39 41 45 39 41 45 
39 41 46 38 41 47 38 41 47 38 41 46 39 41 45 39 41 45 39 41 45 39 41 45 
39 41 45 39 41 45 39 41 45 39 41 45 39 41 45 39 41 45 39 41 45 39 41 45 
39 41 45 39 41 45 39 41 45 39 41 45 39 41 45 40 42 46 40 42 46 40 42 46 
40 42 46 40 42 46 40 42 46 40 42 46 40 42 46 40 42 46 40 42 46 40 42 46 
40 42 46 40 42 46 40 42 46 40 42 46 
38 40 44 38 40 44 39 41 45 39 41 45 39 41 45 39 41 45 39 41 45 39 41 45 
39 41 45 39 41 45 39 41 45 39 41 45 39 41 45 39 41 45 39 41 45 39 41 45 
39 41 45 39 41 45 39 41 45 39 41 45 39 41 45 39 41 45 39 41 45 39 41 45 
39 41 45 39 41 45 39 41 45 39 41 45 39 41 45 39 41 45 39 41 45 39 41 45 
38 40 44 39 41 45 39 41 45 39 41 45 39 41 45 39 41 45 39 41 45 39 41 45 
39 41 45 39 41 45 39 41 45 39 41 45 39 41 45 39 41 45 39 41 45 39 41 45 
39 41 45 39 41 45 39 41 45 39 41 45 39 41 45 39 41 45 39 41 45 39 41 45 
38 40 44 39 41 45 39 41 45 39 41 45 39 41 45 39 41 45 39 41 45 39 41 45 
39 41 45 39 41 45 39 41 45 39 41 45 39 41 45 39 41 45 39 41 45 39 41 45 
39 41 45 39 41 45 39 41 45 41 40 45 42 38 45 42 38 45 42 38 45 42 38 45 
42 38 45 42 38 45 42 38 45 42 38 45 42 38 45 42 38 45 42 38 45 41 40 46 
41 40 46 39 40 46 36 39 44 37 40 46 38 38 46 60 64 71 137 160 165 155 184 190 
153 177 190 155 184 190 184 206 218 193 212 222 193 212 222 193 212 222 191 212 218 191 213 222 
193 211 218 193 212 222 193 212 222 193 212 222 193 212 222 196 218 223 173 188 188 60 64 71 
32 35 42 36 40 46 36 40 46 36 40 46 37 40 46 36 40 45 36 40 46 36 40 46 
36 40 46 36 40 46 36 40 46 36 40 46 36 40 46 36 40 46 36 40 46 36 40 46 
37 40 46 37 40 46 37 40 46 37 40 46 38 41 45 39 41 45 39 41 45 39 41 45 
39 41 45 39 41 45 39 41 45 39 41 45 39 41 45 39 41 45 39 41 45 39 41 45 
39 41 45 39 41 45 39 41 45 39 41 45 39 41 45 39 41 45 39 41 45 39 41 45 
39 41 45 39 41 45 39 41 45 39 41 46 38 41 46 37 40 46 36 40 46 36 40 46 
36 40 46 36 40 46 36 40 46 36 40 46 36 40 46 36 40 46 36 40 46 36 40 46 
36 40 46 36 40 46 36 40 46 36 40 46 36 40 46 36 40 46 36 40 46 36 40 46 
36 40 46 36 40 46 36 40 46 36 40 46 36 40 46 37 40 46 38 39 44 37 37 44 
37 38 43 31 33 37 60 64 71 170 178 190 196 218 223 191 208 219 191 208 219 191 208 219 
191 208 219 191 208 219 191 208 219 184 206 218 184 206 218 191 208 219 191 208 219 184 206 218 
153 177 190 153 177 190 155 184 190 137 160 165 60 64 71 32 33 43 36 34 42 37 37 42 
35 37 41 34 36 40 38 39 44 38 38 46 38 38 49 38 38 49 38 38 49 38 38 49 
38 36 46 38 37 44 38 37 44 38 37 44 38 36 44 36 35 41 36 35 41 38 37 44 
37 36 43 37 36 43 36 35 42 38 37 44 38 37 44 38 37 44 37 38 43 37 39 43 
38 40 44 37 39 43 37 38 42 37 38 42 38 37 44 38 37 44 37 37 42 38 37 44 
37 36 43 38 37 44 38 38 44 41 40 46 41 40 45 39 41 45 39 41 45 39 41 45 
39 41 45 39 41 45 39 41 45 39 41 45 39 41 45 39 41 45 39 41 45 39 41 45 
39 41 45 39 41 45 39 41 45 39 41 45 39 41 45 39 41 45 39 41 45 39 41 45 
39 41 45 39 41 45 39 41 45 39 41 45 39 41 45 39 41 45 39 41 45 39 41 45 
39 41 45 39 41 45 39 41 45 39 41 45 39 41 45 39 41 45 39 41 45 39 41 45 
39 41 45 39 41 45 41 40 46 41 40 46 41 40 45 40 42 46 40 42 46 40 42 46 
40 42 46 40 42 46 40 42 46 40 42 46 40 42 46 40 42 46 40 42 46 40 42 46 
39 41 45 39 41 45 40 42 46 40 42 46 
38 40 44 38 40 44 39 41 45 39 41 45 39 41 45 39 41 45 39 41 45 39 41 45 
39 41 45 39 41 45 39 41 45 39 41 45 39 41 45 39 41 45 39 41 45 39 41 45 
39 41 45 39 41 45 39 41 45 39 41 45 39 41 45 39 41 45 39 41 45 39 41 45 
39 41 45 39 41 45 39 41 45 39 41 45 39 41 45 39 41 45 39 41 45 39 41 45 
39 41 45 39 41 45 39 41 45 39 41 45 39 41 45 39 41 45 39 41 45 39 41 45 
39 41 45 39 41 45 39 41 45 39 41 45 39 41 45 39 41 45 39 41 45 39 41 45 
39 41 45 39 41 45 39 41 45 39 41 45 39 41 45 39 41 45 39 41 45 39 41 45 
38 40 44 39 41 45 39 41 45 39 41 45 38 39 43 38 40 44 39 41 45 39 41 45 
39 41 45 39 41 45 39 41 45 39 41 45 39 41 45 39 41 45 39 41 45 39 41 45 
39 41 45 38 40 44 39 40 44 41 40 45 39 40 44 41 40 45 42 38 45 42 38 45 
42 38 45 42 38 45 42 38 45 42 38 45 42 38 45 41 40 46 41 40 46 41 40 46 
41 40 46 41 40 46 38 38 44 39 40 47 37 37 44 91 77 82 147 165 171 161 189 201 
161 189 201 161 189 201 184 206 218 191 213 222 191 213 222 191 213 222 191 208 219 191 208 219 
193 211 218 193 212 222 193 212 222 193 212 222 193 212 222 196 218 223 170 178 190 60 64 71 
22 23 35 26 31 37 26 31 37 32 35 42 36 39 46 36 40 45 36 40 46 36 40 46 
36 40 46 36 40 46 36 40 46 36 40 46 36 40 46 36 40 46 36 40 46 36 40 46 
36 40 46 36 40 46 36 40 46 36 40 46 38 41 45 39 41 45 39 41 45 39 41 45 
39 41 45 39 41 45 39 41 45 39 41 45 39 41 45 39 41 45 39 41 45 39 41 45 
39 41 45 39 41 45 39 41 45 39 41 45 39 41 45 39 41 45 39 41 45 39 41 45 
39 41 45 39 41 45 39 41 45 38 41 46 37 41 46 37 40 46 36 40 46 36 40 46 
36 40 46 36 40 46 36 40 46 36 40 46 36 40 46 36 40 46 36 40 46 36 40 46 
36 40 46 36 40 46 36 40 46 36 40 46 36 40 46 36 40 46 36 40 46 36 40 46 
36 40 46 36 40 46 36 40 46 36 40 46 36 40 46 38 40 45 35 36 45 26 31 37 
26 31 37 22 23 35 60 64 71 153 177 190 196 218 223 191 208 219 191 208 219 191 208 219 
191 208 219 191 208 219 191 208 219 191 208 219 191 213 222 191 213 222 191 213 222 184 206 218 
161 189 201 161 189 201 161 189 201 147 165 171 91 77 82 32 33 43 37 36 43 38 38 41 
36 37 41 36 37 41 37 38 43 36 35 45 38 38 49 38 38 49 38 36 49 38 38 49 
38 38 44 38 37 44 38 37 44 38 37 44 38 36 44 36 35 42 37 37 42 38 38 44 
38 37 44 36 35 42 37 36 43 38 37 44 38 37 44 38 37 44 37 38 43 37 39 43 
38 40 44 37 38 42 37 38 42 37 38 42 38 37 44 38 37 44 38 37 44 38 37 44 
37 36 43 38 37 44 38 37 44 39 40 46 39 40 46 39 41 45 39 41 45 39 41 45 
39 41 45 39 41 45 39 41 45 39 41 45 39 41 45 39 41 45 39 41 45 39 41 45 
40 42 46 40 42 46 40 42 46 40 42 46 40 42 46 39 41 45 39 41 45 39 41 45 
39 41 45 39 41 45 39 41 45 39 41 45 39 41 45 39 41 45 39 41 45 39 41 45 
39 41 45 39 41 45 39 41 45 39 41 45 39 41 45 39 41 45 39 41 45 39 41 45 
39 41 45 39 41 45 41 40 46 41 40 46 41 40 45 40 42 46 40 42 46 40 42 46 
40 42 46 40 42 46 40 42 46 40 42 46 40 42 46 39 41 45 40 42 46 40 42 46 
39 41 45 39 41 45 40 42 46 40 42 46 
38 40 44 38 40 44 38 40 44 38 40 44 38 40 44 39 41 45 39 41 45 39 41 45 
39 41 45 39 41 45 39 41 45 39 41 45 39 41 45 39 41 45 39 41 45 39 41 45 
39 41 45 39 41 45 39 41 45 39 41 45 39 41 45 39 41 45 39 41 45 39 41 45 
39 41 45 39 41 45 39 41 45 39 41 45 39 41 45 39 41 45 39 41 45 39 41 45 
39 41 45 39 41 45 39 41 45 39 41 45 39 41 45 39 41 45 39 41 45 39 41 45 
39 41 45 39 41 45 39 41 45 39 41 45 39 41 45 39 41 45 39 41 45 39 41 45 
39 41 45 39 41 45 39 41 45 39 41 45 39 41 45 39 41 45 39 41 45 39 41 45 
39 41 45 39 41 45 39 41 45 39 41 45 37 38 42 38 40 44 39 41 45 39 41 45 
39 41 45 39 41 45 39 41 45 39 41 45 39 41 45 39 41 45 39 41 45 39 41 45 
39 41 45 37 38 42 38 40 44 39 41 45 37 38 42 38 38 44 41 40 46 42 38 45 
42 38 45 42 38 45 42 38 45 42 38 45 41 40 46 41 40 46 42 38 45 42 38 45 
41 40 46 42 38 45 42 38 45 42 38 45 38 38 44 59 51 57 91 77 82 97 113 122 
97 113 122 97 113 122 147 165 171 161 189 201 161 189 201 161 189 201 184 206 218 193 212 222 
193 211 218 193 211 218 193 212 222 193 212 222 193 212 222 193 212 222 175 197 204 97 113 122 
97 113 122 97 113 122 97 113 122 60 64 71 35 38 44 36 40 45 36 40 46 36 40 46 
36 40 46 36 40 46 36 40 46 36 40 46 36 40 46 36 40 46 36 40 46 36 40 46 
36 40 46 36 40 46 36 40 46 36 40 46 38 41 45 39 41 45 39 41 45 39 41 45 
39 41 45 39 41 45 39 41 45 39 41 45 39 41 45 39 41 45 39 41 45 39 41 45 
39 41 45 39 41 45 39 41 45 39 41 45 39 41 45 39 41 45 39 41 45 39 41 45 
39 41 45 39 41 45 39 41 45 37 41 45 36 40 46 36 40 46 36 40 46 36 40 46 
36 40 46 36 40 46 36 40 46 36 40 46 36 40 46 36 40 46 36 40 46 36 40 46 
36 40 46 36 40 46 36 40 46 36 40 46 36 40 46 36 40 46 36 40 46 36 40 46 
36 40 46 36 40 46 36 40 46 36 40 46 36 40 46 33 37 42 60 64 71 97 113 122 
97 113 122 97 113 122 97 113 122 161 189 201 193 212 222 191 208 219 191 208 219 191 208 219 
191 208 219 191 208 219 193 212 222 184 206 218 161 189 201 161 189 201 161 189 201 147 165 171 
97 113 122 97 113 122 97 113 122 91 77 82 59 51 57 34 36 45 37 37 44 37 38 43 
37 38 42 37 38 42 37 38 43 38 36 46 35 36 48 38 38 49 38 38 49 38 36 46 
38 37 44 38 37 44 37 36 43 38 36 44 38 37 44 38 37 44 37 36 43 38 37 44 
38 37 44 35 34 40 37 36 43 38 37 44 38 37 44 38 37 44 37 38 43 37 39 42 
37 39 43 37 38 42 37 38 42 37 38 42 38 37 44 38 37 44 38 37 44 38 37 44 
38 37 44 38 37 44 38 37 44 38 37 44 38 38 44 39 41 45 39 41 45 39 41 45 
39 41 45 39 41 45 39 41 45 39 41 45 39 41 45 39 41 45 39 41 45 39 41 45 
39 41 45 39 41 45 39 41 45 39 41 45 39 41 45 39 41 45 39 41 45 39 41 45 
39 41 45 39 41 45 39 41 45 39 41 45 39 41 45 39 41 45 39 41 45 39 41 45 
39 41 45 39 41 45 39 41 45 39 41 45 39 41 45 39 41 45 39 41 45 39 41 45 
39 41 45 39 41 45 41 40 45 41 40 45 41 40 45 40 42 46 40 42 46 40 42 46 
40 42 46 40 42 46 40 42 46 40 42 46 40 42 46 39 41 45 39 41 45 39 41 45 
39 41 45 39 41 45 39 41 45 40 42 46 
36 39 44 36 39 44 36 39 44 38 40 44 38 40 44 38 40 44 39 41 45 39 41 45 
39 41 45 39 41 45 39 41 45 39 41 45 39 41 45 39 41 45 39 41 45 39 41 45 
39 41 45 39 41 45 39 41 45 39 41 45 39 41 45 39 41 45 39 41 45 39 41 45 
39 41 45 39 41 45 39 41 45 39 41 45 39 41 45 39 41 45 39 41 45 39 40 46 
38 40 47 39 40 46 39 41 45 39 41 45 39 41 45 39 41 45 39 41 45 39 41 45 
39 41 45 39 41 45 39 41 45 39 41 45 39 41 45 39 41 45 39 41 45 39 41 45 
39 41 45 39 41 45 39 41 45 39 41 45 39 41 45 39 41 45 39 41 45 39 41 45 
39 41 45 39 41 45 39 41 45 39 41 45 39 40 44 39 41 45 39 41 45 39 41 45 
39 41 45 39 41 45 39 41 45 39 40 44 39 41 45 39 41 45 39 41 45 38 40 44 
39 41 45 38 39 43 37 38 42 39 39 42 38 39 44 38 39 44 41 40 45 41 40 45 
41 40 45 42 38 45 42 38 45 42 38 45 42 38 45 42 38 45 42 38 45 42 38 45 
42 38 45 42 38 45 42 38 45 42 38 45 41 40 46 38 38 44 26 31 37 26 31 37 
22 23 35 41 46 52 137 160 165 153 177 190 147 176 186 147 176 186 184 200 204 198 211 221 
193 212 222 193 212 222 191 212 218 191 212 218 191 212 218 191 208 219 184 206 218 161 189 201 
161 189 201 161 189 201 147 176 186 91 77 82 35 36 45 38 40 45 36 40 46 36 40 46 
36 40 46 36 40 46 36 40 46 36 40 46 36 40 46 36 40 46 36 40 46 36 40 46 
36 40 46 36 40 46 36 40 46 36 40 46 36 40 46 37 40 46 37 40 46 37 40 46 
37 40 46 37 40 46 37 40 46 37 40 46 38 41 47 39 41 46 39 41 45 39 41 45 
39 41 45 39 41 45 39 41 45 39 41 45 39 41 45 39 41 45 39 41 45 39 41 45 
38 41 45 37 40 46 37 40 46 36 40 46 36 40 46 36 40 46 36 40 46 36 40 46 
36 40 46 36 40 46 36 40 46 36 40 46 36 40 46 36 40 46 36 40 46 36 40 46 
36 40 46 36 40 46 37 40 46 37 40 46 36 40 46 36 40 46 36 40 46 37 41 45 
38 41 45 39 41 45 37 40 46 36 40 46 37 40 46 30 37 41 91 77 82 147 180 183 
161 189 201 161 189 201 161 189 201 175 197 204 191 208 219 191 208 219 191 208 219 191 208 219 
191 208 219 193 211 218 193 212 222 184 200 204 153 177 190 153 177 190 153 177 190 137 160 165 
34 38 48 22 23 35 22 23 35 26 31 37 34 33 43 37 36 43 37 36 43 38 37 44 
38 37 44 38 37 44 36 35 41 35 36 41 35 36 41 36 37 42 36 38 43 38 38 44 
38 38 44 38 37 44 38 37 44 38 38 44 38 37 44 38 37 44 38 36 44 38 36 44 
38 36 44 38 37 44 38 38 44 38 37 44 37 36 43 38 37 44 37 37 42 37 39 43 
37 39 43 37 38 42 37 38 42 37 38 42 38 37 44 38 37 44 38 37 44 38 37 44 
38 37 44 38 37 44 38 39 44 38 40 44 38 40 44 39 41 45 39 41 45 39 41 45 
39 41 45 39 41 45 39 41 45 39 41 45 39 41 45 39 41 45 39 41 45 39 41 45 
39 41 45 39 41 45 39 41 45 39 41 45 39 41 45 39 41 45 39 41 45 39 41 45 
39 41 45 39 41 45 39 41 45 39 41 45 39 41 45 39 41 45 39 41 45 39 41 45 
39 41 45 39 41 45 41 40 45 41 40 45 41 40 45 39 41 45 39 41 45 39 41 45 
39 41 45 39 41 45 39 41 45 39 41 45 40 42 46 40 42 46 40 42 46 40 42 46 
40 42 46 40 42 46 40 42 46 39 41 45 39 41 45 40 42 46 40 42 46 39 41 45 
39 41 45 39 41 45 39 41 45 40 42 46 
35 39 44 35 39 44 36 39 44 38 40 44 38 40 44 38 40 44 39 41 45 39 41 45 
39 41 45 39 41 45 39 41 45 39 41 45 39 41 45 39 41 45 39 41 45 39 41 45 
39 41 45 39 41 45 39 41 45 39 41 45 39 41 45 39 41 45 39 41 45 39 41 45 
39 41 45 39 41 45 39 41 45 39 41 45 39 41 45 39 41 45 39 41 45 39 40 46 
38 40 47 39 40 46 39 41 45 39 41 45 39 41 45 39 41 45 39 41 45 39 41 45 
39 41 45 39 41 45 39 41 45 39 41 45 39 41 45 39 41 45 39 41 45 39 41 45 
39 41 45 39 41 45 39 41 45 39 41 45 39 41 45 39 41 45 39 41 45 39 41 45 
39 41 45 39 41 45 39 41 45 38 40 44 39 41 45 38 40 44 38 40 44 38 40 44 
39 40 44 39 41 45 38 40 44 39 41 45 38 40 44 38 39 43 38 39 43 37 38 42 
36 37 41 37 38 42 37 37 42 39 40 44 39 40 44 39 39 42 39 39 42 39 40 44 
41 40 45 42 38 45 42 38 45 42 38 45 42 38 45 42 38 45 41 40 46 41 40 46 
39 40 46 42 38 45 42 38 45 41 40 46 41 40 46 39 40 46 36 40 45 36 39 46 
34 33 43 60 64 71 137 160 165 155 184 190 155 184 190 155 184 190 184 200 204 193 212 222 
193 211 218 191 208 219 191 208 219 191 208 219 191 208 219 193 212 222 184 206 218 161 189 201 
153 177 190 155 184 190 147 165 171 91 77 82 35 36 45 39 40 46 36 40 46 36 40 46 
36 40 46 36 40 46 36 40 46 36 40 46 36 40 46 36 40 46 36 40 46 36 40 46 
36 40 46 36 40 46 36 40 46 36 40 46 36 40 46 36 40 46 36 40 46 36 40 46 
36 40 46 36 40 46 36 40 46 36 40 46 38 41 47 39 41 45 39 41 45 39 41 45 
39 41 45 39 41 45 39 41 45 39 41 45 39 41 45 39 41 45 39 41 45 39 41 45 
38 41 45 36 40 46 36 40 46 36 40 46 36 40 46 36 40 46 36 40 46 36 40 46 
36 40 46 36 40 46 36 40 46 36 40 46 36 40 46 36 40 46 36 40 46 36 40 46 
36 40 46 36 40 46 36 40 45 36 40 46 36 40 46 36 40 46 36 40 46 37 41 45 
39 41 45 39 41 45 37 40 45 36 40 45 36 40 45 32 35 42 60 64 71 147 165 171 
153 177 190 153 177 190 161 189 201 184 206 218 193 212 222 191 208 219 191 208 219 191 208 219 
191 208 219 191 208 219 193 212 222 184 200 204 153 177 190 153 177 190 153 177 190 137 160 165 
41 46 52 34 32 40 38 36 46 35 36 45 37 35 44 38 37 44 38 37 44 38 37 44 
38 37 44 38 37 44 37 37 42 36 37 42 36 37 41 36 37 41 34 35 39 35 36 40 
38 37 44 38 37 44 37 36 43 38 37 44 38 38 44 38 38 44 37 37 42 37 37 42 
37 37 42 38 36 44 37 36 43 36 35 42 37 36 43 36 35 42 36 37 42 37 39 43 
37 39 43 37 38 42 37 38 42 37 38 42 38 37 44 38 37 44 38 37 44 38 37 44 
38 37 44 38 37 44 38 39 43 39 40 44 38 40 44 39 41 45 39 41 45 39 41 45 
39 41 45 39 41 45 39 41 45 39 41 45 39 41 45 39 41 45 39 41 45 39 41 45 
39 41 45 39 41 45 39 41 45 39 41 45 39 41 45 39 41 45 39 41 45 39 41 45 
39 41 45 39 41 45 39 41 45 39 41 45 39 41 45 39 41 45 39 41 45 39 41 45 
39 41 45 39 41 45 41 40 45 41 40 45 41 40 45 39 41 45 39 41 45 39 41 45 
39 41 45 39 41 45 39 41 45 39 41 45 40 42 46 40 42 46 40 42 46 40 42 46 
40 42 46 40 42 46 40 42 46 39 41 45 39 41 45 39 41 45 40 42 46 39 41 45 
39 41 45 39 41 45 39 41 45 40 42 46 
35 39 44 35 39 44 36 39 44 38 40 44 38 40 44 39 41 45 39 41 45 39 41 45 
39 41 45 39 41 45 39 41 45 39 41 45 39 41 45 39 41 45 39 41 45 39 41 45 
39 41 45 39 41 45 39 41 45 39 41 45 39 41 45 39 41 45 39 41 45 39 41 45 
39 41 45 39 41 45 39 41 45 39 41 45 39 41 45 39 41 45 39 41 45 39 40 46 
38 40 47 39 40 46 39 41 45 39 41 45 39 41 45 39 41 45 39 40 44 39 41 45 
39 41 45 39 41 45 39 41 45 39 41 45 39 41 45 39 41 45 39 41 45 39 41 45 
39 41 45 39 41 45 39 41 45 39 41 45 39 41 45 39 41 45 39 41 45 39 41 45 
39 41 45 39 41 45 38 40 44 36 37 41 37 39 43 36 38 42 38 40 44 39 41 45 
39 41 45 38 40 44 38 40 44 39 41 45 38 40 44 37 39 43 38 40 44 38 39 43 
37 39 43 36 38 42 36 37 41 39 40 44 39 40 44 41 40 45 41 40 45 38 39 44 
38 38 44 42 38 45 42 38 45 42 38 45 42 38 45 41 40 46 41 40 45 38 41 46 
39 41 46 39 40 46 42 38 45 41 40 46 41 40 46 39 40 46 37 41 46 37 40 44 
35 34 40 59 51 57 137 160 165 155 184 190 155 184 190 153 177 190 175 197 204 193 212 222 
191 208 219 191 208 219 191 208 219 191 208 219 193 211 218 198 211 221 191 208 219 161 189 201 
153 177 190 155 184 190 147 165 171 91 77 82 35 36 45 38 40 45 36 40 46 36 40 46 
36 40 46 36 40 46 36 40 46 36 40 46 36 40 46 36 40 46 36 40 46 36 40 46 
36 40 46 36 40 46 36 40 46 36 40 46 36 40 46 36 40 46 36 40 46 36 40 46 
36 40 46 36 40 46 36 40 46 36 40 46 37 40 46 38 41 45 39 41 45 39 41 45 
39 41 45 39 41 45 39 41 45 39 41 45 39 41 45 39 41 45 39 41 45 39 41 45 
37 41 45 36 40 46 36 40 46 36 40 46 36 40 46 36 40 46 36 40 46 36 40 46 
36 40 46 36 40 46 36 40 46 36 40 46 36 40 46 36 40 46 36 40 46 36 40 46 
36 40 46 36 40 46 36 40 46 36 40 46 36 40 46 36 40 46 36 40 46 38 41 45 
39 40 44 38 40 44 37 39 44 35 39 44 35 39 44 32 35 42 60 64 71 147 165 171 
153 177 190 153 177 190 161 189 201 184 206 218 193 211 218 191 208 219 191 208 219 191 208 219 
191 208 219 191 208 219 193 212 222 175 197 204 153 177 190 153 177 190 153 177 190 137 160 165 
41 46 52 34 33 43 38 39 44 37 39 44 38 38 44 38 37 44 38 37 44 38 37 44 
38 37 44 38 37 44 38 39 44 39 40 47 38 40 45 38 39 44 35 36 41 35 36 41 
37 36 43 38 37 44 37 37 44 38 37 44 38 38 44 37 37 44 35 38 43 35 38 44 
37 38 43 36 35 41 37 37 42 37 37 42 38 37 44 38 37 44 36 37 42 37 39 43 
38 40 44 37 39 43 37 38 42 37 38 42 38 37 44 38 37 44 38 37 44 38 37 44 
38 37 44 38 37 44 38 39 43 38 40 44 39 41 45 39 41 45 39 41 45 39 41 45 
39 41 45 39 41 45 39 41 45 39 41 45 39 41 45 39 41 45 39 41 45 39 41 45 
39 41 45 39 41 45 39 41 45 39 41 45 39 41 45 39 41 45 39 41 45 39 41 45 
39 41 45 39 41 45 39 41 45 39 41 45 39 41 45 39 41 45 39 41 45 40 42 46 
40 42 46 39 41 45 41 40 45 41 40 45 39 41 45 39 41 45 39 41 45 39 41 45 
39 41 45 39 41 45 40 42 46 40 42 46 39 41 45 39 41 45 39 41 45 39 41 45 
40 42 46 40 42 46 40 42 46 40 42 46 39 41 45 39 41 45 39 41 45 39 41 45 
39 41 45 39 41 45 39 41 45 40 42 46 
37 40 44 37 40 44 37 40 44 38 40 44 38 40 44 38 40 44 39 41 45 39 41 45 
39 41 45 39 41 45 39 41 45 39 41 45 39 41 45 39 41 45 39 41 45 39 41 45 
39 41 45 39 41 45 39 41 45 39 41 45 38 40 44 38 40 44 39 41 45 39 41 45 
39 41 45 39 41 45 39 41 45 39 41 45 39 41 45 39 41 45 39 41 45 39 41 45 
38 40 45 39 41 45 39 41 45 39 41 45 39 41 45 39 41 45 38 40 44 39 41 45 
38 40 44 39 41 45 39 41 45 39 41 45 39 41 45 39 41 45 39 41 45 39 41 45 
39 41 45 39 41 45 39 41 45 39 41 45 39 41 45 39 41 45 39 41 45 39 41 45 
39 41 45 39 41 45 39 41 45 36 38 42 38 39 43 37 39 43 37 39 43 38 40 44 
39 41 45 39 41 45 39 41 45 39 41 45 39 41 45 39 40 44 39 41 45 39 40 44 
38 40 44 37 38 42 37 39 43 39 41 45 41 40 45 42 38 45 39 41 45 38 41 44 
41 40 45 42 38 45 42 38 45 42 38 45 42 38 45 42 38 45 39 41 45 39 41 45 
38 41 45 38 40 45 39 40 47 42 38 45 42 38 45 39 40 46 38 39 44 37 38 43 
35 36 41 41 46 52 97 113 122 137 160 165 137 160 165 137 160 165 153 177 190 184 206 218 
175 197 204 184 200 204 184 200 204 184 200 204 175 197 204 184 200 204 173 188 188 137 160 165 
137 160 165 137 160 165 97 113 122 60 64 71 35 39 45 37 40 45 36 40 46 36 40 46 
36 40 46 36 40 46 36 40 46 36 40 46 36 40 46 36 40 46 36 40 46 36 40 46 
36 40 46 36 40 46 36 40 46 36 40 46 36 40 46 36 40 46 36 40 46 36 40 46 
36 40 46 36 40 46 36 40 46 36 40 46 36 40 46 36 40 46 37 40 46 37 40 46 
37 40 46 37 40 46 37 40 46 37 40 46 37 40 46 37 40 46 37 40 46 37 40 46 
36 40 46 36 40 46 36 40 46 36 40 46 36 40 46 36 40 46 36 40 46 36 40 46 
36 40 46 36 40 46 36 40 46 36 40 46 36 40 46 36 40 46 36 40 46 36 40 46 
36 40 46 36 40 46 36 40 46 36 40 46 37 41 46 38 41 45 38 41 45 39 41 45 
39 40 44 38 40 44 38 40 44 37 40 44 38 40 44 34 36 45 60 64 71 97 113 122 
137 160 165 137 160 165 137 160 165 161 189 201 184 206 218 184 200 204 184 200 204 175 197 204 
175 197 204 175 197 204 175 197 204 147 176 186 137 160 165 137 160 165 137 160 165 97 113 122 
41 46 52 36 35 42 37 39 42 37 39 43 38 38 44 38 37 44 37 36 43 38 37 44 
38 37 44 38 37 44 37 37 44 38 39 44 37 37 44 38 38 49 35 36 48 36 35 45 
36 35 45 36 35 45 38 36 46 38 38 44 38 37 44 37 37 44 37 39 44 38 40 45 
38 40 44 37 39 44 38 40 44 38 39 44 37 38 43 37 38 43 37 38 43 37 38 42 
36 38 42 36 38 42 37 38 42 37 38 42 38 37 44 38 37 44 38 37 44 38 37 44 
38 37 44 38 37 44 38 40 44 39 41 45 39 41 45 39 41 45 39 41 45 39 41 45 
39 41 45 39 41 45 39 41 45 39 41 45 39 41 45 39 41 45 38 40 44 39 41 45 
39 41 45 39 41 45 39 41 45 39 41 45 39 41 45 39 41 45 39 41 45 39 41 45 
39 41 45 39 41 45 39 41 45 39 41 45 39 41 45 39 41 45 39 41 45 39 41 45 
39 41 45 39 41 45 39 41 45 39 41 45 39 41 45 39 41 45 39 41 45 39 41 45 
39 41 45 39 41 45 39 41 45 39 41 45 39 41 45 39 41 45 39 41 45 39 41 45 
39 41 45 39 41 45 39 41 45 39 41 45 39 41 45 39 41 45 39 41 45 39 41 45 
39 41 45 39 41 45 39 41 45 40 42 46 
38 40 44 38 39 43 38 40 44 38 40 44 38 40 44 38 40 44 39 41 45 39 41 45 
39 41 45 39 41 45 39 41 45 39 41 45 39 41 45 39 41 45 39 41 45 39 41 45 
39 41 45 39 41 45 39 41 45 39 41 45 38 40 44 39 41 45 39 41 45 39 41 45 
39 41 45 39 41 45 39 41 45 39 41 45 39 41 45 39 41 45 39 41 45 39 41 45 
39 40 44 39 41 45 39 41 45 39 41 45 39 41 45 39 41 45 38 40 44 39 41 45 
39 41 45 39 41 45 39 41 45 39 41 45 39 41 45 39 41 45 39 41 45 39 41 45 
39 41 45 39 41 45 39 41 45 39 41 45 39 41 45 39 41 45 39 41 45 39 41 45 
39 41 45 39 41 45 39 41 45 36 38 42 37 39 43 39 40 44 37 38 42 38 39 43 
39 40 44 39 41 45 39 41 45 39 41 45 39 41 45 39 41 45 39 41 45 39 41 45 
38 40 44 38 40 44 39 41 45 38 41 45 41 40 45 42 38 45 41 40 45 41 40 45 
41 40 45 42 38 45 42 38 45 42 38 45 42 38 45 42 38 45 41 40 45 41 40 45 
39 40 44 41 40 46 39 40 47 39 40 46 38 39 44 38 40 45 38 39 44 38 39 44 
38 40 44 38 40 44 36 40 46 38 42 47 35 40 47 27 38 48 97 113 122 155 184 190 
153 177 190 153 177 190 155 184 190 155 184 190 153 177 190 155 184 190 137 160 165 60 64 71 
27 36 45 38 40 49 38 40 49 38 40 49 36 40 46 36 40 44 36 40 46 36 40 46 
36 40 46 36 40 46 36 40 46 36 40 46 36 40 46 36 40 46 36 40 46 36 40 46 
36 40 46 36 40 46 36 40 46 36 40 46 36 40 46 36 40 46 36 40 46 36 40 46 
36 40 46 36 40 46 36 40 46 36 40 46 36 40 46 36 40 46 36 40 46 36 40 46 
36 40 46 36 40 46 36 40 46 36 40 46 36 40 46 36 40 46 36 40 46 36 40 46 
36 40 46 36 40 46 36 40 46 36 40 46 36 40 46 36 40 46 36 40 46 36 40 46 
36 40 46 36 40 46 36 40 46 36 40 46 36 40 46 36 40 46 36 40 46 36 40 46 
36 40 46 36 40 46 36 40 46 36 40 46 37 41 46 39 41 45 39 41 45 39 41 45 
38 40 44 38 40 44 38 40 44 38 40 44 38 39 43 38 38 46 35 38 48 35 40 47 
35 40 47 32 35 42 60 64 71 137 160 165 155 184 190 153 177 190 153 177 190 153 177 190 
153 177 190 147 182 191 155 184 190 97 113 122 26 35 43 38 40 47 36 39 46 35 40 47 
36 39 45 37 38 43 37 38 42 37 38 42 38 38 44 38 37 44 37 36 43 38 37 44 
38 37 44 38 37 44 38 38 44 38 38 44 38 38 44 38 38 49 38 38 49 38 36 49 
35 36 48 36 35 45 36 35 45 37 37 44 38 37 44 37 37 42 38 39 44 38 39 44 
38 39 44 38 40 45 38 40 45 38 39 44 37 38 43 37 38 43 37 39 43 38 39 43 
37 38 42 36 37 41 36 37 41 37 38 42 38 37 44 38 37 44 38 37 44 38 37 44 
38 37 44 38 37 44 38 40 44 39 41 45 39 41 45 39 41 45 39 41 45 39 41 45 
39 41 45 39 41 45 39 41 45 39 41 45 39 41 45 39 41 45 38 40 44 38 40 44 
39 41 45 39 41 45 39 41 45 39 41 45 39 41 45 39 41 45 39 41 45 39 41 45 
39 41 45 39 41 45 39 41 45 39 41 45 39 41 45 39 41 45 39 41 45 39 41 45 
39 41 45 39 41 45 39 41 45 39 41 45 39 41 45 39 41 45 39 41 45 39 41 45 
39 41 45 39 41 45 39 41 45 39 41 45 39 41 45 39 41 45 39 41 45 39 41 45 
39 41 45 39 41 45 39 41 45 39 41 45 39 41 45 39 41 45 39 41 45 39 41 45 
39 41 45 39 41 45 39 41 45 40 42 46 
38 40 44 37 39 43 38 40 44 38 40 44 38 40 44 38 40 44 39 41 45 39 41 45 
39 41 45 39 41 45 39 41 45 39 41 45 39 41 45 39 41 45 39 41 45 39 41 45 
39 41 45 39 41 45 39 41 45 39 41 45 39 41 45 39 41 45 39 41 45 39 41 45 
39 41 45 39 41 45 39 41 45 39 41 45 39 41 45 39 41 45 39 41 45 39 41 45 
39 41 45 39 41 45 39 41 45 39 41 45 39 41 45 39 41 45 38 40 44 39 41 45 
39 41 45 39 41 45 39 41 45 39 41 45 39 41 45 39 41 45 39 41 45 39 41 45 
39 41 45 39 41 45 39 41 45 39 41 45 39 41 45 39 41 45 39 41 45 39 41 45 
39 41 45 39 41 45 39 40 44 37 37 42 36 37 42 38 39 44 37 38 42 37 38 43 
39 40 44 39 40 44 39 41 45 39 41 45 39 41 45 39 41 45 39 41 45 39 41 45 
38 40 44 39 41 45 39 41 45 41 40 45 41 40 45 42 38 45 42 38 45 42 38 45 
42 38 45 42 38 45 42 38 45 42 38 45 42 38 45 42 38 45 42 38 45 42 38 45 
42 38 45 42 38 45 39 40 46 38 38 46 36 39 45 36 40 45 37 41 46 38 41 45 
38 41 45 37 40 45 35 39 44 35 39 45 35 36 45 26 31 37 97 113 122 153 177 190 
153 177 190 155 184 190 155 184 190 153 177 190 147 182 191 147 182 191 137 160 165 41 46 52 
32 35 41 35 40 47 35 39 45 36 40 46 36 40 46 36 40 45 36 40 46 36 40 46 
36 40 46 36 40 46 36 40 46 36 40 46 36 40 46 36 40 46 36 40 46 36 40 46 
36 40 46 36 40 46 36 40 46 36 40 46 36 40 46 36 40 46 36 40 46 36 40 46 
36 40 46 36 40 46 36 40 46 36 40 46 36 40 46 36 40 46 36 40 46 36 40 46 
36 40 46 36 40 46 36 40 46 36 40 46 36 40 46 36 40 46 36 40 46 36 40 46 
36 40 46 36 40 46 36 40 46 36 40 46 36 40 46 36 40 46 36 40 46 36 40 46 
36 40 46 36 40 46 36 40 46 36 40 46 36 40 46 36 40 46 36 40 46 36 40 46 
36 40 46 36 40 46 37 40 46 37 40 46 38 41 45 39 40 44 38 40 44 38 40 44 
38 40 44 38 40 44 38 40 44 38 40 44 37 38 42 37 38 43 37 39 44 36 38 43 
35 36 41 28 35 39 60 64 71 137 160 165 153 177 190 147 176 189 153 177 190 153 177 190 
153 177 190 147 182 191 161 189 201 97 113 122 26 31 37 36 35 42 37 36 43 37 36 43 
37 38 43 37 38 42 37 38 42 37 38 42 38 37 44 38 37 44 38 37 44 38 37 44 
38 37 44 38 37 44 38 37 44 38 37 44 38 37 44 38 38 49 38 40 47 38 40 47 
38 38 49 35 36 48 36 35 45 37 35 44 37 35 44 37 37 44 37 37 44 38 38 46 
38 38 46 38 40 47 38 40 47 38 40 47 38 38 46 37 37 44 37 39 44 38 39 43 
38 39 43 36 38 42 36 37 41 37 38 42 38 37 44 38 37 44 38 37 44 38 37 44 
38 37 44 38 37 44 38 39 43 39 41 45 39 41 45 39 41 45 39 41 45 39 41 45 
39 41 45 39 41 45 39 41 45 39 41 45 39 41 45 39 41 45 39 41 45 39 41 45 
39 41 45 39 41 45 39 41 45 39 41 45 39 41 45 39 41 45 39 41 45 39 41 45 
39 41 45 39 41 45 39 41 45 39 41 45 39 41 45 39 41 45 39 41 45 39 41 45 
39 41 45 39 41 45 39 41 45 39 41 45 39 41 45 39 41 45 39 41 45 39 41 45 
39 41 45 39 41 45 39 41 45 39 41 45 39 41 45 39 41 45 39 41 45 39 41 45 
39 41 45 39 41 45 39 41 45 39 41 45 39 41 45 39 41 45 39 41 45 39 41 45 
39 41 45 39 41 45 39 41 45 40 42 46 
38 40 44 38 40 44 38 40 44 38 40 44 38 40 44 38 40 44 38 40 44 39 41 45 
39 41 45 39 41 45 39 41 45 39 41 45 39 41 45 39 41 45 39 41 45 39 41 45 
39 41 45 39 41 45 39 41 45 39 41 45 39 41 45 39 41 45 39 41 45 39 41 45 
39 41 45 39 41 45 39 41 45 39 41 45 39 41 45 39 41 45 39 41 45 39 41 45 
39 41 45 39 41 45 39 41 45 39 41 45 39 41 45 39 41 45 39 41 45 39 41 45 
39 41 45 39 41 45 39 41 45 39 41 45 39 41 45 39 41 45 39 41 45 39 41 45 
39 41 45 39 41 45 39 41 45 39 41 45 39 41 45 39 41 45 39 41 45 39 41 45 
39 41 45 38 40 44 38 39 44 38 38 44 37 36 43 36 35 42 38 37 44 38 38 44 
39 40 46 39 40 46 39 40 44 39 41 45 39 41 45 39 41 45 39 41 45 38 41 45 
38 41 45 39 41 45 39 41 45 41 40 45 42 38 45 42 38 45 42 38 45 42 38 45 
42 38 45 42 38 45 42 38 45 42 38 45 42 38 45 42 38 45 42 38 45 42 38 45 
42 38 45 41 40 45 38 39 44 38 38 46 35 39 45 35 40 45 36 40 46 37 40 46 
37 40 46 36 40 46 36 40 46 36 40 46 37 39 44 32 35 41 137 160 165 161 189 201 
155 184 190 161 189 201 155 184 190 155 184 190 155 184 190 161 189 201 137 160 165 60 64 71 
33 37 43 36 40 46 36 41 44 36 40 46 36 40 46 36 40 46 36 40 46 36 40 46 
36 40 46 36 40 46 36 40 46 36 40 46 36 40 46 36 40 46 36 40 46 36 40 46 
36 40 46 36 40 46 36 40 46 36 40 46 36 40 46 36 40 46 36 40 46 36 40 46 
36 40 46 36 40 46 36 40 46 36 40 46 36 40 46 36 40 46 36 40 46 36 40 46 
36 40 46 36 40 46 36 40 46 36 40 46 36 40 46 36 40 46 36 40 46 36 40 46 
36 40 46 36 40 46 36 40 46 36 40 46 36 40 46 36 40 46 36 40 46 36 40 46 
36 40 46 36 40 46 36 40 46 36 40 46 36 40 46 36 40 46 36 40 46 36 40 46 
36 40 46 36 40 46 38 41 45 38 41 45 39 41 45 38 40 44 38 40 44 38 40 44 
38 40 44 38 40 44 38 40 44 38 40 44 38 39 43 37 39 43 37 39 43 37 38 42 
37 38 42 31 35 39 60 64 71 137 160 165 155 184 190 147 182 191 153 177 190 155 184 190 
155 184 190 155 184 190 161 189 201 97 113 122 26 31 37 35 36 45 37 36 43 38 37 44 
38 37 44 38 37 44 37 38 42 37 38 42 38 37 44 38 37 44 38 37 44 38 37 44 
38 37 44 38 37 44 38 37 44 38 37 44 38 37 44 38 38 44 38 38 46 38 38 46 
38 38 49 35 36 48 36 35 45 35 36 48 38 36 46 38 36 49 35 36 48 38 36 49 
38 36 49 38 38 49 38 38 49 38 38 49 38 38 49 38 36 46 37 38 43 37 39 42 
38 39 43 37 38 42 36 37 41 37 38 42 38 37 44 38 37 44 38 37 44 38 37 44 
38 37 44 38 37 44 38 39 43 39 41 45 39 41 45 39 41 45 39 41 45 39 41 45 
39 41 45 39 41 45 39 41 45 39 41 45 39 41 45 39 41 45 39 41 45 39 41 45 
39 41 45 39 41 45 39 41 45 39 41 45 39 41 45 39 41 45 39 41 45 39 41 45 
39 41 45 39 41 45 39 41 45 39 41 45 39 41 45 39 41 45 39 41 45 39 41 45 
39 41 45 39 41 45 39 41 45 39 41 45 39 41 45 39 41 45 39 41 45 39 41 45 
39 41 45 39 41 45 39 41 45 39 41 45 39 41 45 41 40 45 41 40 45 41 40 45 
41 40 45 41 40 45 39 41 45 39 41 45 40 42 46 39 41 45 39 41 45 39 41 45 
39 41 45 39 41 45 39 41 45 39 41 45 
38 39 43 38 39 43 38 40 44 38 40 44 38 40 44 39 41 45 38 40 44 39 41 45 
39 41 45 38 40 44 39 41 45 39 41 45 39 41 45 39 41 45 39 41 45 39 41 45 
39 41 45 39 41 45 39 41 45 39 41 45 39 41 45 39 41 45 39 41 45 39 41 45 
39 41 45 39 41 45 39 41 45 39 41 45 39 41 45 39 41 45 39 41 45 39 41 45 
39 41 45 39 41 45 39 41 45 39 41 45 39 41 45 39 41 45 39 41 45 39 41 45 
39 41 45 39 41 45 39 41 45 39 41 45 39 41 45 39 41 45 39 41 45 39 41 45 
39 41 45 39 41 45 39 41 45 39 41 45 39 41 45 39 41 45 39 41 45 39 41 45 
39 41 45 38 39 44 36 37 42 37 36 43 37 36 43 37 36 43 39 40 46 38 38 44 
38 38 44 38 38 44 38 39 44 38 40 44 39 40 44 41 40 45 41 40 45 41 40 45 
41 40 45 41 40 45 41 40 45 42 38 45 42 38 45 42 38 45 42 38 45 42 38 45 
42 38 45 42 38 45 42 38 45 42 38 45 42 38 45 42 38 45 41 40 46 40 38 49 
39 40 47 39 40 47 38 40 45 38 40 45 36 40 45 36 40 46 36 40 46 36 40 46 
36 40 46 36 40 46 36 40 46 36 40 46 37 40 45 33 37 43 97 113 122 137 160 165 
137 160 165 137 160 165 137 160 165 137 160 165 137 160 165 137 160 165 97 113 122 60 64 71 
34 36 45 36 40 46 36 40 45 36 40 45 36 40 46 36 40 46 36 40 46 36 40 46 
36 40 46 36 40 46 36 40 46 36 40 46 36 40 46 36 40 46 36 40 46 36 40 46 
36 40 46 36 40 46 36 40 46 36 40 46 36 40 46 36 40 46 36 40 46 36 40 46 
36 40 46 36 40 46 36 40 46 36 40 46 36 40 46 36 40 46 36 40 46 36 40 46 
36 40 46 36 40 46 36 40 46 36 40 46 36 40 46 36 40 46 36 40 46 36 40 46 
36 40 46 36 40 46 36 40 46 36 40 46 36 40 46 36 40 46 36 40 46 36 40 46 
36 40 46 36 40 46 36 40 46 36 40 46 36 40 46 36 40 46 36 40 46 36 40 46 
36 40 46 37 40 46 38 41 45 39 41 45 39 41 45 38 40 44 38 40 44 38 40 44 
38 40 44 38 40 44 38 40 44 38 40 44 38 40 44 38 39 43 37 39 43 37 38 42 
37 38 43 34 36 41 60 64 71 97 113 122 137 160 165 137 160 165 137 160 165 137 160 165 
137 160 165 137 160 165 137 160 165 97 113 122 32 33 43 35 35 43 36 37 42 38 37 44 
38 37 44 37 38 43 38 39 43 38 39 43 38 38 44 38 37 44 38 37 44 38 37 44 
38 37 44 38 37 44 38 37 44 38 37 44 38 37 44 38 38 44 38 38 44 38 38 46 
38 38 49 38 38 49 38 36 49 38 38 46 38 38 46 38 36 46 35 36 48 35 36 48 
35 36 48 35 36 48 35 36 48 38 38 49 38 38 49 38 38 49 38 38 46 38 39 43 
38 39 43 37 38 42 36 37 41 37 38 42 38 37 44 38 37 44 37 36 43 37 36 43 
38 37 44 38 38 44 39 40 44 39 41 45 39 41 45 39 41 45 39 41 45 39 41 45 
39 41 45 39 41 45 39 41 45 39 41 45 39 41 45 39 41 45 39 41 45 39 41 45 
39 41 45 39 41 45 39 41 45 39 41 45 39 41 45 39 41 45 39 41 45 39 41 45 
39 41 45 39 41 45 39 41 45 39 41 45 39 41 45 39 41 45 39 41 45 39 41 45 
39 41 45 39 41 45 39 41 45 39 41 45 39 41 45 39 41 45 39 41 45 39 41 45 
39 41 45 39 41 45 39 41 45 39 41 45 39 41 45 41 40 45 41 40 45 41 40 46 
41 40 46 41 40 46 41 40 46 40 42 46 40 42 46 39 41 45 39 41 45 39 41 45 
39 41 45 39 41 45 39 41 45 39 41 45 
37 39 43 37 39 43 38 40 44 38 40 44 38 40 44 38 40 44 38 40 44 39 41 45 
39 41 45 38 40 44 39 41 45 39 41 45 39 41 45 39 41 45 39 41 45 39 41 45 
39 41 45 39 41 45 39 41 45 39 41 45 39 41 45 39 41 45 39 41 45 39 41 45 
39 41 45 39 41 45 39 41 45 39 41 45 39 41 45 39 41 45 39 41 45 39 41 45 
39 41 45 39 41 45 39 41 45 39 41 45 39 41 45 39 41 45 39 41 45 39 41 45 
39 41 45 39 41 45 39 41 45 39 41 45 39 41 45 39 41 45 39 41 45 39 41 45 
39 41 45 39 41 45 39 41 45 39 41 45 39 41 45 39 41 45 39 41 45 39 41 45 
39 41 45 37 38 43 36 37 42 37 37 42 37 37 42 38 37 44 39 40 46 38 37 44 
38 37 44 38 37 44 38 38 44 38 39 44 38 39 44 41 40 46 42 38 45 42 38 45 
42 38 45 42 38 45 42 38 45 42 38 45 42 38 45 42 38 45 42 38 45 42 38 45 
42 38 45 42 38 45 42 38 45 42 38 45 42 38 45 42 38 45 40 38 49 38 38 49 
35 36 48 38 38 46 38 40 45 39 41 45 37 41 45 37 41 45 37 40 45 36 40 45 
36 40 45 36 40 45 36 40 46 36 40 46 37 40 46 36 39 46 59 51 57 60 64 71 
60 64 71 60 64 71 60 64 71 60 64 71 60 64 71 60 64 71 60 64 71 41 46 52 
36 39 46 36 40 46 36 40 45 36 40 46 36 40 46 36 40 46 36 40 46 36 40 46 
36 40 46 36 40 46 36 40 46 36 40 46 36 40 46 36 40 46 36 40 46 36 40 46 
36 40 46 36 40 46 36 40 46 36 40 46 36 40 46 36 40 46 36 40 46 36 40 46 
36 40 46 36 40 46 36 40 46 36 40 46 36 40 46 36 40 46 36 40 46 36 40 46 
36 40 46 36 40 46 36 40 46 36 40 46 36 40 46 36 40 46 36 40 46 36 40 46 
36 40 46 36 40 46 36 40 46 36 40 46 36 40 46 36 40 46 36 40 46 36 40 46 
36 40 46 36 40 46 36 40 46 36 40 46 36 40 46 36 40 46 36 40 46 36 40 46 
36 40 46 37 40 46 38 41 45 38 40 44 38 40 44 38 40 44 38 40 44 38 40 44 
38 40 44 38 40 44 38 40 44 38 40 44 38 40 44 38 40 44 38 40 44 38 39 43 
37 39 44 35 39 43 38 42 47 60 64 71 60 64 71 60 64 71 60 64 71 60 64 71 
60 64 71 60 64 71 60 64 71 59 51 57 35 36 45 35 36 45 37 37 42 38 37 44 
38 37 44 38 38 44 38 40 44 38 39 43 37 38 43 38 37 44 37 37 42 37 37 42 
38 37 44 38 36 46 37 35 44 37 37 44 38 37 44 38 37 44 38 37 44 38 37 44 
38 38 46 38 40 47 38 40 47 38 40 45 37 39 44 37 37 44 38 36 49 35 36 45 
36 35 45 35 36 45 35 36 45 37 37 44 38 36 46 38 38 46 38 38 46 37 39 42 
37 38 42 37 38 42 36 37 41 36 37 41 37 37 42 38 36 44 37 36 43 37 36 43 
38 37 44 38 38 44 39 40 44 39 40 44 39 40 44 39 41 45 39 41 45 39 41 45 
39 41 45 39 41 45 39 41 45 39 41 45 39 40 44 38 40 44 38 40 44 38 40 44 
39 41 45 39 41 45 39 41 45 39 41 45 39 41 45 39 41 45 39 41 45 39 41 45 
39 41 45 39 41 45 39 41 45 39 41 45 39 41 45 39 41 45 39 41 45 39 41 45 
39 41 45 39 41 45 39 41 45 39 41 45 39 41 45 39 41 45 39 41 45 39 41 45 
39 41 45 39 41 45 39 41 45 41 40 45 41 40 45 39 41 45 41 40 45 41 40 45 
41 40 45 41 40 46 41 40 45 39 40 44 41 40 45 39 41 45 39 41 45 39 41 45 
39 41 45 39 41 45 39 41 45 40 42 46 
37 39 43 37 39 43 38 40 44 38 40 44 37 38 42 38 39 43 38 40 44 39 41 45 
39 41 45 39 41 45 39 41 45 38 40 44 39 41 45 39 41 45 38 40 44 38 40 44 
38 40 44 39 41 45 39 41 45 39 41 45 39 41 45 39 41 45 39 41 45 39 41 45 
39 41 45 39 41 45 39 41 45 39 41 45 39 41 45 39 41 45 39 41 45 38 40 44 
39 41 45 39 41 45 39 41 45 39 41 45 39 41 45 39 41 45 39 41 45 39 41 45 
39 41 45 38 40 44 38 40 44 39 41 45 39 41 45 39 41 45 39 41 45 39 41 45 
39 41 45 39 41 45 39 41 45 39 41 45 39 41 45 39 41 45 39 41 45 39 41 45 
39 41 45 37 39 43 38 39 44 38 38 44 38 37 44 38 37 44 38 37 44 38 37 44 
38 37 44 38 37 44 38 37 44 38 37 44 38 38 44 41 40 46 41 40 46 41 40 46 
42 38 45 42 38 45 42 38 45 42 38 45 42 38 45 42 38 45 42 38 45 42 38 45 
42 38 45 42 38 45 42 38 45 42 38 45 41 40 45 42 38 45 41 40 46 38 40 47 
38 38 46 37 38 43 38 40 44 39 41 45 39 41 45 39 41 45 38 41 45 37 40 44 
36 40 44 36 40 45 36 40 46 36 40 46 36 40 46 36 40 46 33 38 43 32 35 42 
32 35 42 33 37 42 32 35 38 34 35 40 35 37 41 35 37 41 36 38 42 38 40 45 
37 41 46 36 40 46 36 40 46 36 40 46 36 40 46 36 40 46 36 40 46 36 40 46 
36 40 46 36 40 46 36 40 46 36 40 46 36 40 46 36 40 46 36 40 46 36 40 46 
36 40 46 36 40 46 36 40 46 36 40 46 36 40 46 36 40 46 36 40 46 36 40 46 
36 40 46 36 40 46 36 40 46 36 40 46 36 40 46 36 40 46 36 40 46 36 40 46 
36 40 46 36 40 46 36 40 46 36 40 46 36 40 46 36 40 46 36 40 46 36 40 46 
36 40 46 36 40 46 36 40 46 36 40 46 36 40 46 36 40 46 36 40 46 36 40 46 
36 40 46 36 40 46 36 40 46 36 40 46 36 40 46 36 40 46 36 40 46 36 40 46 
36 40 46 37 40 46 38 41 45 38 40 44 37 39 43 38 40 44 38 40 44 38 40 44 
38 40 44 38 40 44 38 40 44 38 40 44 38 40 44 38 40 44 38 40 44 38 40 44 
36 40 44 35 39 44 33 37 42 31 35 39 31 35 39 32 35 41 32 33 43 32 35 42 
32 33 43 33 33 43 33 33 43 36 35 45 37 39 44 37 38 43 37 38 43 37 38 43 
37 38 43 38 39 44 38 40 44 36 38 42 36 37 41 35 36 41 35 36 41 36 37 41 
37 37 44 38 36 49 36 35 45 37 37 44 37 38 42 38 37 44 38 37 44 38 37 44 
38 38 44 38 39 44 38 39 44 38 40 44 36 38 42 34 36 41 35 36 48 35 36 45 
35 36 48 36 35 45 35 37 41 34 36 40 35 36 41 37 38 43 38 39 44 35 37 41 
35 36 40 36 37 41 36 37 41 35 36 40 37 37 42 37 37 42 37 36 43 37 36 43 
37 36 43 38 37 44 39 40 46 38 38 44 38 39 44 39 41 45 39 41 45 39 41 45 
39 41 45 39 41 45 39 41 45 39 41 45 38 39 43 38 39 43 37 39 43 37 38 42 
38 39 43 38 40 44 39 41 45 39 41 45 39 41 45 39 41 45 39 41 45 39 41 45 
39 41 45 39 41 45 39 41 45 39 41 45 39 41 45 39 41 45 39 41 45 39 41 45 
39 41 45 39 41 45 39 41 45 39 41 45 39 41 45 39 41 45 39 41 45 39 41 45 
39 41 45 39 41 45 41 40 45 41 40 45 41 40 45 39 41 45 39 41 45 39 41 45 
39 41 45 39 41 45 41 40 45 39 40 44 41 40 45 39 41 45 39 41 45 39 41 45 
39 41 45 39 41 45 39 41 45 40 42 46 
38 40 44 38 40 44 38 40 44 38 40 44 38 39 43 38 40 44 38 40 44 38 40 44 
39 40 44 39 41 45 39 41 45 38 40 44 39 41 45 39 41 45 39 41 45 39 41 45 
39 41 45 39 41 45 39 41 45 39 41 45 39 41 45 39 41 45 39 41 45 39 41 45 
39 41 45 39 41 45 39 41 45 39 41 45 39 41 45 39 41 45 39 41 45 39 40 44 
39 41 45 39 41 45 39 41 45 39 41 45 39 41 45 39 41 45 39 41 45 39 41 45 
39 41 45 38 40 44 38 40 44 38 40 44 39 41 45 39 41 45 39 41 45 39 41 45 
39 41 45 39 41 45 39 41 45 39 41 45 39 41 45 39 41 45 39 41 45 39 41 45 
39 41 45 38 39 44 37 38 43 37 36 43 38 37 44 38 37 44 38 37 44 38 37 44 
38 37 44 38 38 44 38 37 44 38 38 44 39 40 46 39 40 46 38 38 44 42 38 45 
42 38 45 42 38 45 42 38 45 42 38 45 42 38 45 42 38 45 42 38 45 42 38 45 
42 38 45 42 38 45 42 38 45 41 40 45 39 41 45 39 40 44 39 40 44 39 41 46 
39 40 46 38 40 44 39 41 45 39 41 45 39 41 45 39 41 45 38 41 45 37 40 44 
36 40 44 36 40 45 36 40 46 36 40 46 36 40 46 36 40 46 36 40 46 36 40 46 
36 40 46 36 40 46 37 40 45 39 40 44 39 41 45 39 41 45 39 41 45 39 41 45 
37 41 45 36 40 46 36 40 46 36 40 46 36 40 46 36 40 46 36 40 46 36 40 46 
36 40 46 36 40 46 36 40 46 36 40 46 36 40 46 36 40 46 36 40 46 36 40 46 
36 40 46 36 40 46 36 40 46 36 40 46 36 40 46 36 40 46 36 40 46 36 40 46 
36 40 46 36 40 46 36 40 46 36 40 46 36 40 46 36 40 46 36 40 46 36 40 46 
36 40 46 36 40 46 36 40 46 36 40 46 36 40 46 36 40 46 36 40 46 36 40 46 
36 40 46 36 40 46 36 40 46 36 40 46 36 40 46 36 40 46 36 40 46 36 40 46 
36 40 46 36 40 46 36 40 46 36 40 46 36 40 46 36 40 46 36 40 46 37 40 46 
37 40 46 35 39 44 38 40 44 38 39 43 37 39 42 38 39 43 39 41 45 38 40 44 
38 40 44 38 40 44 38 40 44 38 40 44 38 40 44 38 40 44 38 40 44 38 40 44 
36 39 42 34 38 43 35 39 44 35 38 44 34 38 43 35 39 45 35 38 48 35 38 48 
38 40 49 35 36 48 38 36 49 38 38 46 36 38 42 37 38 43 37 38 43 37 39 44 
37 39 44 38 39 44 38 40 44 37 38 42 35 37 41 34 35 39 35 36 40 37 39 43 
38 39 44 35 36 48 35 36 48 37 37 44 38 39 44 38 38 44 38 37 44 38 37 44 
38 37 44 38 38 44 38 38 44 38 39 44 37 39 43 37 37 44 38 38 49 35 36 45 
35 36 48 35 36 48 35 36 41 34 35 39 33 35 39 37 38 42 38 39 43 37 39 43 
37 38 42 37 39 43 37 39 43 36 39 42 36 38 43 36 38 43 36 38 43 38 37 44 
38 37 44 38 37 44 39 40 47 38 37 44 38 39 44 38 39 43 39 41 45 39 41 45 
39 41 45 39 41 45 39 41 45 39 41 45 39 40 44 37 39 43 36 37 41 38 39 43 
38 40 44 38 40 44 38 40 44 38 40 44 38 40 44 38 40 44 39 41 45 39 41 45 
38 40 44 39 41 45 39 41 45 39 41 45 39 41 45 39 41 45 39 41 45 39 41 45 
39 41 45 39 41 45 39 41 45 39 41 45 39 41 45 39 41 45 39 41 45 39 41 45 
39 41 45 39 41 45 41 40 45 41 40 45 41 40 45 39 41 45 39 41 45 39 41 45 
39 41 45 39 41 45 39 41 45 41 40 45 41 40 45 39 41 45 39 41 45 39 41 45 
39 41 45 39 41 45 39 41 45 40 42 46 
37 39 43 37 39 43 37 39 43 37 39 43 38 40 44 38 40 44 38 40 44 38 40 44 
39 40 44 39 41 45 38 40 44 38 40 44 39 41 45 39 41 45 38 40 44 38 40 44 
39 41 45 39 41 45 39 41 45 39 41 45 39 41 45 39 41 45 38 40 44 38 40 44 
39 41 45 39 41 45 38 40 44 39 41 45 39 41 45 39 41 45 39 41 45 39 41 45 
39 41 45 39 41 45 39 41 45 39 41 45 39 41 45 39 41 45 39 41 45 39 41 45 
38 40 44 39 41 45 38 40 44 37 39 43 39 41 45 39 41 45 39 41 45 39 41 45 
39 41 45 39 41 45 39 41 45 39 41 45 39 41 45 39 41 45 39 41 45 39 41 45 
39 41 45 38 39 44 38 37 44 37 36 43 38 37 44 38 36 44 38 37 44 38 37 44 
38 37 44 38 37 44 38 37 44 38 38 44 38 38 44 38 38 44 38 37 44 38 37 44 
42 38 45 42 38 45 42 38 45 42 38 45 42 38 45 42 38 45 41 40 45 41 40 45 
42 38 45 42 38 45 42 38 45 41 40 45 39 41 45 38 41 45 39 41 45 39 41 45 
39 41 45 39 41 45 39 41 45 39 41 45 39 41 45 39 41 45 39 41 45 38 41 45 
38 41 45 38 41 45 38 41 45 38 41 45 37 40 46 36 40 46 36 40 46 36 40 46 
36 40 46 36 40 46 36 40 46 38 40 45 38 40 45 38 40 45 38 40 45 37 40 46 
37 40 46 36 40 46 36 40 46 36 40 46 36 40 46 36 40 46 36 40 46 36 40 46 
36 40 46 36 40 46 36 40 46 36 40 46 36 40 46 36 40 46 36 40 46 36 40 46 
36 40 46 36 40 46 36 40 46 36 40 46 36 40 46 36 40 46 36 40 46 36 40 46 
36 40 46 36 40 46 36 40 46 36 40 46 36 40 46 36 40 46 36 40 46 36 40 46 
36 40 46 36 40 46 36 40 46 36 40 46 36 40 46 36 40 46 36 40 46 36 40 46 
36 40 46 36 40 45 36 40 45 36 40 45 36 40 45 36 40 45 36 40 46 36 40 46 
36 40 46 36 40 46 36 40 46 36 40 46 37 40 46 35 39 45 36 40 45 36 39 45 
36 40 45 35 38 44 36 39 45 36 39 45 36 39 45 36 39 46 36 39 46 37 39 44 
37 40 45 37 39 44 37 39 43 38 39 43 37 39 43 37 39 43 38 40 44 38 40 44 
36 39 44 35 38 44 35 39 45 35 39 44 35 39 44 36 40 46 35 38 48 35 38 48 
38 38 49 35 36 48 35 36 48 35 36 45 35 36 45 36 35 45 35 36 45 35 38 44 
33 36 42 36 39 42 38 39 43 36 37 41 34 36 40 34 36 40 34 36 40 35 37 41 
36 37 42 35 36 45 38 38 46 36 38 43 37 39 43 38 39 44 37 37 42 37 37 42 
38 37 44 38 37 44 37 37 42 38 39 43 38 40 44 39 40 46 38 38 46 35 35 43 
37 37 44 37 36 43 35 36 40 35 36 40 35 35 40 36 37 41 37 38 43 37 40 44 
37 40 45 38 40 44 38 40 44 37 40 44 36 39 44 35 39 43 35 39 44 37 39 44 
38 38 44 38 37 44 39 40 44 38 39 44 38 39 44 38 39 43 38 40 44 39 41 45 
39 41 45 39 41 45 39 41 45 39 40 44 39 41 45 37 39 43 35 37 41 37 40 44 
37 40 45 36 39 44 37 39 44 37 40 45 38 40 44 38 40 44 38 40 44 39 41 45 
39 41 45 39 41 45 39 41 45 39 41 45 39 41 45 39 41 45 39 41 45 39 41 45 
39 41 45 39 41 45 39 41 45 39 41 45 39 41 45 39 41 45 39 41 45 39 41 45 
39 41 45 39 41 45 39 41 45 39 41 45 39 41 45 38 40 44 38 40 44 38 40 44 
38 40 44 39 41 45 39 41 45 39 41 45 39 41 45 39 41 45 39 41 45 39 41 45 
39 41 45 39 41 45 39 41 45 40 42 46 
37 38 42 36 37 41 38 39 43 37 39 43 37 38 42 37 39 43 38 40 44 38 40 44 
39 41 45 39 40 44 38 40 44 38 40 44 39 41 45 39 40 44 38 40 44 38 40 44 
39 41 45 39 41 45 39 41 45 39 41 45 39 41 45 39 41 45 39 41 45 39 41 45 
39 41 45 39 41 45 39 41 45 39 41 45 39 41 45 39 41 45 39 41 45 39 41 45 
39 41 45 39 41 45 39 41 45 39 41 45 39 41 45 39 41 45 39 41 45 38 40 44 
37 39 43 39 40 44 37 39 43 37 38 42 38 40 44 39 41 45 39 41 45 39 41 45 
39 41 45 39 41 45 39 41 45 39 41 45 39 41 45 39 41 45 39 41 45 39 40 44 
38 40 44 38 38 44 38 36 44 38 37 44 38 37 44 38 36 44 38 37 44 38 37 44 
38 37 44 38 37 44 38 37 44 38 37 44 38 37 44 38 37 44 38 37 44 38 37 44 
38 36 44 42 38 45 41 40 46 42 38 45 42 38 45 42 38 45 41 40 45 41 40 45 
41 40 45 42 38 45 41 40 45 39 40 44 39 41 45 39 41 45 39 41 45 39 41 45 
39 41 45 39 41 45 39 41 45 39 41 45 39 41 45 39 41 45 39 41 45 39 41 45 
39 41 45 39 41 45 39 41 45 39 41 45 38 40 45 36 40 46 36 40 46 36 40 46 
36 40 46 36 40 46 36 40 46 36 40 46 36 40 46 36 40 46 36 40 46 36 40 46 
36 40 46 36 40 46 36 40 46 36 40 46 36 40 46 36 40 46 36 40 46 36 40 46 
36 40 46 36 40 46 36 40 46 36 40 46 36 40 46 36 40 46 36 40 46 36 40 46 
36 40 46 36 40 46 36 40 46 36 40 46 36 40 46 36 40 46 36 40 46 36 40 46 
36 40 46 36 40 46 36 40 46 36 40 46 36 40 46 36 40 46 36 40 46 36 40 46 
36 40 46 36 40 46 36 40 46 36 40 46 36 40 46 36 40 46 36 40 46 36 40 46 
36 40 46 36 40 45 36 40 45 36 40 45 36 40 46 36 40 46 36 40 46 36 40 46 
36 40 46 36 40 46 36 40 46 36 40 46 37 40 46 36 40 45 35 39 45 34 38 44 
35 39 44 36 40 46 35 38 48 35 36 48 35 38 48 35 36 48 34 38 48 35 38 44 
36 40 45 35 39 43 36 38 43 38 39 43 38 39 43 38 40 44 38 40 44 38 41 45 
36 40 44 35 38 44 34 38 43 35 38 44 34 38 43 34 38 43 33 37 43 34 36 45 
35 36 48 35 36 48 35 36 48 35 36 48 35 36 48 35 36 48 34 36 45 36 35 45 
37 37 44 37 39 43 37 39 42 34 36 40 34 35 39 34 36 40 33 35 39 33 35 39 
36 37 41 34 36 40 35 37 41 35 37 41 36 38 42 37 38 42 35 36 41 36 37 42 
37 38 43 37 37 42 36 35 41 37 38 42 37 39 43 38 40 44 38 39 43 35 36 40 
35 37 41 34 36 40 33 35 39 34 35 40 36 35 42 35 35 40 34 36 41 34 38 43 
35 38 43 35 37 41 36 37 41 37 39 43 36 39 44 34 38 43 35 39 45 35 39 44 
38 38 44 38 37 44 38 40 44 38 40 44 39 41 45 39 41 45 39 41 45 39 41 45 
39 41 45 39 41 45 39 41 45 39 41 45 39 40 44 37 40 45 35 39 44 34 38 43 
35 39 44 34 38 43 36 39 45 37 40 45 38 40 44 38 40 44 38 40 44 38 40 44 
38 40 44 39 41 45 39 41 45 39 41 45 39 41 45 39 41 45 39 41 45 39 41 45 
39 41 45 39 41 45 39 41 45 39 41 45 39 41 45 39 41 45 39 41 45 39 41 45 
39 41 45 39 41 45 39 41 45 39 41 45 39 41 45 39 41 45 38 40 44 38 40 44 
38 40 44 38 40 44 39 41 45 39 41 45 39 41 45 39 41 45 39 41 45 39 41 45 
39 41 45 39 41 45 39 41 45 40 42 46 
37 38 42 37 38 42 37 38 42 37 39 43 38 40 44 38 40 44 38 40 44 39 41 45 
39 41 45 38 40 44 39 40 44 38 40 44 39 41 45 39 41 45 39 41 45 38 40 44 
39 41 45 39 41 45 39 41 45 39 41 45 39 41 45 39 41 45 39 41 45 39 41 45 
39 41 45 39 41 45 39 41 45 38 40 44 38 40 44 38 40 44 38 40 44 39 41 45 
39 41 45 39 41 45 39 41 45 39 41 45 39 41 45 39 41 45 39 41 45 39 41 45 
39 41 45 38 40 44 38 40 44 38 40 44 38 40 44 39 40 44 38 40 44 38 40 44 
39 41 45 39 41 45 39 41 45 39 41 45 39 41 45 39 41 45 37 39 43 35 37 41 
35 36 40 37 37 42 37 36 43 37 36 43 38 37 44 38 37 44 38 37 44 38 37 44 
38 37 44 38 38 44 38 37 44 38 37 44 38 37 44 38 37 44 38 37 44 38 37 44 
38 36 44 38 36 44 42 38 45 42 38 45 42 38 45 42 38 45 41 40 45 39 39 42 
38 39 44 41 40 45 41 40 45 39 40 44 39 41 45 39 41 45 39 41 45 39 41 45 
39 41 45 39 41 45 39 41 45 39 41 45 39 41 45 39 41 45 39 41 45 39 41 45 
39 41 45 39 41 45 39 41 45 39 41 45 38 40 45 36 40 46 36 40 46 36 40 46 
36 40 46 36 40 46 36 40 46 36 40 46 36 40 46 36 40 46 36 40 46 36 40 46 
36 40 46 36 40 46 36 40 46 36 40 46 36 40 46 36 40 46 36 40 46 36 40 46 
36 40 46 36 40 46 36 40 46 36 40 46 36 40 45 35 39 45 36 40 46 36 40 46 
36 40 46 36 40 46 36 40 46 36 40 46 36 40 46 36 40 46 36 40 46 36 40 46 
36 40 46 36 40 46 36 40 46 36 40 46 36 40 46 36 40 46 36 40 46 36 40 46 
36 40 46 36 40 46 36 40 46 36 40 46 36 40 46 36 40 46 36 40 46 37 41 46 
35 39 45 35 38 44 36 39 46 35 39 45 35 38 48 35 38 48 36 40 46 35 39 45 
36 40 46 36 40 46 36 40 46 36 40 46 38 41 47 35 39 44 34 38 43 35 38 43 
33 37 43 35 38 44 34 38 48 35 38 48 35 38 48 34 38 48 34 38 48 35 38 44 
34 38 43 33 37 42 35 37 41 37 38 42 38 39 43 38 39 43 38 39 43 38 39 43 
35 39 43 34 38 43 34 38 43 34 38 44 35 39 44 34 38 44 33 37 43 34 36 45 
34 36 45 35 36 48 35 36 48 38 36 49 38 36 49 35 36 48 34 36 45 33 33 43 
35 36 45 35 36 41 35 37 41 34 36 40 34 35 39 33 35 39 34 36 40 33 35 39 
34 35 39 35 36 40 35 36 40 35 36 40 35 36 40 36 38 42 38 39 43 37 39 43 
36 39 42 36 39 44 36 39 44 36 37 41 35 36 40 37 38 42 36 37 41 36 37 41 
35 37 41 33 35 39 35 36 40 34 36 41 35 38 43 36 38 43 35 38 43 34 38 43 
35 39 44 35 37 41 33 35 39 33 35 39 33 35 40 33 37 42 34 38 43 35 39 45 
39 40 46 38 37 44 38 40 44 38 40 44 38 40 44 39 41 45 39 41 45 39 41 45 
39 41 45 39 41 45 39 41 45 39 41 45 38 39 43 37 40 46 34 38 43 34 38 43 
37 41 46 35 39 44 35 38 43 37 39 43 38 39 43 38 40 44 38 40 44 39 41 45 
39 41 45 39 41 45 39 41 45 39 41 45 39 41 45 39 41 45 39 41 45 39 41 45 
39 41 45 39 41 45 39 41 45 39 41 45 39 41 45 39 41 45 39 41 45 39 41 45 
39 41 45 39 41 45 39 41 45 39 41 45 39 41 45 39 41 45 39 41 45 39 41 45 
38 40 44 38 40 44 39 41 45 39 41 45 39 41 45 39 41 45 39 41 45 39 41 45 
39 41 45 39 41 45 39 41 45 39 41 45 
37 39 43 38 39 43 37 38 42 38 39 43 37 38 42 37 38 43 37 39 44 37 40 45 
38 41 45 38 40 44 39 40 44 39 41 45 39 41 45 38 40 44 38 40 44 39 41 45 
38 40 44 39 41 45 39 41 45 39 41 45 39 41 45 39 41 45 39 41 45 39 41 45 
39 41 45 38 40 44 39 41 45 38 40 44 38 39 43 38 40 44 38 40 44 39 41 45 
39 41 45 39 41 45 39 41 45 39 41 45 39 41 45 39 41 45 39 41 45 39 41 45 
39 41 45 38 40 44 38 40 44 38 40 44 38 39 43 38 40 44 38 40 44 39 40 44 
39 41 45 39 41 45 39 41 45 39 41 45 39 41 45 38 40 44 37 39 43 35 36 40 
35 36 40 36 35 41 35 35 40 35 36 41 37 37 42 38 37 44 38 37 44 38 37 44 
38 37 44 38 38 44 38 37 44 38 37 44 38 37 44 38 37 44 38 37 44 38 37 44 
38 36 44 42 38 45 42 38 45 42 38 45 42 38 45 42 38 45 38 38 44 37 36 43 
37 37 42 37 40 44 38 41 45 39 41 45 39 41 45 39 41 45 39 41 45 39 41 45 
39 41 45 39 41 45 39 41 45 39 41 45 38 40 44 37 40 44 37 40 44 38 41 45 
38 41 45 38 41 45 39 41 45 39 41 45 38 40 45 36 40 45 36 40 45 36 40 46 
36 40 46 36 40 46 36 40 46 36 40 46 36 40 46 37 40 46 37 41 46 37 40 46 
36 40 46 37 40 46 37 40 46 36 40 46 37 41 46 37 40 46 37 40 46 37 40 46 
37 40 46 36 40 46 36 40 46 36 40 46 38 41 47 38 41 47 38 41 47 35 40 47 
36 40 46 37 40 46 37 41 46 36 40 46 36 40 46 37 40 45 36 39 45 37 40 46 
37 40 46 36 40 46 36 40 46 37 40 46 37 40 46 37 40 46 36 40 46 37 40 46 
37 40 46 36 40 46 36 40 46 36 40 46 37 40 46 36 40 46 36 40 46 38 41 47 
35 39 45 35 38 48 35 38 48 35 38 48 34 38 48 35 38 48 35 39 45 35 39 44 
37 40 46 36 40 45 36 40 46 36 40 46 36 40 46 34 38 43 33 37 43 34 38 43 
33 37 42 33 37 43 35 38 44 34 36 45 35 36 45 34 36 45 34 36 45 34 38 43 
33 37 42 33 37 43 34 36 45 32 35 42 33 35 40 35 38 42 35 38 42 35 38 43 
35 39 44 33 38 43 33 37 43 36 38 43 36 39 45 35 37 41 33 36 42 33 37 43 
34 36 45 36 35 45 36 35 45 34 36 45 36 35 45 35 35 43 33 33 43 34 36 45 
35 36 45 34 36 41 34 36 41 34 36 41 35 36 41 34 34 39 35 36 40 34 36 41 
34 36 41 33 35 40 35 36 40 35 36 40 35 36 40 33 35 40 34 36 41 33 37 42 
32 35 41 33 37 42 33 37 42 34 36 41 35 37 41 36 39 42 35 37 41 33 35 39 
35 37 41 36 37 41 36 37 41 34 36 41 32 35 42 33 37 43 34 38 44 34 38 44 
35 38 43 36 37 42 36 37 41 35 37 41 33 37 42 35 38 42 35 38 43 35 38 43 
35 36 41 37 37 42 38 40 44 38 40 44 38 40 44 39 41 45 39 41 45 39 41 45 
39 41 45 39 41 45 39 41 45 39 41 45 39 40 44 37 40 46 34 38 43 34 38 43 
35 39 45 36 39 45 34 38 43 35 37 41 36 38 42 35 38 43 36 38 43 37 40 44 
39 41 46 39 41 45 39 41 45 39 41 45 39 41 45 39 41 45 39 41 45 39 41 45 
39 41 45 39 41 45 39 41 45 39 41 45 39 41 45 39 41 45 39 41 45 39 41 45 
39 41 45 39 41 45 39 41 45 39 41 45 39 41 45 39 41 45 39 41 45 39 41 45 
38 40 44 38 40 44 38 40 44 38 40 44 39 41 45 39 41 45 39 41 45 39 41 45 
39 41 45 39 41 45 38 40 44 39 41 45 
37 39 43 38 39 43 37 38 42 38 39 43 36 37 41 37 38 43 36 39 44 35 39 44 
36 40 44 38 40 44 39 41 45 39 41 45 39 40 44 38 40 44 39 41 45 39 41 45 
38 40 44 39 41 45 39 41 45 38 40 44 38 40 44 39 41 45 39 41 45 39 41 45 
39 41 45 38 40 44 39 41 45 37 39 43 37 38 42 38 40 44 38 40 44 39 41 45 
39 41 45 39 41 45 39 41 45 39 41 45 39 41 45 39 41 45 39 41 45 39 41 45 
39 41 45 38 40 44 38 40 44 38 40 44 38 39 43 38 40 44 39 41 45 39 41 45 
39 41 45 39 41 45 39 41 45 39 41 45 39 41 45 38 40 44 37 39 43 36 37 41 
37 38 42 36 37 41 35 36 40 34 35 39 36 37 42 38 37 44 38 37 44 38 37 44 
38 37 44 38 37 44 38 37 44 38 37 44 38 37 44 38 37 44 38 37 44 38 37 44 
38 36 44 41 40 46 41 40 46 41 40 46 41 40 46 41 40 46 38 37 44 36 35 42 
37 37 42 38 39 43 38 40 44 39 40 44 39 40 44 39 41 45 39 41 45 39 41 45 
39 41 45 39 41 45 39 41 45 39 41 45 37 40 44 36 40 44 36 40 44 36 40 44 
36 40 44 37 40 44 39 41 45 39 41 45 38 40 44 36 40 44 36 40 44 36 40 45 
36 40 46 36 40 46 36 40 46 36 40 46 36 40 46 37 40 46 36 40 46 35 39 45 
35 38 48 35 38 48 35 38 48 35 38 48 34 38 48 35 38 48 35 38 48 35 38 48 
35 38 48 35 38 48 35 38 48 35 38 48 38 40 49 35 38 48 35 38 48 35 38 48 
35 38 48 35 40 47 36 40 46 36 40 46 36 40 46 36 40 46 35 39 45 35 38 48 
35 38 48 35 38 48 34 38 48 35 38 48 38 40 49 36 39 46 36 39 46 36 40 46 
37 40 46 36 40 46 35 39 45 36 40 46 36 40 46 36 40 45 36 40 46 37 40 46 
35 39 45 34 38 48 34 38 48 34 38 48 34 38 48 34 36 45 33 36 42 34 38 43 
35 39 44 36 39 45 36 40 46 36 40 46 35 39 45 33 37 42 33 37 42 33 37 42 
33 38 43 35 39 43 36 37 41 36 37 41 36 38 42 34 38 43 35 39 44 34 38 43 
33 36 42 34 36 45 35 36 48 34 36 45 32 35 42 33 38 43 32 35 42 34 38 43 
35 39 44 33 37 42 33 37 42 35 39 44 36 39 44 33 37 42 34 38 43 34 39 43 
33 37 42 34 36 40 33 35 39 34 35 39 34 36 40 32 34 39 35 37 41 34 38 43 
32 35 41 32 34 39 32 35 41 33 37 43 34 36 41 34 34 39 35 36 41 34 35 40 
33 37 42 31 35 39 33 35 40 33 35 39 32 35 38 32 35 41 33 37 42 33 37 43 
33 37 42 33 36 42 32 35 41 32 35 41 32 35 42 34 36 41 34 35 39 31 33 37 
33 35 39 35 36 40 34 35 39 33 35 40 33 37 43 33 37 43 34 38 44 34 38 43 
33 37 42 36 38 42 38 40 44 39 41 45 39 41 45 39 40 44 38 39 42 36 37 41 
35 36 40 38 38 41 38 40 44 38 40 44 38 40 44 39 41 45 39 41 45 39 41 45 
39 41 45 39 41 45 39 41 45 39 41 45 39 41 45 36 40 45 35 39 44 35 39 44 
35 39 44 33 37 42 33 37 42 33 37 42 34 38 43 34 38 43 34 38 43 35 39 44 
38 41 46 39 41 45 39 41 45 39 41 45 39 41 45 39 41 45 39 41 45 39 41 45 
39 41 45 39 41 45 39 41 45 39 41 45 39 41 45 39 41 45 39 41 45 39 41 45 
39 41 45 39 41 45 39 41 45 39 41 45 39 41 45 39 41 45 39 41 45 39 41 45 
39 41 45 39 41 45 38 40 44 38 40 44 39 41 45 39 41 45 39 41 45 39 41 45 
39 41 45 39 41 45 38 40 44 39 41 45 
36 37 41 36 37 41 37 38 42 37 39 43 36 38 42 37 39 43 36 39 44 35 39 44 
36 40 44 38 40 44 39 41 45 39 41 45 39 41 45 39 41 45 39 41 45 39 41 45 
39 41 45 39 41 45 39 41 45 38 40 44 38 40 44 39 41 45 39 41 45 39 41 45 
39 41 45 38 40 44 38 40 44 38 39 44 38 39 43 39 41 45 38 40 44 39 41 45 
39 41 45 39 41 45 39 41 45 39 41 45 39 41 45 39 41 45 39 41 45 39 41 45 
39 41 45 39 41 45 39 41 45 38 40 44 38 40 44 39 41 45 38 40 44 38 40 44 
38 40 44 38 40 44 38 40 44 39 41 45 39 41 45 39 41 45 38 40 44 38 40 44 
38 40 44 39 41 45 38 39 43 36 38 42 38 38 44 38 36 44 39 40 46 38 38 44 
38 37 44 38 37 44 38 37 44 38 37 44 38 38 44 38 38 44 38 38 44 39 40 46 
39 41 46 39 41 46 39 41 46 39 41 46 39 40 44 38 41 45 36 40 44 35 39 44 
37 39 44 38 40 44 38 40 44 36 39 46 38 38 49 38 40 47 38 39 44 39 41 45 
38 39 43 37 39 43 38 39 43 38 41 45 37 41 44 36 41 44 36 40 42 34 38 41 
34 38 41 36 40 42 38 40 44 39 40 44 38 40 44 35 39 42 34 38 41 36 40 44 
37 40 46 36 40 46 36 40 46 36 40 46 36 40 45 35 39 44 35 39 45 34 36 45 
35 36 48 34 38 48 35 36 48 34 38 48 27 38 48 34 38 48 34 38 48 34 38 48 
34 38 48 35 38 48 35 38 48 35 38 48 35 38 48 38 38 49 35 38 48 35 38 48 
38 38 49 35 38 48 36 40 46 37 40 46 35 40 47 34 38 48 34 38 48 34 38 48 
34 38 48 27 38 48 34 38 48 34 38 48 34 38 48 34 38 48 36 39 46 36 39 46 
35 39 45 37 40 45 35 39 45 36 39 45 36 40 46 36 40 46 36 40 46 36 40 46 
36 39 46 34 38 48 35 36 48 35 36 48 35 36 48 34 36 45 34 36 45 33 37 42 
32 35 41 32 35 41 34 38 43 34 38 43 34 38 43 34 38 43 34 38 43 33 36 42 
34 38 43 36 39 44 37 38 42 37 38 42 36 38 43 35 39 44 34 39 43 33 37 42 
33 36 42 32 33 43 34 36 45 34 36 45 34 38 44 35 40 45 34 38 43 34 38 43 
33 37 42 33 37 42 33 37 42 30 37 41 30 37 41 30 37 41 33 38 43 34 38 44 
36 39 44 38 40 44 36 37 41 33 35 39 35 36 40 34 35 39 33 35 40 32 35 41 
32 34 39 32 34 39 32 34 39 32 35 41 32 35 41 32 35 41 33 36 42 33 36 42 
33 36 42 32 35 41 28 35 39 28 35 39 28 35 39 32 35 41 32 35 42 32 35 41 
34 38 43 34 38 43 32 35 41 32 35 41 32 35 41 33 35 40 33 35 39 35 37 41 
34 36 40 32 34 38 32 35 38 33 35 40 33 36 42 32 35 41 32 35 41 33 38 43 
34 39 43 37 39 43 37 39 43 36 38 42 36 38 42 37 39 43 38 40 44 35 36 40 
35 36 40 36 37 41 38 40 44 38 40 44 38 40 44 39 41 45 38 40 44 39 40 44 
39 41 45 39 41 45 39 41 45 39 41 45 39 41 45 37 40 45 35 39 44 34 38 43 
35 39 44 34 38 43 33 37 42 34 38 43 34 38 43 35 39 44 35 39 44 35 39 45 
36 40 46 38 41 45 39 41 45 39 41 45 39 41 45 39 41 45 39 41 45 39 41 45 
39 41 45 39 41 45 39 41 45 39 41 45 39 41 45 39 41 45 39 41 45 39 41 45 
39 41 45 39 41 45 39 41 45 39 41 45 39 41 45 39 41 45 39 41 45 39 41 45 
39 40 44 39 41 45 39 41 45 39 41 45 39 41 45 39 41 45 39 41 45 39 41 45 
39 41 45 39 41 45 39 40 44 39 41 45 
36 37 41 36 37 41 37 38 42 37 39 43 37 39 43 37 39 43 37 39 44 36 39 44 
37 40 44 38 40 44 39 41 45 39 41 45 39 41 45 39 41 45 37 40 44 37 41 46 
37 40 45 38 39 44 38 40 44 38 40 44 38 40 45 38 41 45 38 41 45 38 41 45 
39 41 45 38 40 44 37 40 45 37 41 46 38 41 45 37 40 45 38 41 45 38 40 45 
39 41 45 39 41 45 38 41 45 38 41 46 38 41 45 38 41 45 39 41 45 39 41 45 
39 41 45 39 41 45 39 41 45 38 40 44 38 40 44 38 40 44 38 39 43 38 40 44 
39 40 44 38 40 44 38 40 44 38 40 44 38 40 44 38 40 44 39 41 45 39 41 45 
38 40 44 36 38 42 36 37 41 37 39 43 37 38 43 36 35 42 38 39 44 38 39 44 
38 37 44 38 37 44 38 37 44 38 37 44 38 38 44 38 38 44 38 37 44 38 37 44 
38 38 44 38 38 44 38 39 44 38 40 45 38 38 46 36 39 46 36 39 46 36 39 44 
36 39 42 36 39 44 37 39 44 36 38 43 37 37 44 37 37 44 34 36 41 35 38 42 
34 36 41 33 35 40 35 37 41 33 37 42 33 37 42 33 37 42 33 37 42 34 36 41 
34 36 40 35 37 41 36 39 42 36 39 42 36 40 44 37 41 44 35 39 42 35 39 42 
35 39 44 35 39 44 36 40 45 34 38 44 35 39 44 35 39 44 34 38 44 34 38 44 
34 38 48 34 38 48 35 36 48 27 38 48 34 38 48 34 38 48 27 38 48 27 38 48 
35 36 48 34 38 48 35 36 48 35 36 48 34 38 48 35 36 48 34 38 48 35 36 48 
34 38 48 35 38 48 36 40 45 36 40 45 35 40 47 34 38 48 35 36 48 27 36 45 
27 38 48 34 38 48 27 38 48 27 38 48 27 36 45 27 36 45 34 36 45 35 39 45 
36 40 46 38 40 45 38 39 44 35 39 45 35 40 43 36 40 45 37 40 46 36 40 46 
36 39 46 36 39 46 34 36 45 34 36 45 34 36 45 34 36 45 35 36 41 34 36 41 
33 35 40 32 35 41 35 39 45 35 39 45 35 39 45 35 39 45 35 39 44 34 38 43 
36 38 43 36 37 42 36 37 41 37 38 42 36 38 43 34 38 43 34 38 43 33 37 42 
33 37 43 34 36 45 34 36 45 33 36 42 33 36 42 36 40 45 34 38 43 33 37 43 
33 37 42 33 37 42 33 37 42 30 37 41 30 37 41 30 37 41 33 37 42 33 37 42 
34 38 43 35 37 41 35 36 40 33 35 39 34 36 40 33 35 39 32 35 41 33 36 42 
32 34 39 32 34 39 32 34 39 32 34 39 32 35 41 32 35 41 32 35 41 32 35 41 
32 35 42 32 35 41 31 35 39 31 35 39 31 35 39 32 35 41 32 35 41 32 35 41 
33 37 42 34 38 43 32 35 41 34 36 41 35 37 41 36 38 43 35 37 41 34 36 40 
34 36 40 34 36 41 35 38 42 34 36 41 32 34 39 33 35 40 33 35 40 33 36 42 
33 37 43 36 37 42 35 36 40 34 35 39 33 35 39 34 36 40 36 37 41 35 36 40 
37 39 43 36 37 41 37 40 44 39 41 45 38 40 44 39 41 45 39 41 45 39 41 45 
39 41 45 39 41 45 39 41 45 39 41 45 39 41 45 37 40 45 35 39 44 33 37 43 
34 38 43 34 38 43 34 38 43 34 38 43 35 39 44 35 39 44 35 39 44 35 39 44 
36 40 46 37 41 45 38 41 45 38 41 45 39 41 45 39 41 45 39 41 45 39 41 45 
39 41 45 39 41 45 39 41 45 39 41 45 39 41 45 39 41 45 39 41 45 39 41 45 
39 41 45 39 41 45 39 41 45 39 41 45 39 41 45 39 41 45 39 41 45 39 41 45 
38 40 44 38 40 44 39 41 45 39 41 45 39 41 45 39 41 45 39 41 45 39 41 45 
39 41 45 39 41 45 39 40 44 39 41 45 
37 39 43 38 39 43 37 38 42 37 38 42 38 40 44 38 40 44 38 40 44 38 40 44 
38 40 44 38 39 43 38 40 44 39 40 44 38 40 44 38 40 44 35 39 43 35 39 45 
34 38 44 35 37 41 37 39 42 37 39 43 36 40 45 36 40 46 36 40 46 38 40 45 
39 41 45 38 40 45 36 40 45 36 40 45 36 40 46 36 40 46 36 40 46 37 40 45 
39 41 45 39 41 45 37 40 45 36 39 45 36 40 46 38 41 46 39 41 45 39 41 45 
38 40 44 38 40 44 38 40 44 38 40 44 37 38 42 36 38 42 36 37 41 37 38 42 
37 38 42 37 38 42 37 38 42 38 39 43 38 40 44 38 40 44 39 41 45 39 41 45 
38 40 44 35 37 41 36 37 41 37 40 44 36 38 42 35 36 40 36 38 42 38 38 44 
38 37 44 38 37 44 38 37 44 38 37 44 38 37 44 38 37 44 38 37 44 38 37 44 
38 37 44 37 36 43 38 37 44 37 39 44 36 35 45 34 36 45 34 33 43 35 36 41 
35 37 41 34 39 43 35 39 44 34 36 40 33 35 39 34 35 40 32 35 41 32 35 41 
32 35 41 32 35 41 33 37 43 33 36 42 33 35 40 33 35 40 33 35 40 34 36 40 
35 36 40 34 36 40 33 37 39 34 38 41 35 39 42 35 39 42 35 39 42 34 38 41 
35 39 42 36 40 42 35 39 44 34 38 44 34 38 44 35 39 44 35 39 44 34 38 43 
33 37 43 34 38 48 35 38 48 35 39 45 32 39 43 34 38 48 27 38 48 27 38 48 
27 36 45 27 36 45 35 36 48 35 36 48 35 36 48 34 36 45 34 36 45 34 36 45 
34 36 45 35 38 44 35 39 44 34 38 43 34 38 44 35 36 48 35 36 48 34 36 45 
27 36 45 27 38 48 27 38 48 27 38 48 27 38 48 35 36 48 34 36 45 35 39 45 
36 40 46 38 38 46 38 36 46 35 38 48 34 38 44 34 38 41 36 40 45 36 39 45 
33 37 43 35 36 41 35 36 41 36 37 41 35 36 41 35 36 40 35 36 40 34 36 40 
33 35 39 33 35 40 35 39 44 36 40 45 36 40 45 35 39 44 33 37 42 35 36 41 
36 38 43 36 38 43 37 38 42 37 38 42 36 38 43 34 38 43 34 38 43 33 37 42 
35 38 44 34 36 45 33 37 43 35 39 43 34 38 43 35 38 43 33 36 42 33 36 42 
33 37 42 34 38 43 33 37 42 30 37 41 30 37 41 30 37 41 30 37 41 33 37 42 
33 37 42 33 35 39 33 35 39 33 35 39 32 35 41 32 34 39 33 36 42 33 37 42 
31 35 39 31 35 39 32 34 39 32 34 39 32 34 39 32 34 39 32 35 41 32 35 41 
32 35 41 32 34 39 32 34 39 32 34 39 32 34 39 32 35 41 32 35 41 32 35 41 
32 35 41 33 38 43 35 38 43 37 38 42 38 39 43 38 40 44 37 38 42 36 37 41 
33 35 40 32 35 42 34 38 44 34 36 41 32 34 38 35 36 40 35 38 42 34 38 43 
35 38 43 36 38 42 35 37 41 35 36 40 34 35 39 34 36 40 35 37 41 34 35 39 
37 38 42 37 38 42 38 40 44 38 41 45 38 40 44 39 41 45 39 41 45 39 41 45 
39 41 45 39 41 45 39 41 45 39 41 45 39 41 45 36 40 44 34 38 43 33 37 42 
34 38 43 36 40 45 36 40 45 36 40 45 35 39 44 35 39 44 35 39 44 36 40 45 
36 40 46 36 40 46 36 40 46 37 40 46 39 41 45 39 41 45 39 41 45 39 41 45 
39 41 45 39 41 45 39 41 45 39 41 45 39 41 45 39 41 45 39 41 45 39 41 45 
39 41 45 39 41 45 39 41 45 39 41 45 39 40 44 38 40 44 38 40 44 38 40 44 
39 41 45 39 41 45 38 40 44 39 41 45 39 41 45 39 41 45 39 41 45 39 41 45 
39 41 45 39 41 45 39 41 45 40 42 46 
38 40 44 38 40 44 37 38 42 37 39 43 38 40 44 38 40 44 38 40 44 38 40 44 
38 40 44 37 38 42 37 38 42 37 39 43 38 40 44 37 39 43 34 36 41 34 39 43 
34 39 43 35 38 42 37 39 43 37 40 44 36 39 45 36 40 45 35 39 44 37 40 44 
38 40 44 37 39 43 35 38 43 35 39 44 35 39 44 35 39 44 35 39 44 36 39 44 
38 40 44 38 41 45 36 38 43 34 38 43 35 39 45 38 41 46 39 41 45 38 40 44 
37 38 42 36 37 41 38 39 43 38 39 43 36 37 41 36 37 41 36 37 41 36 37 41 
36 37 41 38 39 43 38 40 44 37 39 43 36 37 41 38 39 43 39 41 45 39 41 45 
38 40 44 37 38 42 34 35 39 35 36 40 35 36 40 35 37 41 36 38 42 37 37 42 
38 37 44 38 37 44 38 37 44 37 36 43 37 36 43 37 36 43 38 37 44 38 37 44 
37 36 43 37 36 43 37 37 42 37 38 43 36 35 45 33 33 43 32 33 43 34 35 40 
36 38 43 35 39 44 35 39 44 34 36 41 34 35 39 33 35 39 32 35 41 32 35 41 
32 35 41 32 35 41 33 36 42 33 37 42 34 35 40 36 35 42 35 34 39 34 34 39 
34 34 39 32 34 38 33 36 37 33 36 37 33 35 40 33 37 42 34 36 41 33 37 42 
34 38 41 36 40 44 34 38 41 34 38 41 34 38 43 35 38 44 35 39 44 35 39 44 
33 37 43 35 39 45 36 40 46 35 39 44 33 37 43 34 38 48 35 36 48 27 38 48 
27 38 48 34 38 48 36 39 46 36 38 43 33 37 43 33 37 43 33 37 42 33 37 42 
33 37 42 34 38 43 35 38 44 34 38 44 34 38 44 34 38 44 35 38 48 34 38 48 
34 38 48 34 36 45 27 38 48 27 38 48 27 38 48 27 36 45 34 36 45 34 36 45 
34 38 48 32 33 43 34 36 45 35 36 48 34 38 48 33 37 43 35 38 43 35 39 44 
34 36 41 34 35 39 35 36 40 35 36 40 33 35 39 35 36 40 34 35 39 34 35 40 
34 36 41 34 36 41 34 36 41 34 36 41 34 36 41 33 35 40 32 35 38 36 35 41 
34 36 41 30 37 41 35 38 42 37 38 42 36 39 42 34 38 43 34 38 43 34 38 41 
35 39 42 35 38 44 34 38 44 35 39 44 36 39 45 34 38 43 34 38 43 34 38 43 
33 37 43 34 38 43 34 38 44 33 37 43 32 35 41 31 35 39 30 37 41 30 37 41 
30 37 41 33 35 40 32 35 38 33 35 39 32 35 41 32 35 41 33 37 42 33 36 42 
33 35 40 33 36 42 33 36 42 32 35 41 32 35 41 32 35 41 32 35 41 32 35 41 
32 35 41 32 35 41 32 35 41 32 34 39 32 34 39 32 35 41 32 35 41 32 35 41 
32 35 41 32 35 41 34 38 41 37 39 43 37 38 42 35 37 41 35 36 40 36 38 42 
35 37 41 31 35 39 32 35 41 34 36 41 34 35 39 36 38 42 36 39 44 35 39 44 
36 39 44 36 38 43 35 36 40 34 36 40 34 35 39 33 35 39 34 36 40 35 37 41 
35 36 41 36 38 42 38 40 44 38 40 44 39 41 45 39 41 45 39 41 45 39 41 45 
39 41 45 39 41 45 39 41 45 39 41 45 39 41 45 37 40 44 35 39 44 34 38 43 
35 39 44 38 41 47 37 41 46 35 39 44 35 39 44 35 39 44 35 39 44 36 40 45 
36 40 46 36 40 46 36 40 46 37 40 46 39 41 45 39 41 45 39 41 45 39 41 45 
39 41 45 39 41 45 39 41 45 39 41 45 39 41 45 39 41 45 39 41 45 39 41 45 
39 41 45 39 41 45 39 41 45 39 41 45 39 41 45 39 40 44 39 41 45 39 40 44 
39 41 45 39 41 45 39 41 45 39 41 45 39 41 45 39 41 45 39 41 45 39 41 45 
39 41 45 39 41 45 39 41 45 40 42 46 
38 39 43 38 39 43 37 38 42 35 38 43 36 39 44 36 39 42 37 39 43 38 40 44 
38 40 44 38 39 43 37 38 42 38 39 43 38 40 44 37 39 43 35 38 42 34 38 44 
34 39 43 35 38 42 36 39 42 36 39 44 36 39 45 36 40 45 35 39 44 36 39 44 
36 40 44 36 39 44 34 38 43 35 39 44 36 40 45 35 39 44 35 39 44 36 39 45 
37 40 45 36 40 45 36 39 45 35 39 44 36 40 45 37 40 45 39 41 45 38 40 44 
37 38 42 36 37 41 37 39 43 37 39 43 36 37 41 36 37 41 36 37 41 37 38 42 
37 39 43 37 38 42 38 39 43 37 38 42 36 37 41 37 38 42 39 41 45 39 41 45 
38 40 44 37 38 42 35 36 40 35 36 40 35 36 40 35 35 40 36 35 42 37 36 43 
38 38 44 38 37 44 38 37 44 38 36 44 38 37 44 36 35 42 36 37 42 36 35 42 
35 35 40 36 35 41 37 38 43 38 39 44 36 39 46 34 36 45 32 35 42 34 36 41 
33 37 42 34 36 41 35 38 42 35 38 42 34 36 41 33 35 40 32 35 41 32 35 41 
32 35 41 33 35 40 33 37 42 35 39 43 34 36 41 32 35 41 27 38 48 27 47 64 
27 47 64 27 47 64 27 47 64 27 47 64 27 40 52 33 36 42 34 36 41 33 36 42 
34 38 41 35 39 44 34 36 41 34 36 40 33 35 39 33 35 40 35 39 43 36 40 44 
35 40 45 36 40 46 37 40 46 36 40 45 35 40 43 35 38 48 35 36 48 34 38 48 
27 38 48 34 38 48 36 39 46 37 39 44 34 38 41 33 37 42 34 36 40 34 36 40 
34 36 40 33 37 42 33 37 42 34 38 44 36 40 44 36 39 44 38 40 45 36 39 46 
34 38 44 32 33 43 34 38 48 27 38 48 34 38 48 27 47 64 27 47 64 34 38 48 
27 40 52 27 47 64 27 40 52 34 38 48 34 38 48 35 38 48 37 40 45 38 40 45 
37 38 43 36 37 41 36 37 41 34 36 40 33 35 39 35 36 40 35 36 40 34 36 40 
32 35 41 33 37 43 27 47 64 27 47 64 27 47 64 27 47 64 27 40 52 27 36 45 
32 34 39 34 36 41 33 37 42 34 38 41 35 38 43 36 39 45 36 39 45 37 40 45 
37 40 45 36 39 45 36 39 45 35 35 43 36 39 46 36 39 46 35 39 45 35 39 45 
34 38 44 35 39 45 36 39 46 34 38 44 27 40 52 27 47 64 27 38 48 30 37 41 
30 37 41 32 35 41 33 35 40 33 35 40 32 35 41 32 35 42 33 37 43 34 36 41 
34 35 40 34 36 41 34 36 41 33 35 40 33 35 40 33 36 42 32 35 42 32 35 41 
32 35 41 32 35 41 32 35 41 32 34 39 32 34 39 32 35 41 32 35 41 32 35 41 
33 36 42 32 35 42 33 37 43 37 39 43 37 38 42 35 36 40 34 35 39 36 38 42 
37 39 44 33 37 42 33 37 43 35 38 43 34 38 41 36 39 44 35 39 44 35 39 44 
35 39 45 36 39 44 33 37 42 34 36 41 34 36 40 34 36 40 35 37 41 35 38 42 
35 38 43 36 39 42 39 41 45 39 41 45 39 41 45 39 41 45 39 41 45 39 41 45 
39 41 45 39 41 45 39 41 45 39 41 45 39 41 45 37 40 45 36 40 45 35 38 44 
36 39 45 37 41 46 36 40 46 35 39 45 35 39 45 36 40 45 36 40 46 36 40 45 
36 40 45 37 40 45 38 40 45 38 40 45 39 41 45 39 41 45 39 41 45 39 41 45 
39 41 45 39 41 45 39 41 45 39 41 45 39 41 45 39 41 45 39 41 45 39 41 45 
39 41 45 39 41 45 39 41 45 39 41 45 39 41 45 38 40 44 39 41 45 39 41 45 
39 41 45 39 41 45 39 41 45 39 41 45 39 41 45 39 41 45 39 41 45 39 41 45 
39 41 45 39 41 45 39 41 45 40 42 46 
37 38 42 36 37 41 36 38 42 34 38 43 34 38 43 35 39 43 37 39 43 38 40 44 
38 40 44 38 40 44 37 39 43 38 39 43 38 40 44 38 39 43 35 38 43 34 38 43 
34 38 43 34 38 43 34 38 43 35 39 44 35 39 44 36 40 45 35 39 44 35 39 44 
35 39 44 35 39 45 35 39 44 35 39 44 35 39 44 36 40 45 35 39 44 36 40 45 
36 39 45 34 39 43 35 40 45 36 40 45 36 40 45 37 40 45 39 41 45 38 40 44 
37 38 42 37 38 42 37 38 42 37 38 42 36 37 41 36 37 41 36 37 41 38 39 43 
38 40 44 38 39 43 37 38 42 37 38 42 37 38 42 37 39 43 38 40 44 39 40 44 
37 39 43 36 37 41 35 36 40 35 36 40 35 35 40 36 35 42 36 35 42 37 36 43 
38 38 46 38 37 44 37 36 43 38 36 44 38 37 44 37 38 42 36 37 41 35 36 40 
34 36 40 35 36 40 37 38 43 38 38 44 36 39 44 33 37 43 32 35 41 33 36 42 
34 36 41 33 35 39 35 36 40 35 38 43 33 37 42 32 35 41 32 35 41 32 35 41 
32 35 41 33 37 39 34 36 41 34 38 41 27 40 52 38 76 96 29 109 144 44 125 162 
44 125 162 44 125 162 44 125 162 44 125 162 38 76 96 34 38 48 33 35 39 32 35 42 
33 37 42 34 38 43 34 36 41 35 36 40 33 35 39 32 35 38 34 38 41 35 38 42 
37 39 44 37 40 45 38 40 45 37 40 46 36 40 44 35 39 45 35 36 48 34 38 48 
34 38 48 27 38 48 35 38 48 37 39 44 35 39 42 34 38 41 34 36 40 35 36 40 
35 36 40 35 36 41 34 36 41 35 37 41 37 38 43 37 38 42 38 38 41 37 39 44 
34 38 44 32 35 42 33 37 43 32 35 42 27 47 64 29 109 144 29 109 144 27 40 52 
27 66 86 44 125 162 38 76 96 27 38 48 34 38 48 36 39 46 36 40 46 37 40 46 
38 41 46 37 38 42 36 37 41 35 36 40 34 36 40 35 36 40 34 35 40 33 35 40 
31 35 39 27 38 48 29 109 144 44 146 186 44 125 162 44 125 162 44 125 162 29 109 144 
27 66 86 33 37 43 34 36 41 34 38 43 36 37 42 38 37 44 36 39 46 36 40 46 
36 40 45 36 40 44 37 39 44 36 35 42 38 39 44 38 40 47 38 40 47 38 38 46 
35 38 44 35 39 44 36 39 45 32 35 42 38 76 96 29 109 144 27 66 86 30 37 41 
33 37 43 32 35 42 32 35 41 32 35 41 32 35 42 33 36 42 34 36 41 36 35 42 
34 35 40 34 35 40 35 36 40 36 37 41 34 36 41 33 36 42 33 36 42 33 36 42 
33 37 43 34 38 43 32 35 41 32 34 39 32 35 41 32 35 41 32 35 41 32 35 41 
33 37 42 33 37 43 33 37 42 36 38 42 37 38 42 37 38 42 35 36 40 37 39 43 
37 39 43 35 38 44 35 39 44 35 39 44 34 38 44 35 39 45 35 39 44 34 38 43 
35 39 44 35 39 44 34 38 43 33 37 42 35 37 41 36 37 41 36 37 41 33 37 42 
35 39 44 36 39 45 39 40 44 39 40 44 39 40 44 39 41 45 39 41 45 39 41 45 
39 41 45 39 41 45 39 41 45 39 41 45 39 41 45 36 40 44 35 39 44 35 39 45 
36 40 45 37 40 46 36 40 46 36 40 46 36 40 46 36 40 46 36 40 46 36 40 45 
36 40 45 38 41 45 39 41 45 39 41 45 39 41 45 39 41 45 39 41 45 39 41 45 
39 41 45 39 41 45 39 41 45 39 41 45 39 41 45 39 41 45 39 41 45 39 41 45 
39 41 45 39 41 45 39 41 45 39 41 45 39 41 45 39 41 45 39 41 45 39 41 45 
39 41 45 39 41 45 39 41 45 39 41 45 39 41 45 39 41 45 39 41 45 39 41 45 
39 41 45 39 41 45 39 41 45 39 41 45 
36 37 41 35 36 40 36 38 42 35 38 43 36 39 44 36 39 44 38 40 44 38 40 44 
37 39 43 38 40 44 38 40 44 38 39 43 38 40 44 37 39 43 35 38 43 35 38 44 
35 39 43 34 38 43 34 38 43 35 39 44 35 39 44 35 39 44 35 39 44 35 39 44 
36 40 45 36 40 46 36 40 46 35 39 45 35 39 45 35 39 45 35 39 45 36 39 45 
35 39 44 35 39 44 36 40 45 35 39 45 35 39 44 36 39 44 38 40 44 38 40 45 
38 40 44 37 39 43 36 37 42 36 38 42 37 38 43 37 38 43 37 38 42 38 39 44 
38 40 45 39 40 44 38 39 43 38 39 43 37 39 43 37 38 42 37 39 43 37 39 43 
37 39 43 35 36 40 35 36 40 36 37 41 35 35 40 35 34 40 37 37 42 37 37 42 
38 37 44 37 37 42 37 36 43 38 37 44 37 36 43 37 37 42 37 38 42 37 39 43 
35 36 40 35 36 41 37 37 42 37 37 44 34 36 41 32 35 41 33 35 40 32 35 41 
33 35 40 33 35 40 35 37 41 35 38 43 33 37 43 32 35 41 32 35 41 32 35 41 
33 36 42 35 39 43 33 37 42 32 35 42 38 76 96 44 146 186 44 146 186 44 146 186 
44 125 162 44 125 162 44 125 162 44 125 162 38 76 96 34 38 48 35 35 40 33 34 40 
32 34 39 32 34 39 34 35 40 35 36 41 34 35 40 33 35 40 34 38 41 36 37 41 
37 37 42 37 37 42 37 37 42 36 38 43 36 39 42 35 39 45 34 38 48 35 36 48 
38 36 46 34 38 48 35 39 45 36 39 45 36 40 44 34 39 43 35 37 41 35 36 40 
35 34 39 36 35 39 36 35 39 36 35 41 36 35 41 36 35 41 37 37 42 33 35 40 
33 35 40 33 36 42 33 37 43 31 35 39 27 47 64 44 125 162 29 109 144 27 40 52 
38 76 96 45 165 215 29 109 144 27 40 52 34 36 45 36 39 44 34 38 44 35 39 45 
36 38 43 36 35 39 35 36 40 35 37 41 35 36 40 36 34 38 32 34 38 31 35 39 
31 35 39 27 40 52 44 146 186 45 165 215 44 125 162 44 125 162 44 146 186 44 146 186 
44 146 186 38 76 96 32 35 42 34 36 41 34 38 43 35 38 43 37 36 43 37 37 42 
38 38 41 38 38 41 37 39 42 36 38 39 38 38 41 38 39 42 37 38 43 37 37 42 
34 36 40 34 38 41 35 39 42 31 35 39 57 90 110 44 125 162 38 76 96 33 36 42 
33 37 43 34 36 41 33 35 40 31 35 39 33 35 39 33 36 37 33 35 39 32 35 42 
33 35 40 34 35 39 36 35 39 35 36 40 33 35 39 34 36 41 33 37 43 34 38 43 
35 38 44 35 39 44 33 37 42 32 35 41 32 35 41 32 35 41 32 35 41 32 35 41 
32 35 41 32 35 41 33 35 40 34 36 40 35 37 41 36 37 42 35 36 40 37 39 43 
37 40 44 35 39 44 36 39 45 33 37 42 34 38 43 35 39 44 35 39 45 34 38 44 
34 38 43 34 38 43 35 39 44 35 38 43 36 38 43 37 39 43 37 39 43 33 37 43 
35 38 44 36 39 45 38 40 45 38 40 44 38 40 44 38 40 44 39 41 45 39 41 45 
38 40 44 39 41 45 39 41 45 39 41 45 39 41 45 37 40 45 36 39 45 36 40 45 
36 40 45 38 41 46 36 40 45 36 40 46 36 40 46 37 40 46 36 40 46 36 40 46 
37 40 46 38 41 45 39 41 45 39 41 45 39 41 45 39 41 45 39 41 45 39 41 45 
39 41 45 39 41 45 39 41 45 39 41 45 39 41 45 39 41 45 39 41 45 39 41 45 
39 41 45 39 41 45 39 41 45 39 41 45 39 41 45 39 41 45 39 41 45 39 41 45 
39 41 45 39 41 45 39 41 45 39 41 45 39 41 45 39 41 45 39 41 45 39 41 45 
39 41 45 39 41 45 39 41 45 39 41 45 
37 38 42 36 38 42 37 39 43 37 39 44 37 40 44 38 40 44 39 41 45 39 40 44 
38 40 44 38 40 44 38 40 44 38 40 44 38 40 44 38 40 44 37 40 44 37 40 44 
37 40 44 35 39 44 35 39 44 35 39 44 35 39 45 35 39 45 36 40 45 35 39 45 
36 40 45 36 40 45 36 40 46 36 40 46 36 40 46 36 40 46 36 40 46 36 40 45 
36 40 45 36 40 45 36 40 46 36 40 46 36 40 45 36 40 45 37 40 45 37 40 46 
36 40 46 36 40 45 35 38 43 35 39 44 37 40 45 36 40 45 36 40 45 36 40 45 
37 40 45 38 41 45 39 40 44 39 40 44 38 40 44 38 40 44 38 39 43 37 39 43 
37 39 43 37 38 42 36 38 42 36 38 42 34 36 40 34 35 40 36 38 42 36 37 42 
35 36 41 36 35 41 36 35 41 36 37 42 36 37 42 36 37 41 37 38 42 36 38 42 
36 38 43 36 37 42 37 37 44 38 39 43 37 39 43 34 36 40 34 35 40 34 35 40 
34 36 41 34 36 41 33 35 40 34 36 41 32 35 41 32 35 41 32 35 41 32 35 41 
33 37 42 35 39 45 34 38 41 27 40 52 44 125 162 45 165 215 38 76 96 27 47 64 
27 40 52 27 40 52 27 40 52 27 47 64 27 40 52 34 36 45 34 38 48 27 40 52 
27 40 52 27 40 52 27 40 52 28 35 39 32 34 39 33 37 43 34 36 40 34 35 39 
32 35 41 27 40 52 27 47 64 27 40 52 31 35 39 34 36 41 34 36 45 34 38 48 
27 40 52 34 38 48 34 38 48 35 36 45 33 37 43 35 36 45 34 38 44 34 38 48 
34 38 48 34 38 48 27 40 52 27 40 52 27 40 52 27 40 52 27 40 52 27 40 52 
27 40 52 27 38 48 32 33 43 34 36 45 27 40 52 27 66 86 27 66 86 27 36 45 
38 76 96 45 165 215 29 109 144 34 38 48 33 35 40 27 40 52 41 46 52 35 40 47 
27 40 52 34 38 48 35 38 43 34 36 41 33 38 43 27 38 48 30 37 41 33 37 39 
32 35 38 27 40 52 44 146 186 44 125 162 27 47 64 27 40 52 27 47 64 29 109 144 
45 165 215 44 146 186 27 66 86 32 34 38 34 35 40 32 35 42 27 47 64 27 47 64 
27 47 64 34 36 45 38 38 41 36 38 39 34 37 38 32 35 41 27 38 48 27 40 52 
27 40 52 27 40 52 27 40 52 34 36 40 27 47 64 27 66 86 41 46 52 37 38 43 
35 36 40 28 35 39 27 38 48 27 40 52 27 40 52 27 40 52 32 39 43 30 37 41 
27 40 52 27 40 52 27 40 52 27 40 52 27 38 48 32 34 39 34 38 44 35 38 43 
36 38 42 35 37 41 33 35 40 33 35 39 33 35 40 32 35 41 32 35 41 32 35 41 
32 35 41 32 35 41 33 35 40 34 36 41 35 36 40 34 36 41 34 36 41 33 37 42 
35 39 44 35 39 45 34 38 44 34 38 43 35 39 44 35 39 44 36 39 45 35 39 44 
35 39 44 35 39 44 36 39 45 36 39 45 36 39 44 37 40 45 36 40 44 34 38 44 
35 39 45 35 39 45 37 40 46 37 40 46 37 40 45 39 41 45 39 41 45 39 41 45 
39 41 45 39 41 45 39 41 45 39 41 45 39 41 45 39 41 45 38 41 45 38 40 45 
38 40 45 38 41 45 38 40 45 36 40 46 37 40 46 37 40 46 37 40 46 36 40 46 
37 40 46 38 41 45 39 41 45 39 41 45 39 41 45 39 41 45 39 41 45 39 41 45 
39 41 45 39 41 45 39 41 45 39 41 45 39 41 45 39 41 45 39 41 45 39 41 45 
39 41 45 39 41 45 39 41 45 39 41 45 39 41 45 39 41 45 39 41 45 39 41 45 
39 41 45 39 41 45 39 41 45 39 41 45 39 41 45 39 41 45 39 41 45 39 41 45 
39 41 45 39 41 45 39 41 45 40 42 46 
38 40 44 38 40 44 39 40 44 38 40 44 38 40 44 38 40 44 39 41 45 39 41 45 
39 41 45 39 41 45 39 41 45 39 41 45 39 41 45 39 41 45 39 41 45 39 41 45 
39 41 45 36 40 45 36 40 45 36 40 45 35 39 45 36 40 45 36 40 46 36 40 46 
36 40 45 36 40 45 36 40 46 36 40 46 36 40 46 36 40 46 36 40 46 36 40 46 
36 40 46 36 40 46 36 40 46 36 40 46 36 40 46 36 40 46 36 40 46 36 40 46 
36 40 46 36 40 46 36 40 45 36 40 46 36 40 45 35 39 45 35 39 45 35 39 45 
37 40 46 38 41 45 39 41 45 39 41 45 39 41 45 39 41 45 39 41 45 39 41 45 
39 41 45 39 41 45 37 39 43 37 39 43 36 37 41 35 37 41 37 39 43 37 38 42 
34 35 39 34 35 39 35 34 39 35 36 40 35 36 40 35 36 40 35 36 40 35 37 41 
37 38 43 38 37 44 38 37 44 37 38 42 38 40 44 36 37 41 35 36 40 34 35 39 
34 36 41 33 36 42 32 35 41 32 35 41 32 35 41 32 35 41 32 35 41 32 35 41 
34 38 43 35 39 44 33 37 39 27 47 64 44 125 162 45 165 215 27 47 64 22 23 35 
34 29 33 31 33 37 32 34 39 34 35 40 34 36 41 26 35 43 38 76 96 44 125 162 
44 125 162 44 125 162 44 125 162 29 109 144 27 47 64 32 35 41 35 35 43 27 47 64 
29 109 144 44 125 162 44 146 186 44 125 162 29 109 144 27 47 64 32 29 37 27 66 86 
44 125 162 27 47 64 35 36 48 27 47 64 27 47 64 35 36 48 27 47 64 57 90 110 
57 90 110 38 76 96 44 125 162 44 146 186 44 125 162 44 125 162 44 125 162 44 125 162 
44 146 186 44 125 162 27 66 86 32 33 43 27 47 64 29 109 144 57 90 110 27 38 48 
38 76 96 45 165 215 29 109 144 32 35 42 27 66 86 44 125 162 38 76 96 27 47 64 
29 109 144 29 109 144 32 39 43 33 34 40 27 47 64 29 109 144 57 90 110 32 39 43 
32 34 38 27 40 52 44 146 186 44 125 162 27 38 48 31 35 39 31 33 37 27 38 48 
29 109 144 45 165 215 29 109 144 32 29 37 27 47 64 29 109 144 44 146 186 44 146 186 
44 146 186 29 109 144 27 40 52 35 37 38 27 47 64 29 109 144 44 125 162 44 125 162 
44 146 186 44 125 162 27 66 86 28 35 39 38 76 96 29 109 144 27 66 86 35 36 40 
27 40 52 57 90 110 44 125 162 44 125 162 44 125 162 44 125 162 27 66 86 27 47 64 
29 109 144 44 146 186 44 125 162 44 125 162 44 125 162 38 76 96 35 40 47 36 37 42 
37 38 42 35 38 42 35 36 40 34 36 40 34 35 39 34 36 41 32 35 41 32 35 41 
32 35 41 32 35 42 33 37 42 35 37 41 37 38 42 35 37 41 33 37 42 33 37 42 
35 39 44 35 38 44 33 37 42 34 38 43 35 39 44 35 39 44 35 39 44 35 39 44 
35 39 44 36 39 45 36 39 45 36 40 46 35 39 45 35 39 44 36 39 45 36 40 46 
36 40 45 36 40 45 36 40 46 35 39 45 36 39 45 39 41 45 39 41 45 39 41 45 
39 41 45 39 41 45 39 41 45 39 41 45 39 41 45 39 41 45 39 40 44 39 41 45 
39 41 45 39 41 45 39 41 45 37 40 46 37 40 46 37 40 46 37 40 46 36 40 46 
37 40 46 38 41 45 39 41 45 39 41 45 39 41 45 39 41 45 39 41 45 39 41 45 
39 41 45 39 41 45 39 41 45 39 41 45 39 41 45 39 41 45 39 41 45 39 41 45 
39 41 45 39 41 45 39 41 45 39 41 45 39 41 45 39 41 45 39 41 45 39 41 45 
39 41 45 39 41 45 38 40 44 38 40 44 38 40 44 39 41 45 39 41 45 39 41 45 
39 41 45 39 41 45 39 41 45 39 41 45 
37 40 44 37 40 44 38 40 44 38 40 44 38 40 44 38 40 44 39 41 45 39 41 45 
39 41 45 39 41 45 39 41 45 39 41 45 39 41 45 39 41 45 38 41 45 38 41 45 
38 41 45 37 40 46 36 40 46 36 40 46 35 39 45 35 39 45 36 40 46 36 40 46 
36 40 46 36 40 46 36 40 46 36 40 46 36 40 46 36 40 46 36 40 46 36 40 46 
36 40 45 36 40 46 36 40 46 36 40 46 36 40 46 36 40 46 36 40 46 36 40 46 
36 40 46 36 40 46 36 40 46 36 40 46 36 40 45 35 39 44 35 39 44 35 39 45 
37 40 45 38 41 45 39 41 45 39 41 45 39 41 45 39 41 45 39 41 45 39 41 45 
39 41 45 38 40 44 37 39 44 38 40 45 37 39 43 37 39 43 38 39 43 38 40 44 
35 36 40 33 35 39 34 36 40 35 36 40 34 36 40 35 36 41 35 36 40 36 37 42 
36 37 42 38 37 44 37 37 42 37 37 42 37 38 42 37 38 42 36 37 41 35 37 41 
33 35 40 32 35 41 32 35 41 32 35 41 32 35 41 32 35 41 32 35 41 32 35 41 
33 37 42 34 35 40 33 37 39 27 36 45 29 109 144 45 165 215 44 146 186 29 109 144 
27 66 86 27 47 64 26 35 43 31 33 37 36 34 38 26 31 37 29 109 144 45 165 215 
29 109 144 29 109 144 44 125 162 44 146 186 29 109 144 28 35 39 27 66 86 44 125 162 
44 146 186 44 125 162 29 109 144 44 125 162 45 165 215 44 125 162 27 40 52 27 66 86 
45 165 215 27 66 86 27 40 52 29 109 144 44 146 186 27 47 64 27 66 86 44 125 162 
29 109 144 57 90 110 45 165 215 44 146 186 29 109 144 44 125 162 45 165 215 44 125 162 
29 109 144 44 146 186 44 146 186 27 47 64 27 47 64 44 125 162 44 125 162 27 40 52 
38 76 96 45 165 215 29 109 144 27 47 64 44 146 186 44 146 186 27 47 64 27 47 64 
44 125 162 44 146 186 27 40 52 32 33 43 27 66 86 44 146 186 44 125 162 27 40 52 
32 29 37 27 40 52 44 146 186 44 125 162 27 38 48 33 35 40 35 35 40 34 34 39 
38 76 96 44 146 186 29 109 144 27 47 64 44 125 162 44 146 186 44 125 162 29 109 144 
44 125 162 45 165 215 29 109 144 28 35 39 29 109 144 45 165 215 44 125 162 29 109 144 
29 109 144 29 109 144 27 66 86 28 35 39 29 109 144 44 146 186 38 76 96 32 35 42 
29 109 144 44 146 186 44 125 162 29 109 144 44 125 162 45 165 215 38 76 96 27 66 86 
44 146 186 44 146 186 29 109 144 29 109 144 44 146 186 44 146 186 38 76 96 35 38 43 
38 39 44 38 40 44 37 39 43 35 36 41 37 38 43 35 38 43 33 37 42 34 36 41 
32 35 41 32 35 42 35 38 43 37 39 43 37 39 43 33 37 42 34 38 43 35 39 44 
35 39 44 34 39 43 35 38 44 34 38 44 35 39 44 35 39 44 36 40 45 35 39 44 
35 39 44 35 39 44 35 39 45 35 39 45 35 39 44 35 38 44 35 38 44 36 39 45 
35 39 44 37 41 46 37 41 46 36 39 45 37 39 44 39 41 45 39 41 45 39 41 45 
39 41 45 39 41 45 39 41 45 39 41 45 39 41 45 39 41 45 39 41 45 39 41 45 
39 41 45 39 41 45 39 41 45 37 40 46 37 40 46 37 40 46 37 41 46 37 40 46 
37 40 46 39 41 45 39 41 45 39 41 45 39 41 45 39 41 45 39 41 45 39 41 45 
39 41 45 39 41 45 39 41 45 39 41 45 39 41 45 39 41 45 39 41 45 39 41 45 
39 41 45 39 41 45 39 41 45 39 41 45 39 41 45 39 41 45 39 41 45 39 41 45 
38 40 44 38 40 44 38 40 44 38 39 43 38 39 43 39 41 45 39 41 45 39 41 45 
39 41 45 39 41 45 39 41 45 39 41 45 
36 39 44 36 39 44 36 39 44 38 40 44 38 40 44 38 40 44 39 41 45 39 41 45 
39 41 45 39 41 45 39 41 45 39 41 45 38 40 44 39 41 45 37 40 45 37 40 46 
36 40 46 36 40 46 36 40 46 36 40 46 35 39 45 35 39 45 36 40 46 36 40 45 
36 40 45 36 40 45 36 40 46 36 40 46 36 40 46 36 40 46 36 40 46 36 40 46 
35 39 44 36 40 45 36 40 46 36 40 46 36 40 46 36 40 46 36 40 46 36 40 46 
36 40 45 36 40 46 36 40 46 36 40 45 37 41 46 36 40 45 34 38 44 35 39 44 
36 40 44 38 41 45 39 40 44 38 40 44 37 41 46 36 40 45 38 41 45 39 41 45 
39 40 44 36 39 42 36 40 45 36 40 45 37 38 43 37 39 43 38 40 44 38 39 43 
36 37 41 35 36 41 34 36 41 34 38 43 35 39 43 37 39 43 35 37 41 34 35 40 
36 37 42 36 38 42 36 35 41 37 37 42 37 37 42 37 37 42 36 38 42 36 37 41 
33 35 40 32 35 41 32 35 41 32 35 41 32 35 41 32 35 41 32 35 41 32 35 41 
32 35 41 33 35 39 33 35 39 33 35 39 27 47 64 29 109 144 44 146 186 44 146 186 
44 146 186 44 146 186 44 125 162 38 76 96 27 40 52 26 31 37 44 125 162 45 165 215 
27 66 86 34 38 48 27 66 86 44 146 186 44 146 186 27 40 52 29 109 144 44 146 186 
29 109 144 27 47 64 27 40 52 27 66 86 44 125 162 45 165 215 38 76 96 26 35 43 
44 146 186 29 109 144 27 47 64 44 146 186 45 165 215 38 76 96 38 76 96 44 125 162 
38 76 96 57 90 110 45 165 215 29 109 144 27 40 52 38 76 96 45 165 215 27 66 86 
27 47 64 29 109 144 45 165 215 27 66 86 27 47 64 44 146 186 44 125 162 27 40 52 
38 76 96 44 146 186 29 109 144 44 125 162 44 146 186 38 76 96 33 36 37 27 47 64 
44 146 186 44 146 186 27 40 52 26 31 37 27 66 86 44 146 186 44 125 162 27 40 52 
32 34 39 27 40 52 44 146 186 44 125 162 27 38 48 34 36 40 36 35 42 32 35 38 
38 76 96 44 146 186 44 125 162 38 76 96 44 146 186 44 125 162 27 47 64 27 38 48 
27 47 64 44 146 186 44 146 186 27 47 64 44 125 162 45 165 215 27 66 86 27 40 52 
27 40 52 27 40 52 32 39 43 26 35 43 29 109 144 44 146 186 38 76 96 27 47 64 
44 146 186 29 109 144 27 47 64 27 40 52 38 76 96 45 165 215 38 76 96 27 66 86 
44 146 186 44 125 162 27 47 64 27 40 52 29 109 144 45 165 215 29 109 144 35 39 45 
36 39 44 38 39 44 38 39 44 36 38 43 37 38 43 38 40 45 37 39 43 35 37 41 
33 37 42 33 36 42 33 37 43 35 39 44 35 38 43 33 36 42 34 38 43 35 39 45 
36 39 45 34 38 43 36 39 45 36 40 45 35 39 44 35 39 45 36 40 45 36 40 46 
36 40 46 35 39 44 36 40 45 36 40 46 36 40 46 35 39 45 35 39 44 35 39 44 
35 39 44 37 41 46 39 41 45 39 41 45 38 41 45 39 41 45 39 41 45 39 41 45 
39 41 45 38 40 44 38 40 44 39 41 45 39 41 45 38 40 44 39 41 45 39 41 45 
39 41 45 39 41 45 39 41 45 39 41 45 39 41 45 39 41 45 39 41 45 39 41 45 
39 41 45 39 41 45 38 40 44 38 40 44 39 41 45 39 41 45 39 41 45 39 41 45 
39 41 45 39 41 45 39 41 45 39 41 45 39 41 45 39 41 45 39 41 45 39 41 45 
39 41 45 39 41 45 39 41 45 39 41 45 39 41 45 39 41 45 39 41 45 39 41 45 
38 40 44 38 40 44 38 40 44 38 39 43 38 39 43 39 41 45 39 41 45 39 41 45 
39 41 45 39 41 45 39 41 45 39 41 45 
35 39 44 35 39 44 36 39 44 38 40 44 38 40 44 38 40 44 38 40 44 39 41 45 
39 41 45 39 41 45 39 41 45 39 41 45 39 41 45 39 41 45 37 40 46 36 40 46 
36 40 46 36 40 46 36 40 46 36 40 46 36 40 45 36 40 45 36 40 46 36 40 44 
36 40 44 36 40 45 36 40 46 36 40 46 36 40 46 36 40 46 36 40 46 36 40 46 
36 40 45 36 40 46 36 40 46 36 40 45 36 40 46 36 40 46 36 40 46 36 40 46 
36 40 46 36 40 46 36 40 46 36 40 46 37 40 46 36 40 46 34 38 43 34 38 43 
35 39 44 38 40 44 38 40 44 38 40 45 36 40 46 36 40 45 37 41 45 39 41 45 
39 41 45 36 39 42 35 39 45 35 39 45 36 39 44 38 39 43 38 40 44 38 40 44 
38 39 43 38 39 44 36 39 44 34 38 43 33 37 43 36 37 42 35 36 40 33 35 39 
33 35 39 34 35 39 33 35 39 34 35 40 34 35 40 34 35 40 34 36 40 34 35 39 
33 35 40 32 35 41 32 35 41 32 35 41 32 35 41 33 36 42 34 38 43 32 35 41 
32 35 41 33 35 39 33 35 39 34 35 39 35 34 40 34 38 48 27 66 86 38 76 96 
57 90 110 29 109 144 44 146 186 45 165 215 29 109 144 27 38 48 44 125 162 44 146 186 
27 47 64 36 34 38 27 40 52 44 125 162 44 146 186 27 47 64 44 125 162 44 146 186 
27 66 86 34 29 33 32 34 38 34 29 33 38 76 96 45 165 215 57 90 110 26 31 37 
44 125 162 44 125 162 38 76 96 45 165 215 44 146 186 29 109 144 29 109 144 44 125 162 
27 66 86 57 90 110 44 146 186 57 90 110 31 27 36 38 76 96 45 165 215 27 47 64 
26 31 37 29 109 144 45 165 215 27 66 86 27 47 64 44 146 186 44 125 162 27 40 52 
38 76 96 45 165 215 45 165 215 44 146 186 38 76 96 27 38 48 36 38 39 27 47 64 
44 146 186 44 146 186 27 38 48 26 31 37 27 66 86 44 146 186 44 125 162 27 40 52 
34 32 40 27 40 52 44 146 186 44 125 162 27 38 48 36 35 41 34 35 40 30 37 41 
38 76 96 44 146 186 44 125 162 29 109 144 45 165 215 44 146 186 29 109 144 44 125 162 
29 109 144 44 146 186 45 165 215 27 66 86 38 76 96 45 165 215 44 146 186 29 109 144 
27 66 86 27 38 48 28 35 39 28 35 39 29 109 144 44 146 186 38 76 96 27 66 86 
45 165 215 38 76 96 31 33 37 36 36 37 38 76 96 45 165 215 38 76 96 27 66 86 
44 146 186 44 125 162 34 38 48 32 29 37 38 76 96 45 165 215 29 109 144 32 39 43 
36 38 43 38 37 44 38 37 44 37 37 42 37 37 42 36 38 42 36 37 41 36 37 42 
35 38 43 34 38 43 32 35 42 32 35 41 34 38 43 34 38 43 35 39 44 35 39 44 
36 40 45 35 39 44 35 39 44 35 39 44 35 39 44 35 39 44 35 39 44 36 40 45 
36 40 45 35 39 45 36 40 45 36 40 45 36 40 46 36 40 46 35 39 44 37 40 46 
34 39 43 36 39 45 39 40 46 39 40 46 39 40 46 39 41 45 39 41 45 39 41 45 
39 41 45 37 39 43 38 39 43 38 40 44 38 40 44 37 39 43 39 40 44 38 40 44 
39 41 45 39 41 45 39 41 45 39 41 45 39 41 45 39 41 45 39 41 45 39 41 45 
39 41 45 39 41 45 39 41 45 39 41 45 38 40 44 38 40 44 39 41 45 39 41 45 
39 41 45 39 41 45 39 41 45 39 41 45 39 41 45 39 41 45 39 41 45 39 41 45 
39 41 45 40 42 46 39 41 45 39 41 45 39 41 45 39 41 45 39 41 45 39 41 45 
38 40 44 38 40 44 38 40 44 38 40 44 38 40 44 38 40 44 39 41 45 38 40 44 
39 41 45 38 40 44 37 39 43 39 41 45 
36 39 44 36 39 44 36 39 44 38 40 44 38 40 44 38 40 44 38 40 44 39 41 45 
39 41 45 39 41 45 39 41 45 39 41 45 39 41 45 39 41 45 37 40 46 37 40 46 
37 40 46 36 40 46 36 40 46 36 40 46 36 40 46 36 40 46 36 40 46 36 40 44 
36 40 44 36 40 45 36 40 46 36 40 46 36 40 46 36 40 46 36 40 46 36 40 46 
36 40 46 36 40 46 36 40 46 36 40 46 36 40 46 36 40 46 37 40 46 37 40 46 
37 40 46 37 40 46 37 40 46 37 40 46 37 40 46 37 40 46 35 39 43 35 38 43 
35 39 44 37 40 44 38 40 44 38 40 45 36 40 46 36 40 46 37 41 45 37 40 44 
38 40 44 36 39 42 34 39 43 35 39 44 36 39 45 37 40 44 37 40 44 37 40 44 
38 40 44 38 41 45 36 40 45 34 38 43 33 36 42 34 36 41 34 36 40 33 35 40 
33 35 39 33 35 39 33 35 39 32 35 41 32 35 42 33 37 42 35 37 41 33 35 40 
33 35 40 32 35 41 32 35 41 32 35 41 32 35 41 33 36 42 35 39 44 33 36 42 
32 35 41 33 35 39 33 35 39 33 35 39 32 35 42 34 32 40 32 34 38 31 35 39 
30 37 41 27 38 48 27 66 86 44 146 186 44 146 186 27 66 86 44 125 162 44 146 186 
27 47 64 36 34 38 27 40 52 44 125 162 44 146 186 27 47 64 44 125 162 44 146 186 
27 66 86 32 34 38 33 37 42 34 29 33 27 66 86 45 165 215 29 109 144 26 31 37 
57 90 110 44 146 186 29 109 144 44 146 186 29 109 144 44 125 162 44 125 162 44 125 162 
27 40 52 57 90 110 44 146 186 57 90 110 26 31 37 38 76 96 45 165 215 27 66 86 
28 35 39 29 109 144 45 165 215 27 66 86 27 47 64 44 146 186 44 125 162 27 40 52 
38 76 96 45 165 215 45 165 215 44 146 186 27 66 86 33 35 40 35 37 41 27 47 64 
44 146 186 44 146 186 27 38 48 31 33 37 27 66 86 44 146 186 44 125 162 27 40 52 
34 34 39 27 40 52 45 165 215 44 125 162 27 38 48 36 34 42 34 34 39 34 38 48 
29 109 144 45 165 215 29 109 144 29 109 144 45 165 215 44 146 186 44 125 162 44 125 162 
44 125 162 44 146 186 44 125 162 27 47 64 27 36 45 27 66 86 29 109 144 44 146 186 
45 165 215 44 125 162 27 66 86 26 31 37 29 109 144 44 146 186 38 76 96 27 66 86 
45 165 215 38 76 96 32 29 37 38 32 39 38 76 96 45 165 215 38 76 96 27 66 86 
44 146 186 44 125 162 27 38 48 31 33 37 27 66 86 45 165 215 29 109 144 35 39 45 
36 35 39 40 35 41 38 36 44 38 37 44 37 37 42 35 36 41 36 38 42 36 37 41 
35 39 43 35 39 44 34 38 43 33 37 42 34 38 44 35 39 44 35 39 44 35 39 44 
35 39 44 35 39 44 35 39 44 35 39 44 35 39 44 35 39 44 35 39 44 35 39 44 
35 39 44 35 39 44 35 39 44 35 39 44 36 40 46 36 40 46 35 39 44 36 39 46 
36 40 46 36 39 45 39 40 47 39 40 47 39 40 47 39 41 45 38 40 44 37 39 43 
38 40 44 37 39 43 37 39 43 38 40 44 38 40 44 37 39 43 39 41 45 39 41 45 
39 41 45 39 41 45 39 41 45 39 41 45 39 41 45 39 41 45 39 41 45 39 41 45 
39 41 45 39 41 45 39 41 45 39 41 45 38 39 43 38 40 44 39 41 45 39 41 45 
39 41 45 39 41 45 39 41 45 39 41 45 39 41 45 39 41 45 39 41 45 39 41 45 
39 41 45 40 42 46 39 41 45 39 41 45 39 41 45 39 41 45 39 41 45 39 41 45 
38 40 44 38 40 44 38 40 44 38 40 44 38 40 44 38 40 44 38 41 45 37 40 44 
39 42 45 38 40 44 37 39 43 39 41 45 
38 40 44 38 40 44 38 40 44 38 40 44 38 40 44 39 41 45 38 40 44 39 41 45 
39 41 45 39 41 45 39 41 45 39 41 45 39 41 45 39 41 45 39 41 45 39 41 45 
39 41 45 37 40 46 36 40 46 36 40 46 36 40 46 36 40 46 36 40 46 36 40 46 
36 40 46 36 40 45 36 40 44 36 40 44 36 40 44 36 40 46 36 40 46 36 40 46 
36 40 46 36 40 46 36 40 45 36 40 44 36 40 44 37 40 45 39 41 45 39 41 45 
39 41 45 39 41 45 39 41 45 39 41 45 39 41 45 39 41 45 39 41 45 38 40 44 
38 40 44 38 39 43 38 40 44 38 40 44 37 40 46 36 40 45 37 41 46 37 40 46 
35 38 44 35 39 45 36 40 46 36 40 46 35 39 45 35 39 44 35 39 44 35 39 44 
35 39 44 35 39 44 35 39 44 34 38 44 34 38 44 35 39 44 35 39 44 33 37 43 
32 35 41 32 35 41 32 35 41 33 37 42 35 39 44 35 39 44 35 39 44 34 38 43 
32 35 41 32 35 41 32 35 41 32 35 41 32 35 41 32 35 41 32 35 41 32 35 41 
32 35 41 34 36 40 37 39 43 36 37 41 31 33 37 31 27 36 34 29 33 34 29 33 
34 29 33 34 29 33 26 35 43 44 146 186 44 146 186 27 66 86 44 125 162 44 146 186 
27 47 64 34 29 33 27 40 52 44 125 162 44 146 186 27 47 64 29 109 144 44 146 186 
38 76 96 31 27 36 35 34 39 31 27 36 38 76 96 45 165 215 38 76 96 31 33 37 
27 66 86 45 165 215 44 146 186 29 109 144 38 76 96 44 146 186 44 146 186 29 109 144 
26 31 37 57 90 110 44 146 186 57 90 110 32 29 37 38 76 96 45 165 215 27 66 86 
32 33 43 29 109 144 45 165 215 38 76 96 27 47 64 44 146 186 44 125 162 27 40 52 
38 76 96 44 146 186 29 109 144 45 165 215 44 125 162 27 40 52 36 36 37 27 47 64 
44 146 186 44 146 186 31 33 37 34 29 33 27 66 86 44 146 186 44 125 162 27 40 52 
34 35 39 27 40 52 45 165 215 44 125 162 26 35 43 32 29 37 26 31 37 27 47 64 
44 146 186 45 165 215 27 66 86 38 76 96 44 146 186 29 109 144 27 40 52 27 38 48 
27 40 52 27 40 52 27 40 52 32 39 43 36 35 39 36 31 38 28 35 39 27 40 52 
29 109 144 44 146 186 44 125 162 27 38 48 29 109 144 44 146 186 38 76 96 27 40 52 
44 146 186 44 146 186 27 66 86 27 40 52 38 76 96 45 165 215 38 76 96 27 66 86 
44 146 186 44 125 162 27 38 48 32 29 37 27 66 86 45 165 215 29 109 144 35 39 45 
40 35 41 37 35 44 38 36 44 38 37 44 37 37 42 34 35 40 34 36 40 35 37 41 
37 39 43 37 39 43 36 38 42 34 38 43 35 39 44 35 39 44 36 39 45 35 39 44 
35 39 44 35 39 44 35 39 44 35 39 44 35 39 44 35 39 44 35 39 44 35 39 44 
35 39 44 35 39 44 35 39 44 35 39 44 35 39 44 35 39 44 37 40 46 38 40 47 
37 37 44 37 37 44 38 38 46 38 40 47 39 40 47 39 41 45 38 39 43 38 40 44 
38 40 44 38 39 43 38 40 44 39 41 45 38 40 44 37 38 42 39 41 45 39 41 45 
39 41 45 39 41 45 39 41 45 38 40 44 39 41 45 39 41 45 39 41 45 39 41 45 
39 41 45 39 41 45 39 41 45 39 41 45 39 41 45 39 41 45 39 41 45 39 41 45 
39 41 45 39 41 45 39 41 45 39 41 45 39 41 45 39 41 45 39 41 45 39 41 45 
39 41 45 39 41 45 39 41 45 39 41 45 39 41 45 39 41 45 39 41 45 39 41 45 
39 41 45 39 41 45 39 41 45 39 41 45 38 40 44 37 40 44 36 39 44 35 39 44 
37 40 44 38 40 44 39 41 45 39 41 45 
38 40 44 38 40 44 38 40 44 39 41 45 38 40 44 38 40 44 39 40 44 39 41 45 
39 41 45 39 41 45 39 41 45 39 41 45 39 41 45 39 41 45 39 41 45 38 40 44 
39 40 44 38 41 46 36 40 46 36 40 46 36 40 46 36 40 46 36 40 46 36 40 46 
36 40 46 36 40 45 36 40 44 36 40 44 36 40 45 36 40 46 36 40 46 36 40 46 
35 39 45 36 40 45 36 40 45 36 40 44 36 40 44 38 41 45 39 41 45 39 41 45 
39 41 45 39 41 45 39 41 45 39 41 45 39 41 45 39 41 45 39 41 45 39 40 44 
38 40 44 38 40 44 38 40 44 37 39 43 36 39 44 35 39 45 36 40 46 36 40 46 
36 40 45 35 39 45 36 40 46 36 40 46 36 40 46 36 40 45 35 39 44 35 39 44 
35 39 44 35 39 44 35 39 44 36 40 45 35 39 44 34 38 44 33 37 43 34 38 43 
32 35 41 32 35 41 32 35 41 33 37 42 35 39 44 35 39 44 35 39 44 33 37 42 
32 35 41 32 35 41 32 35 41 32 35 41 32 35 41 32 35 41 32 35 41 32 35 41 
32 35 41 34 36 41 39 41 45 36 37 42 27 47 64 38 76 96 38 76 96 38 76 96 
38 76 96 38 76 96 44 125 162 45 165 215 44 125 162 27 47 64 44 125 162 44 146 186 
27 47 64 34 29 33 27 40 52 44 125 162 44 146 186 27 40 52 38 76 96 44 146 186 
44 146 186 38 76 96 27 66 86 38 76 96 45 165 215 44 146 186 27 47 64 36 34 38 
27 40 52 44 146 186 45 165 215 38 76 96 27 66 86 44 146 186 45 165 215 38 76 96 
26 31 37 57 90 110 44 146 186 57 90 110 31 27 36 38 76 96 45 165 215 27 66 86 
33 34 40 29 109 144 45 165 215 27 66 86 27 47 64 44 146 186 44 125 162 27 40 52 
38 76 96 44 146 186 29 109 144 27 66 86 45 165 215 29 109 144 32 33 43 27 40 52 
44 125 162 45 165 215 38 76 96 27 66 86 29 109 144 44 146 186 44 125 162 27 40 52 
36 34 38 27 40 52 44 146 186 44 146 186 38 76 96 38 76 96 29 109 144 44 146 186 
45 165 215 29 109 144 31 35 39 27 47 64 44 146 186 45 165 215 29 109 144 38 76 96 
38 76 96 38 76 96 27 66 86 32 39 43 27 47 64 38 76 96 27 66 86 27 66 86 
29 109 144 44 146 186 44 125 162 27 36 45 29 109 144 44 146 186 38 76 96 31 33 37 
27 66 86 44 146 186 45 165 215 44 146 186 45 165 215 45 165 215 38 76 96 27 66 86 
44 146 186 44 125 162 27 38 48 28 35 39 38 76 96 45 165 215 29 109 144 34 38 48 
38 38 41 37 39 44 38 37 44 38 37 44 38 37 44 37 38 43 37 38 42 36 38 42 
36 37 41 35 36 40 36 38 42 35 38 43 35 39 44 34 38 43 35 38 44 36 40 45 
36 40 45 35 39 44 35 39 44 35 39 44 35 39 44 35 39 44 35 39 44 35 39 44 
35 39 44 35 39 44 35 39 44 35 39 44 35 39 44 34 38 43 36 40 45 38 39 44 
37 39 44 37 38 43 37 39 44 38 40 45 39 40 46 39 41 45 39 40 44 39 41 45 
39 41 45 39 40 44 39 41 45 39 41 45 38 40 44 38 39 43 38 40 44 38 40 44 
39 41 45 38 39 43 38 40 44 38 40 44 39 41 45 39 41 45 39 41 45 39 41 45 
39 41 45 39 41 45 39 41 45 39 41 45 39 41 45 39 41 45 39 41 45 39 41 45 
38 40 44 38 40 44 39 41 45 39 41 45 39 41 45 39 41 45 39 41 45 39 41 45 
39 41 45 39 41 45 39 41 45 39 41 45 39 41 45 39 41 45 39 41 45 39 41 45 
39 41 45 39 41 45 39 41 45 39 41 45 39 41 45 37 40 44 35 39 44 35 39 44 
37 39 44 38 39 43 39 41 45 38 40 44 
38 40 44 38 40 44 38 40 44 38 40 44 38 40 44 38 40 44 39 41 45 39 41 45 
39 41 45 39 41 45 39 41 45 39 41 45 39 41 45 39 41 45 39 41 45 39 41 45 
39 41 45 37 40 45 36 40 46 36 40 46 36 40 46 36 40 46 36 40 46 36 40 46 
36 40 46 36 40 45 36 40 44 36 40 44 36 40 45 36 40 46 36 40 46 36 40 46 
36 39 44 36 40 45 36 40 45 36 40 44 36 40 44 38 41 45 39 41 45 39 41 45 
39 41 45 39 41 45 39 41 45 39 41 45 39 41 45 39 41 45 39 41 45 39 41 45 
39 41 45 39 41 45 39 41 45 37 40 44 36 39 44 35 39 44 35 39 44 35 39 44 
34 38 43 34 38 43 35 39 45 36 40 46 36 40 46 36 40 46 35 39 44 35 39 44 
35 39 44 35 39 44 35 39 44 36 40 45 35 39 45 34 38 44 33 37 43 33 37 42 
34 36 41 33 35 40 32 35 41 32 35 41 33 37 43 33 37 42 33 36 42 32 35 41 
32 35 41 32 35 41 32 35 41 32 35 41 32 35 41 32 35 41 32 35 41 32 35 41 
32 35 41 34 36 40 35 37 41 33 37 43 57 90 110 45 165 215 45 165 215 45 165 215 
45 165 215 45 165 215 44 146 186 29 109 144 27 47 64 26 31 37 29 109 144 44 146 186 
27 47 64 33 36 37 27 40 52 29 109 144 44 146 186 27 40 52 32 35 42 38 76 96 
44 146 186 45 165 215 45 165 215 45 165 215 44 125 162 27 66 86 31 35 39 36 35 41 
26 35 43 29 109 144 44 146 186 27 47 64 27 47 64 44 125 162 44 146 186 27 47 64 
26 31 37 57 90 110 44 146 186 38 76 96 31 27 36 38 76 96 45 165 215 27 66 86 
32 34 39 57 90 110 44 146 186 27 66 86 27 47 64 44 125 162 44 125 162 27 40 52 
38 76 96 44 146 186 57 90 110 26 31 37 38 76 96 45 165 215 38 76 96 32 33 43 
27 66 86 44 146 186 45 165 215 45 165 215 45 165 215 45 165 215 29 109 144 27 38 48 
36 34 38 27 40 52 44 146 186 45 165 215 45 165 215 45 165 215 45 165 215 44 146 186 
38 76 96 27 38 48 33 36 37 33 35 40 27 66 86 44 125 162 45 165 215 45 165 215 
45 165 215 45 165 215 44 125 162 27 40 52 57 90 110 45 165 215 45 165 215 45 165 215 
45 165 215 44 125 162 27 66 86 31 33 37 29 109 144 44 125 162 38 76 96 35 37 38 
34 32 40 27 40 52 27 66 86 38 76 96 29 109 144 45 165 215 38 76 96 27 66 86 
44 125 162 44 125 162 27 36 45 31 33 37 27 66 86 44 146 186 57 90 110 34 38 48 
35 38 42 35 40 47 38 37 44 38 37 44 38 37 44 37 39 43 36 39 42 36 37 41 
36 37 41 34 36 40 34 36 41 35 39 44 34 38 44 34 38 43 35 39 44 37 40 46 
36 40 45 35 39 44 35 39 44 35 39 44 35 39 44 35 39 44 35 39 45 35 39 45 
35 39 45 35 39 44 35 39 44 35 39 44 35 39 44 34 39 43 36 40 45 38 40 44 
38 40 44 39 40 44 39 40 44 38 40 44 39 41 45 39 41 45 39 41 45 39 41 45 
39 41 45 39 41 45 38 40 44 39 41 45 38 40 44 37 39 43 38 40 44 38 41 45 
39 41 45 37 39 43 38 40 44 38 40 44 39 41 45 39 41 45 39 41 45 39 41 45 
39 41 45 39 41 45 39 41 45 39 41 45 39 41 45 39 41 45 39 41 45 39 41 45 
39 41 45 39 41 45 39 41 45 39 41 45 39 41 45 39 41 45 39 41 45 39 41 45 
39 41 45 39 41 45 39 41 45 39 41 45 39 41 45 39 41 45 39 41 45 39 41 45 
39 41 45 39 41 45 39 41 45 39 41 45 39 41 45 38 41 45 36 39 44 36 39 44 
37 40 44 38 40 44 39 41 45 39 41 45 
38 40 44 39 41 45 38 40 44 39 41 45 39 41 45 39 41 45 39 41 45 39 41 45 
39 41 45 39 41 45 39 41 45 39 41 45 38 40 44 38 40 44 39 41 45 39 41 45 
39 41 45 39 41 45 39 41 45 39 41 45 39 41 45 39 41 45 39 41 45 39 41 45 
39 41 45 38 41 45 37 40 46 36 40 46 37 40 46 39 41 45 39 41 45 39 41 45 
39 41 45 39 41 45 39 41 45 39 41 45 39 41 45 39 41 45 39 41 45 39 41 45 
39 41 45 39 41 45 39 41 45 38 40 44 39 41 45 39 41 45 39 41 45 39 41 45 
39 41 45 39 41 45 39 41 45 38 41 45 36 39 45 35 39 44 34 39 43 34 39 43 
35 39 44 35 39 44 35 39 44 35 39 44 35 39 44 37 41 46 36 40 46 35 39 44 
35 39 44 35 39 44 35 39 44 36 39 45 36 39 45 36 39 45 35 39 45 35 38 43 
35 37 41 36 37 41 35 37 41 33 37 43 35 39 44 33 37 42 33 36 42 32 35 41 
32 35 41 32 35 41 32 35 41 32 35 41 32 35 41 32 35 41 32 35 41 32 35 41 
32 35 41 33 34 40 30 37 41 33 36 42 27 40 52 27 66 86 27 66 86 27 66 86 
27 66 86 27 47 64 27 40 52 26 31 37 32 34 38 34 35 39 27 47 64 27 66 86 
27 38 48 30 37 38 33 38 43 27 47 64 27 47 64 30 37 41 32 34 39 26 31 37 
27 40 52 27 66 86 27 66 86 27 66 86 27 38 48 33 36 37 33 37 39 32 35 41 
33 36 42 27 47 64 27 47 64 33 37 42 33 37 43 27 47 64 27 47 64 32 39 43 
33 37 43 27 40 52 27 47 64 27 40 52 36 35 41 27 40 52 27 66 86 27 40 52 
36 35 39 27 40 52 27 47 64 35 40 47 35 39 45 27 47 64 27 47 64 34 36 45 
27 40 52 27 66 86 27 47 64 37 36 43 27 38 48 27 66 86 27 47 64 35 35 43 
32 33 43 27 40 52 27 66 86 27 66 86 27 66 86 27 66 86 27 47 64 34 38 43 
36 35 41 35 35 40 27 47 64 27 66 86 27 66 86 27 66 86 27 47 64 27 38 48 
31 35 39 36 37 41 37 38 42 38 40 44 36 35 41 27 36 45 27 47 64 27 66 86 
27 66 86 27 66 86 27 66 86 35 36 48 27 47 64 27 66 86 27 66 86 27 66 86 
27 47 64 30 37 41 33 36 37 33 37 42 27 47 64 27 47 64 35 40 47 33 37 42 
27 40 52 27 47 64 27 47 64 27 47 64 29 109 144 45 165 215 38 76 96 27 36 45 
27 47 64 27 47 64 33 38 43 35 39 42 38 40 49 27 47 64 27 47 64 34 38 44 
34 38 48 35 40 47 37 37 44 38 37 44 37 37 42 35 36 41 36 37 41 37 38 42 
36 37 42 36 37 42 35 37 41 35 38 44 34 38 44 35 39 44 36 40 45 35 39 44 
35 39 44 35 39 44 35 39 44 35 39 44 35 39 44 35 39 44 35 39 45 35 40 47 
35 40 47 35 39 45 35 39 44 35 39 44 36 39 44 36 39 45 36 40 45 38 40 44 
38 40 44 38 40 44 38 40 44 39 41 45 39 41 45 39 41 45 39 41 45 39 41 45 
39 41 45 39 41 45 38 40 44 39 41 45 39 41 45 39 41 45 38 40 44 38 40 44 
39 41 45 39 41 45 39 41 45 38 40 44 38 40 44 39 41 45 39 41 45 39 41 45 
39 41 45 39 41 45 39 41 45 38 40 44 39 41 45 39 41 45 39 41 45 39 41 45 
39 41 45 39 41 45 39 41 45 39 41 45 39 40 44 39 41 45 39 41 45 39 41 45 
39 41 45 39 41 45 39 41 45 39 41 45 39 41 45 39 41 45 39 41 45 39 41 45 
39 41 45 39 41 45 39 41 45 39 41 45 39 41 45 39 41 45 38 40 44 39 40 44 
38 40 44 38 40 44 39 41 45 38 42 45 
38 40 44 38 40 44 39 41 45 39 41 45 39 41 45 39 41 45 39 41 45 39 41 45 
39 41 45 39 41 45 39 41 45 39 41 45 39 41 45 39 41 45 39 41 45 39 41 45 
39 41 45 39 41 45 39 41 45 39 41 45 39 41 45 39 41 45 39 41 45 39 41 45 
39 41 45 38 40 45 36 40 45 36 40 46 37 40 46 39 41 45 39 41 45 39 40 44 
39 41 45 39 41 45 39 41 45 39 41 45 39 41 45 39 41 45 39 41 45 39 41 45 
39 41 45 38 40 44 39 41 45 39 41 45 39 41 45 39 41 45 39 41 45 39 41 45 
39 41 45 39 41 45 39 41 45 38 41 45 37 40 46 35 39 45 34 38 43 33 37 43 
34 38 44 34 38 43 34 38 43 35 40 45 35 39 45 36 40 45 36 39 45 35 39 45 
35 39 44 35 39 44 37 38 43 38 38 44 38 38 44 37 37 42 37 37 42 37 36 43 
36 37 42 36 37 41 36 37 41 35 38 44 34 38 43 35 39 44 33 37 43 32 35 41 
33 37 42 34 38 43 34 38 43 32 35 41 32 35 41 32 35 41 32 35 41 32 35 41 
33 36 42 32 35 42 30 37 41 32 35 42 32 34 39 31 33 37 32 34 38 31 33 37 
31 33 37 32 29 37 32 34 38 33 34 40 32 35 41 33 35 40 31 33 37 32 34 38 
37 39 42 35 38 43 33 37 43 31 33 37 31 33 37 32 35 41 34 35 40 35 34 40 
32 34 39 31 33 37 31 33 37 31 33 37 34 34 39 34 35 40 33 37 42 33 36 42 
33 36 42 34 32 40 31 33 37 31 35 39 34 36 41 33 34 40 32 34 38 36 35 41 
37 37 44 35 34 39 32 34 38 35 34 39 37 36 43 37 35 44 34 32 40 34 39 43 
35 39 44 34 36 40 33 34 40 37 37 42 36 37 41 34 34 39 34 34 39 33 37 42 
33 37 42 33 33 43 33 36 42 34 38 44 33 36 42 31 33 37 34 33 43 38 36 46 
35 36 48 36 35 42 36 31 38 36 31 38 31 33 37 34 32 40 34 35 40 33 37 42 
36 37 42 36 35 41 36 31 38 36 31 38 35 34 40 36 34 38 40 35 41 38 37 44 
38 39 42 38 39 42 38 39 43 38 40 44 38 40 44 37 37 42 36 34 38 35 34 40 
34 32 40 32 34 38 36 34 38 38 39 44 36 39 45 35 34 40 35 34 39 34 34 39 
34 34 39 36 37 41 35 38 44 35 39 45 33 37 39 33 36 37 34 37 38 32 34 39 
38 76 96 44 125 162 44 125 162 44 125 162 44 146 186 44 125 162 27 40 52 36 35 42 
36 35 39 36 35 39 36 39 44 36 39 44 36 35 42 36 31 38 36 35 39 38 38 46 
35 36 48 38 38 49 38 37 44 38 37 44 37 37 42 34 36 40 36 38 42 37 38 42 
37 38 43 38 38 44 37 38 43 35 39 44 35 39 44 35 39 44 36 39 45 35 39 44 
35 39 44 35 39 44 35 39 44 35 39 44 35 39 44 35 39 44 35 39 45 35 40 47 
35 40 47 35 39 45 35 39 44 36 39 45 38 38 44 38 38 44 38 38 44 38 40 44 
38 40 44 39 40 44 39 41 45 39 41 45 39 41 45 39 41 45 39 41 45 39 41 45 
39 41 45 39 41 45 39 41 45 39 41 45 39 41 45 39 41 45 39 41 45 38 40 44 
38 40 45 39 40 47 39 40 47 38 39 44 38 40 44 38 40 44 39 41 45 39 41 45 
39 41 45 39 41 45 38 40 45 38 40 44 39 40 44 39 41 45 39 40 46 39 40 47 
38 40 47 38 40 47 38 40 47 38 40 47 38 40 45 39 41 45 39 41 45 39 41 45 
39 41 45 39 41 45 39 41 45 39 41 45 39 41 45 39 41 45 39 41 45 39 41 45 
39 41 45 39 41 45 39 41 45 39 41 45 39 41 45 39 41 45 39 41 45 39 41 45 
39 41 45 39 41 45 39 41 45 38 42 45 
38 40 44 38 40 44 39 41 45 39 41 45 39 41 45 39 41 45 39 41 45 39 41 45 
39 41 45 39 41 45 39 41 45 39 41 45 39 41 45 39 41 45 39 41 45 39 41 45 
39 41 45 39 41 45 39 41 45 39 41 45 39 41 45 39 41 45 39 41 45 39 41 45 
39 41 45 38 40 44 36 39 44 36 40 46 37 40 46 38 40 44 39 40 44 38 40 44 
38 40 44 38 40 44 39 40 44 39 41 45 39 41 45 38 40 44 38 39 43 38 40 44 
39 41 45 38 40 44 39 41 45 39 41 45 39 41 45 39 41 45 39 41 45 39 41 45 
39 41 45 39 41 45 39 41 45 38 41 45 36 40 46 35 39 45 34 38 43 33 37 43 
34 38 43 35 38 43 35 39 43 37 39 44 36 39 44 35 39 45 36 39 44 35 39 43 
36 39 44 36 39 44 37 38 43 38 37 44 37 36 43 35 34 40 35 34 40 35 34 40 
35 34 39 34 35 39 34 36 40 35 39 45 34 39 43 36 40 45 36 39 44 36 39 44 
35 39 44 35 39 44 35 39 44 33 37 42 34 36 41 34 36 41 33 36 42 34 38 43 
34 38 43 34 38 43 34 38 43 32 35 42 33 36 42 34 36 41 33 36 42 32 35 42 
32 35 42 32 35 41 33 35 40 33 35 40 33 34 40 33 35 40 33 35 40 31 35 39 
32 35 42 33 36 42 33 35 39 32 35 41 32 35 41 33 35 40 33 35 40 33 35 40 
32 35 41 33 36 42 33 37 43 32 35 42 32 35 42 32 35 42 33 37 43 34 38 44 
33 36 42 34 36 41 34 36 41 32 35 42 35 35 43 35 35 43 34 35 40 36 35 39 
36 37 41 34 36 41 35 36 41 35 37 41 36 37 42 36 35 42 34 38 41 32 39 43 
35 40 45 36 39 46 36 39 46 35 36 45 36 35 42 36 35 42 36 35 42 34 36 41 
34 36 41 34 36 40 33 37 39 33 37 43 34 36 45 33 37 43 34 38 48 35 38 48 
38 38 49 35 36 48 35 38 43 35 36 41 36 35 42 37 36 43 37 37 42 36 37 42 
35 37 41 35 35 43 36 35 41 35 36 41 37 37 44 38 38 44 38 39 43 38 39 44 
38 39 44 38 39 44 38 40 44 38 40 44 38 40 44 38 38 44 37 38 43 37 39 44 
37 37 44 36 38 43 37 38 43 36 39 44 37 40 44 38 37 44 38 39 44 39 40 46 
38 38 44 36 39 44 36 39 44 37 39 44 37 39 43 36 37 41 35 39 42 34 35 39 
38 76 96 29 109 144 29 109 144 29 109 144 57 90 110 27 47 64 36 35 42 38 38 46 
37 37 44 37 38 43 37 38 43 37 38 43 36 38 43 38 38 41 36 39 42 38 38 46 
38 36 46 38 38 46 38 37 44 38 37 44 37 37 42 35 36 41 36 37 41 36 37 42 
38 37 44 38 37 44 37 37 42 36 39 44 36 40 44 35 39 44 35 39 44 35 39 44 
35 39 44 35 39 44 35 39 44 35 39 44 35 39 44 35 39 45 35 39 45 36 40 46 
36 39 46 36 39 45 36 39 44 36 39 44 38 38 44 38 37 44 38 37 44 38 40 44 
38 40 44 39 40 44 39 41 45 39 41 45 39 41 45 39 41 45 39 41 45 39 41 45 
39 41 45 39 41 45 39 41 45 39 41 45 39 41 45 39 41 45 39 41 45 38 40 44 
36 39 46 38 40 47 38 40 47 37 40 46 37 40 46 37 40 46 38 40 45 38 41 47 
38 41 47 38 41 47 38 41 46 39 41 46 38 39 43 38 39 43 38 39 44 38 38 49 
38 38 49 38 38 49 38 38 49 38 38 49 38 38 46 39 40 44 39 41 45 39 41 45 
39 41 45 39 41 45 38 40 44 39 41 45 39 41 45 39 41 45 39 41 45 39 41 45 
39 41 45 39 41 45 39 41 45 39 41 45 39 41 45 39 41 45 39 41 45 39 41 45 
39 41 45 39 41 45 39 41 45 38 42 45 
38 40 44 38 40 44 38 40 44 38 40 44 38 39 43 38 39 43 39 41 45 39 41 45 
39 41 45 39 41 45 39 41 45 39 41 45 39 41 45 39 41 45 39 41 45 39 41 45 
39 41 45 39 41 45 39 41 45 39 41 45 39 41 45 39 41 45 39 41 45 39 41 45 
39 41 45 38 40 44 36 39 44 36 40 45 37 40 46 38 40 44 38 40 44 38 40 44 
38 40 44 39 41 45 39 41 45 38 40 44 38 40 44 38 40 44 39 41 45 39 41 45 
39 41 45 39 41 45 39 41 45 39 41 45 39 41 45 39 41 45 39 41 45 39 41 45 
39 41 45 39 41 45 39 41 45 38 40 45 36 39 45 35 39 44 34 38 43 34 38 43 
33 37 42 36 39 44 38 40 44 37 39 43 37 39 43 36 40 42 36 40 44 36 38 42 
37 39 43 38 40 44 38 40 44 36 37 41 35 36 40 34 34 39 34 32 40 36 35 41 
35 34 39 35 34 39 35 35 40 36 39 45 36 39 44 36 38 43 38 40 44 38 40 44 
37 40 45 36 39 45 35 39 44 36 38 43 37 38 43 36 37 41 33 37 42 35 39 45 
35 39 44 35 39 44 35 39 44 35 38 44 35 38 44 34 38 43 32 35 42 32 35 42 
33 37 42 33 37 42 33 36 42 32 35 42 32 35 41 32 35 41 33 35 40 32 35 41 
32 35 41 32 35 41 32 35 41 32 35 41 32 35 41 32 35 41 32 35 41 33 36 42 
33 37 42 35 39 44 34 38 44 34 36 41 34 36 40 36 37 41 35 39 44 35 39 45 
35 38 44 38 39 43 37 38 42 36 35 41 36 37 41 35 36 40 32 34 39 36 35 42 
36 35 42 35 35 40 35 37 41 36 38 42 37 38 43 36 37 42 35 39 44 34 38 44 
36 39 46 36 39 46 38 36 49 36 35 45 35 35 43 36 35 42 35 36 40 35 36 40 
36 37 41 35 36 40 34 36 41 34 38 48 34 36 45 35 36 48 35 36 48 38 36 49 
38 36 49 36 35 45 35 37 41 35 37 41 35 36 40 36 37 41 37 38 42 36 37 41 
35 36 40 35 36 40 36 37 41 36 38 42 37 38 42 37 39 43 37 39 42 38 40 44 
38 40 45 38 40 44 38 40 44 38 40 44 38 40 44 38 40 44 38 40 44 38 40 44 
38 40 44 38 38 41 38 39 42 37 38 43 37 39 43 36 38 42 37 39 44 39 41 45 
39 40 44 38 39 44 37 38 42 37 38 43 37 39 43 37 37 42 37 38 42 37 38 42 
34 36 40 32 33 43 32 33 43 32 33 43 33 33 43 37 37 42 38 38 41 36 37 42 
37 38 43 37 38 43 37 38 42 37 39 43 37 39 43 37 38 42 37 38 42 37 38 43 
37 38 43 37 38 42 37 38 42 37 38 42 37 38 42 37 38 42 37 38 42 36 37 41 
37 38 42 37 38 42 37 38 42 37 38 42 37 39 43 37 39 44 36 39 45 36 39 45 
36 39 45 36 39 45 36 39 45 36 39 45 36 39 45 36 39 44 36 39 44 36 39 44 
36 39 44 37 40 44 38 40 44 38 40 44 38 40 44 37 38 42 37 38 42 38 39 43 
39 40 44 38 39 43 38 40 44 39 41 45 39 41 45 39 41 45 39 41 45 39 41 45 
39 41 45 39 41 45 39 41 45 39 41 45 39 41 45 39 41 45 39 41 45 38 40 44 
36 39 46 35 40 47 35 40 47 35 40 47 35 40 47 35 40 47 35 40 47 35 40 47 
35 40 47 35 40 47 38 40 49 38 40 47 38 39 44 38 39 42 38 38 46 38 38 49 
38 38 49 38 38 49 38 38 49 38 38 49 38 38 46 38 39 43 39 41 45 39 41 45 
39 41 45 39 41 45 39 41 45 39 41 45 39 41 45 39 41 45 39 41 45 39 41 45 
39 41 45 39 41 45 39 41 45 39 41 45 39 41 45 39 41 45 39 41 45 39 41 45 
39 41 45 39 41 45 39 41 45 39 42 45 
38 40 44 38 39 43 37 39 43 37 39 43 37 38 42 37 39 43 38 40 44 39 41 45 
39 41 45 39 41 45 39 41 45 39 41 45 39 41 45 39 41 45 39 41 45 39 41 45 
39 41 45 39 41 45 39 41 45 39 41 45 39 41 45 39 41 45 39 41 45 39 41 45 
39 41 45 38 40 44 36 39 44 35 39 44 36 40 45 39 41 45 38 40 44 38 40 44 
38 40 44 39 40 44 39 41 45 39 41 45 38 40 44 39 41 45 39 41 45 39 41 45 
39 41 45 39 41 45 38 40 44 38 40 44 39 41 45 39 40 44 39 41 45 39 41 45 
38 40 44 39 41 45 39 41 45 38 40 45 36 40 45 35 39 45 34 38 43 34 38 43 
34 38 43 36 39 42 37 39 43 35 37 41 36 38 42 35 39 42 35 39 42 35 37 41 
37 38 42 38 40 44 37 38 42 35 36 40 35 36 40 35 34 39 35 34 39 35 34 39 
35 34 39 35 34 40 34 34 39 37 36 43 38 37 44 36 35 41 36 37 41 37 39 43 
38 40 44 38 38 44 38 38 44 37 37 42 36 37 41 36 37 41 35 38 43 36 39 45 
35 39 44 35 39 44 36 39 45 36 39 45 35 39 44 35 39 44 35 39 44 34 38 43 
34 38 44 35 39 44 34 38 44 34 38 43 33 37 43 33 37 42 32 35 41 32 35 41 
34 38 43 33 37 43 33 37 42 33 37 43 33 37 43 33 36 42 33 37 42 34 38 43 
35 39 44 36 40 44 36 39 44 37 39 43 37 39 43 37 39 43 36 39 44 35 39 44 
36 39 45 38 40 44 38 39 43 37 38 42 36 37 41 34 35 39 35 36 40 37 37 42 
37 36 43 35 35 40 36 37 41 36 38 42 36 38 43 34 36 45 35 39 45 35 38 48 
35 38 48 35 38 48 35 38 48 36 35 45 35 35 43 36 35 42 36 37 42 38 39 44 
38 39 44 36 37 41 34 36 41 34 36 45 34 38 48 35 36 48 38 36 49 35 36 48 
35 36 48 35 36 45 36 37 42 37 38 42 36 37 41 37 38 42 37 39 43 36 38 42 
35 37 41 37 38 42 38 40 44 38 40 44 37 39 43 37 40 44 38 40 44 38 40 44 
38 40 44 38 40 44 38 40 44 38 40 44 38 40 44 37 40 44 38 40 44 38 40 44 
38 40 44 37 39 43 37 39 43 38 39 43 38 40 44 37 39 43 38 39 43 39 40 44 
38 40 44 38 40 44 38 40 44 38 39 43 36 37 41 35 37 41 36 37 41 38 38 41 
37 37 42 36 35 45 36 35 45 38 36 46 38 37 44 36 38 43 35 39 43 37 38 42 
37 38 42 37 38 42 38 39 43 38 40 44 38 40 44 38 39 43 37 39 43 38 39 43 
38 39 42 37 38 42 37 38 42 37 38 42 37 38 42 37 38 42 37 38 42 37 38 42 
36 38 42 37 38 42 35 37 41 34 36 40 35 37 41 37 38 43 38 38 44 38 38 44 
38 38 44 37 38 43 37 38 43 37 38 43 37 38 43 37 38 43 37 38 43 37 38 43 
37 38 43 38 39 44 38 40 44 38 40 44 37 39 43 37 38 42 37 38 42 37 38 42 
38 39 43 37 38 42 38 40 44 39 41 45 39 41 45 39 41 45 39 41 45 39 41 45 
39 41 45 39 41 45 39 41 45 39 41 45 39 41 45 39 41 45 38 40 44 38 39 43 
37 40 46 38 40 49 35 38 48 35 38 48 35 38 48 35 40 47 35 40 47 35 40 47 
35 40 47 35 40 47 35 38 48 36 39 46 38 40 44 38 39 43 39 40 47 38 38 49 
38 38 49 38 38 49 38 38 49 38 38 49 38 38 46 39 40 44 39 40 44 39 41 45 
39 41 45 39 41 45 38 41 45 39 41 45 39 41 45 38 40 44 38 40 44 38 40 44 
39 41 45 39 41 45 39 41 45 39 41 45 39 41 45 39 41 45 39 41 45 39 41 45 
39 41 45 39 41 45 39 41 45 38 42 45 
38 39 43 37 39 43 37 39 43 37 39 43 38 39 43 38 40 44 38 40 44 39 41 45 
39 41 45 39 41 45 39 41 45 39 41 45 39 41 45 39 41 45 39 41 45 39 41 45 
39 41 45 39 41 45 39 41 45 39 41 45 38 41 46 38 41 47 38 41 47 38 40 47 
39 40 47 38 40 45 36 39 44 35 39 44 35 39 44 37 40 44 37 40 44 37 40 44 
38 40 44 37 39 43 39 41 45 39 41 45 39 41 45 39 41 45 39 41 45 39 41 45 
39 41 45 38 40 44 38 40 44 37 40 45 37 40 45 37 41 45 39 41 45 39 41 45 
38 41 45 38 41 46 38 41 46 37 40 45 35 39 44 35 39 44 34 38 43 34 38 43 
34 38 43 34 38 41 35 37 41 34 36 41 34 38 41 34 38 41 34 38 41 34 36 40 
35 37 41 38 39 43 36 37 41 34 36 40 35 36 40 35 36 40 35 34 39 35 34 39 
35 34 40 35 34 40 35 34 40 37 37 42 38 38 44 36 35 42 36 35 42 37 37 42 
37 38 43 37 37 42 37 37 42 36 35 41 37 38 42 37 39 43 35 39 43 36 40 45 
35 39 44 35 39 44 35 39 44 35 39 44 35 39 44 35 39 44 35 39 45 35 39 44 
35 39 44 35 39 44 35 39 44 35 39 44 35 39 44 34 38 43 32 35 41 33 37 42 
35 39 44 35 39 44 35 39 44 35 39 45 35 39 44 35 39 44 35 39 44 36 40 45 
36 40 44 36 39 44 37 39 44 38 40 44 37 39 43 37 39 43 36 39 42 35 38 43 
37 39 44 38 39 44 37 39 44 36 37 42 35 35 43 36 38 43 37 38 43 38 37 44 
37 36 43 36 35 42 37 38 42 37 39 43 36 39 45 34 38 44 35 39 45 35 36 48 
35 38 48 38 38 49 38 36 49 35 36 48 36 35 45 35 35 43 37 37 44 38 38 46 
36 39 46 35 38 44 34 36 45 34 36 45 34 38 48 34 38 48 35 36 48 35 36 48 
35 36 48 35 36 45 38 39 44 37 39 43 36 38 42 37 39 43 38 40 44 38 40 44 
38 39 43 38 40 44 38 40 44 38 40 44 38 40 44 38 40 44 38 40 44 38 40 44 
38 40 44 38 40 44 38 39 43 38 39 43 38 40 44 38 40 44 38 40 44 38 40 44 
38 40 44 38 40 44 38 40 44 38 40 44 38 40 44 38 40 44 38 40 44 38 40 44 
38 40 44 38 40 44 38 40 44 38 39 43 36 37 42 35 37 41 35 37 41 37 38 42 
37 38 43 35 36 48 35 36 48 38 36 46 38 36 46 35 36 45 37 37 44 37 38 42 
37 38 42 37 39 43 38 40 44 38 39 43 38 39 43 37 38 42 38 39 43 38 39 43 
38 39 43 38 39 43 38 40 44 38 39 43 38 39 43 38 39 43 38 39 43 37 39 43 
36 38 42 37 39 43 36 38 42 34 36 40 35 36 40 37 38 43 37 38 43 37 38 43 
37 38 43 36 35 41 36 35 41 38 37 44 37 36 43 38 37 44 38 37 44 38 37 44 
38 38 44 38 39 44 38 40 44 38 40 44 37 39 43 37 38 42 37 38 42 37 38 42 
37 38 43 37 38 43 39 40 44 39 41 45 39 41 45 39 41 45 39 41 45 39 41 45 
39 41 45 39 41 45 39 41 45 39 41 45 39 41 45 39 41 45 38 40 44 38 40 44 
36 40 46 36 39 46 35 40 47 35 38 44 35 39 45 36 40 46 35 38 48 35 38 48 
35 38 48 35 40 47 35 38 48 36 39 46 39 40 44 39 41 45 39 41 46 38 38 46 
39 40 47 38 38 49 38 38 49 38 38 49 38 40 45 39 41 45 39 40 44 39 41 45 
39 41 45 39 40 44 39 40 44 39 41 45 39 41 45 38 40 44 38 40 44 38 40 44 
39 41 45 39 40 44 38 40 44 39 41 45 39 41 45 39 41 45 39 41 45 39 41 45 
39 41 45 39 41 45 39 41 45 39 41 45 
37 39 43 37 39 43 38 40 44 38 40 44 38 40 44 39 41 45 39 41 45 39 41 45 
39 41 45 39 41 45 39 41 45 39 41 45 38 40 44 38 40 44 39 41 45 39 41 45 
39 41 45 39 41 45 39 41 45 39 41 46 37 40 46 35 40 47 35 40 47 38 40 47 
38 38 49 38 40 47 36 39 45 35 39 44 35 39 44 35 39 44 35 39 44 37 40 45 
39 40 44 37 38 42 38 40 44 38 40 44 39 41 45 39 41 45 39 41 45 39 41 45 
39 41 45 38 40 44 39 41 45 36 40 46 36 40 46 36 40 46 38 41 45 39 41 45 
39 41 45 37 40 46 36 40 46 36 39 45 35 39 44 35 39 44 35 39 44 34 38 43 
34 38 43 34 38 43 34 38 41 35 39 42 35 39 42 35 39 42 35 39 43 35 37 41 
36 37 41 38 39 43 37 39 43 36 37 41 36 38 42 36 38 42 35 36 40 36 37 42 
37 36 43 36 35 42 36 37 42 37 38 42 38 39 43 37 38 42 37 36 43 38 37 44 
37 37 42 36 37 41 36 38 42 38 39 43 38 40 44 38 40 44 36 39 44 36 40 45 
34 38 43 34 38 43 35 39 44 35 39 44 35 39 44 35 39 44 35 39 44 35 39 44 
35 39 44 35 39 44 35 39 44 35 39 44 35 39 44 34 39 43 33 36 42 34 38 43 
35 39 44 35 39 44 35 39 44 35 39 44 35 39 44 35 39 44 36 39 45 36 39 45 
36 38 43 36 38 42 37 38 42 36 37 41 35 37 41 35 36 40 34 36 40 34 36 40 
35 36 41 36 35 45 35 36 45 34 36 45 34 36 45 36 38 43 38 39 43 38 37 44 
37 36 43 36 35 42 37 38 42 38 40 44 37 39 44 36 39 44 35 38 43 35 38 44 
35 36 45 38 38 46 38 36 49 35 36 48 36 35 45 36 35 45 35 36 48 35 36 48 
35 36 48 34 36 45 34 36 45 34 38 48 34 36 45 34 36 45 35 38 48 34 38 48 
35 36 48 36 35 45 37 38 43 37 38 42 36 37 41 36 38 42 38 39 43 38 40 44 
38 40 44 38 40 44 38 40 44 38 40 44 38 40 44 38 40 44 38 40 44 38 40 44 
38 40 44 38 40 44 37 39 43 37 39 43 38 40 44 38 40 44 38 40 44 38 40 44 
38 40 44 38 40 44 39 41 45 38 40 44 37 39 43 37 39 43 37 39 43 38 40 44 
38 40 44 38 40 44 37 39 43 36 38 42 36 37 41 36 37 41 35 37 41 38 38 41 
37 38 43 35 36 48 35 36 48 35 36 48 35 36 48 35 36 48 37 37 44 37 38 42 
38 39 42 38 39 43 38 40 44 38 40 44 37 39 43 36 38 42 38 39 43 38 39 43 
38 39 43 37 39 43 38 40 44 37 39 43 37 39 43 37 39 43 38 39 43 38 39 43 
37 38 42 38 39 43 38 39 43 37 39 43 36 37 41 37 37 42 36 37 42 36 37 41 
36 37 41 35 36 40 36 37 41 38 38 44 38 37 44 38 37 44 38 37 44 38 37 44 
38 38 44 38 39 44 38 40 44 38 40 44 37 39 43 37 39 43 37 38 42 37 38 43 
37 38 43 38 38 44 39 40 44 39 41 45 39 41 45 39 41 45 39 41 45 39 41 45 
39 41 45 39 41 45 39 41 45 39 41 45 39 41 45 39 41 45 38 40 44 38 40 44 
36 39 44 35 39 44 35 39 44 35 39 44 35 39 44 35 38 44 35 38 48 35 38 48 
35 38 48 35 40 47 35 40 47 37 40 46 38 40 44 39 41 45 39 40 44 38 39 43 
38 40 45 38 40 47 38 38 49 38 38 49 38 40 45 39 40 44 39 40 44 38 40 44 
38 40 44 38 40 44 39 41 45 39 41 45 39 41 45 39 40 44 39 41 45 39 40 44 
38 40 45 38 40 45 38 39 44 37 39 44 38 40 44 39 41 45 39 41 45 39 41 45 
39 41 45 39 41 45 39 41 45 39 41 45 
38 40 44 38 40 44 38 40 44 38 40 44 38 40 44 39 41 45 39 41 45 39 41 45 
39 41 45 39 41 45 39 41 45 39 41 45 39 41 45 39 41 45 39 41 45 39 41 45 
39 41 45 38 40 44 39 41 45 38 41 46 37 40 46 35 40 47 35 40 47 38 40 47 
38 40 47 36 39 46 35 39 45 35 39 44 35 39 44 35 39 44 35 39 44 38 41 46 
39 41 45 38 40 44 39 41 45 39 41 45 39 41 45 39 41 45 39 41 45 39 41 45 
39 41 45 39 40 44 39 41 45 36 40 46 36 40 46 36 40 46 38 41 45 39 41 45 
39 41 45 37 40 46 36 40 46 36 40 46 36 40 45 36 40 45 36 39 44 35 39 44 
35 39 44 35 39 44 35 40 43 36 40 42 36 40 42 36 40 42 36 40 44 36 39 42 
37 38 42 37 39 43 37 39 43 38 39 43 38 40 44 38 40 44 37 39 43 37 39 43 
36 39 44 35 39 44 36 39 44 38 39 43 39 40 44 37 38 43 38 37 44 38 37 44 
37 38 43 36 38 42 36 38 42 38 39 43 37 39 43 38 40 44 37 39 44 35 39 44 
35 39 44 34 38 43 35 39 44 35 39 44 35 39 44 35 39 44 35 39 44 35 39 44 
35 39 44 35 39 44 35 39 44 35 39 44 35 39 44 35 39 44 35 38 44 35 39 44 
35 39 44 35 39 44 35 39 44 35 39 44 35 39 44 36 39 45 36 40 45 36 39 44 
36 39 42 37 39 43 37 38 42 36 38 42 37 38 42 37 38 42 37 38 42 37 38 42 
36 37 42 35 36 48 35 36 48 35 36 48 36 35 45 36 38 43 38 39 44 38 37 44 
37 36 43 36 35 42 36 38 42 37 39 42 38 38 44 38 37 44 37 36 43 36 37 42 
36 37 42 37 39 43 38 38 46 35 36 48 35 36 48 35 36 48 35 36 48 35 36 48 
35 36 48 35 38 48 35 38 48 35 38 48 34 38 48 34 38 48 35 38 48 38 40 49 
35 38 48 35 36 45 37 39 43 38 39 43 37 38 42 37 38 42 37 38 42 38 39 43 
38 40 44 38 40 44 39 40 44 38 40 44 37 39 43 38 40 44 38 40 44 38 40 44 
38 40 44 38 40 44 38 40 44 38 40 44 38 40 44 38 39 43 37 39 43 37 39 43 
38 40 44 38 40 44 38 40 44 37 38 42 37 38 43 37 38 42 36 37 41 37 38 43 
38 40 44 37 39 43 35 37 41 34 36 40 35 36 40 35 37 41 36 37 41 36 37 41 
35 37 41 35 35 43 34 36 45 34 36 45 36 35 45 35 36 48 37 37 44 38 39 44 
38 40 44 37 38 43 37 38 42 37 38 42 36 38 42 36 37 41 37 38 42 37 38 42 
37 38 42 37 38 42 38 40 44 36 38 42 36 38 42 36 38 42 36 37 41 37 38 42 
36 37 41 36 37 41 35 37 41 35 37 41 36 38 42 36 37 41 34 36 40 35 36 40 
35 36 40 35 36 40 37 38 42 37 38 43 38 37 44 38 37 44 38 37 44 38 37 44 
38 38 44 38 39 44 38 40 44 38 40 44 38 40 44 38 40 44 38 39 43 36 39 44 
36 39 44 36 39 44 38 40 44 39 41 45 39 41 45 39 41 45 39 41 45 39 41 45 
39 41 45 39 41 45 39 41 45 39 41 45 39 41 45 39 41 45 39 41 45 38 41 45 
36 40 44 35 39 44 35 39 44 36 40 45 35 39 45 35 39 45 35 38 48 35 38 48 
35 38 48 35 40 47 35 40 47 37 40 46 38 41 45 38 40 44 38 40 44 38 39 43 
38 40 44 38 40 45 38 38 49 38 40 47 37 39 44 38 39 43 39 40 44 39 41 45 
39 41 45 38 41 45 39 41 45 39 41 45 39 41 45 38 40 44 38 40 44 39 41 45 
38 40 47 38 40 47 38 38 46 38 39 44 38 40 44 39 40 44 39 41 45 39 41 45 
39 41 45 39 41 45 39 41 45 39 41 45 
36 39 44 36 39 44 36 39 44 36 39 45 36 39 45 37 40 45 39 41 45 39 41 45 
39 41 45 39 41 45 39 41 45 39 41 45 39 41 45 39 41 45 39 41 45 39 41 45 
39 41 45 39 40 44 39 41 45 39 41 46 38 40 47 38 40 47 38 38 49 38 40 47 
38 38 49 38 38 49 35 39 45 35 39 45 34 39 43 35 39 44 35 39 44 37 40 45 
38 40 44 38 40 44 39 41 45 39 41 45 39 41 45 39 41 45 39 41 45 39 41 45 
39 41 45 39 41 45 39 41 45 37 40 46 37 40 46 37 41 46 39 41 45 39 41 45 
39 41 45 37 41 46 37 41 46 36 40 46 36 40 46 36 40 46 36 40 45 36 40 44 
36 40 44 36 40 44 36 40 42 37 41 44 36 40 44 35 39 44 36 39 45 37 39 44 
37 38 42 36 37 41 36 37 41 37 39 43 37 39 44 37 40 44 37 39 44 36 39 44 
35 39 44 35 39 44 36 39 44 38 40 44 38 39 43 37 38 43 37 36 43 38 37 44 
38 38 44 37 39 43 37 38 42 38 39 43 38 40 44 38 40 44 37 39 44 35 39 44 
35 39 44 35 39 44 35 39 44 35 39 44 35 39 44 35 39 44 35 39 44 37 40 44 
37 40 44 37 40 44 36 39 44 37 39 44 36 39 46 38 38 49 38 38 49 35 38 48 
36 40 46 36 40 46 36 39 46 37 39 44 37 40 44 36 40 44 36 39 45 35 39 44 
36 39 44 36 40 44 36 39 42 36 39 44 36 39 44 37 39 44 37 39 44 37 40 45 
36 39 45 35 36 48 35 36 48 38 36 49 37 35 44 37 37 42 38 39 44 38 39 44 
38 39 44 38 40 44 38 40 44 38 39 43 38 39 44 38 39 44 38 37 44 37 37 42 
37 37 42 37 38 43 37 39 44 38 38 46 38 38 49 38 38 49 38 38 49 38 36 49 
38 38 46 36 39 46 36 39 46 35 38 48 38 38 49 35 38 48 35 38 48 35 38 48 
37 40 46 37 40 45 37 39 43 38 39 43 38 40 44 37 39 43 36 37 41 37 38 42 
37 39 43 38 37 44 38 38 46 38 36 46 36 35 42 36 37 41 37 38 42 38 40 44 
38 40 44 38 40 44 37 39 43 38 39 43 38 40 44 38 39 43 37 38 42 36 37 41 
36 38 42 36 37 41 36 35 42 37 36 43 38 37 44 38 38 44 37 36 43 38 37 44 
37 38 43 36 37 41 35 36 40 33 35 39 34 36 40 35 36 40 35 36 40 35 36 40 
35 36 40 34 35 40 34 35 40 33 35 40 35 36 41 37 37 44 37 37 44 37 37 44 
37 37 44 36 37 42 36 37 41 36 37 41 35 36 40 35 36 40 36 37 41 36 37 41 
36 37 41 36 37 41 37 38 42 35 37 41 36 37 41 36 37 41 36 37 41 36 37 41 
36 37 41 35 36 40 34 35 39 34 36 40 36 37 41 36 37 41 34 35 39 35 36 40 
35 36 40 34 36 40 36 37 41 36 37 42 37 37 42 37 38 43 38 37 44 38 37 44 
38 38 44 38 39 44 38 40 44 38 40 44 36 39 44 36 39 44 36 39 44 35 39 44 
35 39 44 35 39 44 39 41 45 39 41 45 39 41 45 39 41 45 39 41 45 39 41 45 
39 41 45 39 41 45 39 41 45 39 41 45 39 41 45 39 41 45 39 41 45 39 41 45 
38 41 45 38 40 45 37 40 44 36 40 46 36 40 46 36 40 46 38 40 45 38 40 47 
37 40 46 36 39 46 36 39 46 38 38 46 38 40 44 38 40 44 38 40 44 38 40 44 
38 40 44 37 40 45 36 39 46 36 39 45 37 39 44 38 40 44 39 41 45 39 41 46 
38 41 46 38 40 45 37 40 46 37 40 46 37 40 46 36 39 46 36 39 46 37 40 46 
38 38 49 38 38 49 38 40 47 38 40 45 38 40 44 38 39 43 38 40 44 39 41 45 
38 40 44 38 40 44 39 41 45 39 41 45 
35 39 44 35 39 44 35 39 44 36 39 44 37 39 44 37 39 44 38 40 44 39 41 45 
39 41 45 39 41 45 39 41 45 39 41 45 39 41 45 39 41 45 39 41 45 39 41 45 
39 41 45 39 41 45 39 41 45 39 41 45 38 40 47 38 40 47 39 40 47 38 38 46 
38 38 46 38 40 47 38 40 45 38 39 44 36 39 44 35 39 44 35 39 44 37 40 45 
38 40 44 38 40 44 39 41 45 39 41 45 39 41 45 39 41 45 39 41 45 39 41 45 
39 41 45 39 41 45 39 41 45 37 40 46 36 39 45 36 40 45 38 40 44 38 40 44 
39 41 45 37 40 45 36 40 45 36 40 45 36 40 45 36 40 46 36 40 45 36 40 42 
35 39 43 36 40 44 36 40 42 36 40 42 36 40 44 35 39 43 35 39 45 36 39 46 
38 39 43 37 38 42 37 39 43 39 40 44 38 40 44 36 39 44 36 40 45 35 39 44 
35 39 44 35 39 44 36 39 44 38 40 44 38 40 44 37 38 43 37 36 43 37 37 44 
38 39 44 38 39 43 38 39 43 38 40 44 38 40 44 37 39 43 36 39 44 35 39 44 
35 39 44 35 39 44 35 39 44 35 39 44 35 39 44 35 39 44 36 39 44 37 40 44 
38 40 44 38 40 45 36 39 46 38 38 46 38 38 49 38 38 49 38 36 49 38 38 49 
38 40 49 35 40 47 36 39 46 38 39 44 37 39 43 36 39 44 35 39 44 35 39 44 
35 39 44 35 39 44 35 39 44 35 39 44 35 39 44 35 39 44 35 39 44 36 40 45 
35 39 45 38 36 46 38 36 49 38 36 46 38 37 44 37 36 43 38 38 44 39 40 44 
39 41 45 39 41 45 38 40 44 38 40 44 37 39 43 39 41 45 39 40 44 38 39 44 
38 38 44 37 38 43 38 39 43 38 39 44 38 38 49 38 38 49 38 38 49 38 38 49 
38 39 44 39 40 44 39 40 44 38 40 47 39 40 47 37 40 46 35 40 47 35 39 45 
36 40 45 37 41 44 35 39 43 37 40 44 39 41 45 37 39 43 37 39 43 37 39 43 
37 39 43 38 38 44 38 36 46 38 36 49 36 35 42 35 37 38 36 37 41 37 39 43 
37 39 43 37 39 43 37 39 43 37 39 43 38 40 44 38 40 44 37 39 43 36 37 41 
36 37 41 36 37 41 37 37 42 37 36 43 37 36 43 38 36 44 38 36 44 38 37 44 
37 37 42 36 37 41 35 36 40 34 36 40 35 37 41 35 37 41 34 36 40 35 37 41 
36 38 42 35 36 40 34 35 39 34 35 39 36 37 41 36 37 41 38 39 43 37 37 44 
37 37 44 37 38 43 37 38 42 37 38 42 37 38 42 37 38 42 36 37 41 36 38 42 
36 37 41 35 36 40 36 37 41 35 37 41 37 38 42 37 38 42 37 38 42 37 38 42 
37 38 42 36 37 41 35 36 41 35 36 41 35 37 41 36 37 42 35 36 40 35 36 40 
34 35 39 34 36 40 37 38 42 37 38 42 37 39 43 37 39 43 37 38 43 38 38 44 
38 38 44 38 39 44 38 40 44 37 39 43 36 39 44 35 39 44 35 39 44 35 39 44 
35 39 44 35 39 44 38 40 44 39 41 45 39 41 45 39 41 45 39 41 45 39 41 45 
39 41 45 39 41 45 39 41 45 39 41 45 39 41 45 39 41 45 39 41 45 39 41 45 
39 41 45 38 39 43 38 39 44 37 40 45 36 40 46 37 40 46 38 41 45 38 40 44 
37 39 44 37 39 43 38 40 44 38 40 44 38 40 44 38 40 44 38 40 44 38 40 44 
38 40 44 37 40 44 35 39 45 35 39 45 37 39 44 38 40 44 39 41 45 38 41 46 
37 41 46 37 41 46 36 40 46 37 40 46 37 40 46 36 39 46 36 39 46 36 39 46 
36 39 46 36 39 46 38 40 45 39 41 45 38 40 44 38 39 43 38 40 44 39 41 45 
38 40 44 38 40 44 39 41 45 39 41 45 
34 38 43 34 38 43 35 38 43 38 37 44 38 37 44 38 38 44 38 40 44 39 41 45 
39 41 45 39 41 45 39 41 45 39 41 45 39 41 45 39 41 45 39 41 45 39 41 45 
39 41 45 39 41 45 39 41 45 39 41 45 39 41 45 39 41 45 39 41 45 39 41 45 
39 41 45 39 40 44 39 40 46 42 38 45 38 38 44 35 39 44 36 39 45 38 41 46 
39 41 45 39 41 45 39 41 45 39 41 45 39 41 45 39 41 45 39 41 45 39 41 45 
39 41 45 39 41 45 39 41 45 37 40 46 35 40 45 37 40 46 38 41 45 39 41 45 
39 41 45 37 40 46 36 40 45 35 39 44 35 39 44 36 40 46 36 40 45 35 39 43 
35 39 43 37 41 44 37 41 44 36 40 44 38 42 45 36 40 44 35 39 45 37 40 46 
38 39 43 38 40 44 38 40 44 39 41 45 38 40 44 35 39 44 36 40 45 35 39 44 
35 39 44 35 39 44 35 39 44 39 41 45 39 40 44 37 39 44 34 38 48 34 36 45 
35 38 44 37 39 43 38 40 44 39 41 45 38 39 43 36 38 42 35 39 43 36 40 45 
35 39 44 35 39 44 35 39 44 35 39 44 35 39 45 35 39 44 36 39 44 37 40 44 
38 40 44 38 40 45 38 38 49 35 36 48 38 36 49 38 36 49 38 36 49 38 38 49 
35 38 48 35 40 47 36 39 46 38 39 44 36 38 42 36 39 44 36 40 45 35 39 44 
35 39 44 35 39 44 35 39 44 35 39 44 35 39 44 35 39 44 35 39 44 35 39 44 
35 39 44 38 39 44 37 37 44 37 37 44 38 37 44 38 37 44 38 38 44 38 40 44 
38 40 44 38 40 44 38 40 44 39 41 45 38 40 44 38 40 44 39 41 45 38 41 46 
36 39 45 37 41 45 39 41 45 38 39 44 38 38 46 38 38 49 38 38 49 38 38 49 
39 40 46 39 41 45 39 41 45 39 41 45 39 41 46 38 41 45 36 40 45 36 40 44 
35 39 43 36 40 44 37 41 45 37 40 44 38 40 44 39 41 45 38 40 44 38 39 43 
38 40 44 39 40 44 38 38 49 35 36 48 35 36 41 35 36 40 35 36 40 35 37 41 
35 37 41 36 38 42 38 40 44 38 40 44 38 40 44 38 40 44 38 40 44 38 40 44 
37 38 42 36 37 41 35 37 41 36 38 43 37 38 43 36 37 42 37 39 43 37 39 44 
37 38 43 36 37 41 35 36 40 34 36 40 35 36 40 35 36 40 35 37 41 37 39 43 
38 40 44 36 37 41 34 36 40 36 37 41 37 38 42 37 38 42 37 39 43 38 40 44 
38 40 44 38 40 44 38 40 44 38 40 44 38 40 44 38 40 44 38 39 43 38 39 43 
36 38 42 35 36 40 36 37 41 37 38 42 39 40 44 39 40 44 39 40 44 39 40 44 
38 40 44 37 38 42 36 37 42 37 37 44 37 37 44 35 35 43 35 36 41 35 36 40 
34 36 40 33 35 39 36 38 42 37 38 42 38 40 44 38 41 44 37 39 44 36 39 44 
36 39 44 38 40 45 38 40 44 37 39 43 35 39 44 35 39 44 35 39 44 35 39 44 
36 40 45 37 40 45 38 40 44 39 41 45 39 41 45 39 41 45 39 41 45 39 41 45 
39 41 45 39 41 45 39 41 45 39 41 45 39 41 45 39 41 45 39 41 45 39 41 45 
39 41 45 39 41 45 38 40 45 36 40 44 35 39 45 37 40 46 37 39 44 38 39 43 
38 40 44 38 40 44 38 40 44 38 40 44 38 40 44 38 40 44 38 40 44 39 41 45 
39 41 45 37 41 45 36 40 46 35 39 45 37 40 44 39 41 45 39 41 45 37 40 46 
36 40 46 36 40 46 36 40 45 38 41 47 38 41 47 38 41 46 38 41 46 38 41 46 
39 41 45 39 41 45 39 41 45 38 40 44 37 39 43 38 39 43 38 40 44 38 40 44 
39 41 45 39 41 45 39 41 45 39 41 45 
34 38 43 34 38 43 35 38 43 37 38 42 37 39 43 38 39 44 38 40 44 38 40 44 
39 41 45 39 41 45 38 40 44 38 40 44 39 41 45 39 41 45 39 41 45 39 41 45 
39 41 45 39 41 45 39 41 45 38 41 45 37 40 44 37 40 45 37 40 46 37 40 46 
37 40 46 37 39 44 37 38 43 38 39 44 38 40 45 37 40 44 38 40 44 38 41 45 
39 41 45 39 41 45 39 41 45 39 41 45 39 41 45 39 41 45 38 40 44 39 41 45 
39 41 45 39 41 45 39 41 45 39 41 45 39 41 45 39 41 46 39 41 45 39 41 45 
39 41 45 37 40 46 36 40 45 35 39 44 35 39 44 35 39 45 35 39 44 36 39 44 
36 40 45 35 39 44 35 39 44 36 40 45 37 41 45 38 41 45 37 39 44 39 41 45 
39 41 45 39 40 44 39 41 45 38 40 44 37 38 42 36 38 43 37 39 44 36 39 42 
33 37 42 36 40 45 37 40 46 39 41 45 37 39 42 32 35 41 34 36 45 34 36 45 
34 36 45 33 37 43 36 39 44 38 40 45 36 38 42 36 37 41 37 38 42 37 39 43 
38 39 44 37 40 45 37 40 46 35 39 44 35 39 44 35 39 44 35 39 44 36 39 45 
37 40 45 36 39 46 35 36 48 35 36 48 36 39 46 38 38 46 38 36 49 35 36 48 
34 38 48 35 38 44 38 38 46 38 38 44 38 37 44 38 39 44 37 40 44 37 40 44 
36 39 44 35 39 44 35 39 44 35 39 44 35 39 44 36 40 45 36 40 45 35 39 44 
37 41 46 39 41 45 38 39 43 39 40 44 38 38 46 38 37 44 38 37 44 36 39 44 
36 39 44 37 40 44 38 40 44 38 39 43 38 41 45 36 39 45 36 39 44 35 40 45 
35 40 45 36 40 46 36 40 45 36 39 44 36 39 45 38 40 47 38 40 47 38 38 46 
38 40 47 39 40 46 39 41 45 39 41 45 39 41 45 39 41 45 38 41 45 39 41 45 
38 41 45 38 41 45 39 41 45 39 41 45 39 41 45 39 41 45 38 40 44 38 40 44 
39 41 45 38 40 44 37 39 44 37 37 44 35 36 40 35 36 40 35 36 40 35 36 40 
35 37 41 37 39 43 38 40 44 38 40 44 38 40 44 38 40 44 39 41 45 39 41 45 
38 40 44 36 37 41 37 39 43 37 40 44 38 41 45 38 41 45 38 41 45 38 41 45 
38 40 44 37 38 42 37 38 42 36 37 41 35 37 41 36 37 41 35 37 41 37 39 43 
37 39 43 36 38 42 35 37 41 36 37 41 37 38 42 37 38 42 37 39 43 38 40 44 
38 40 44 38 39 43 37 39 43 38 39 43 38 39 43 37 39 43 36 38 42 38 39 43 
36 38 42 37 38 42 37 39 44 36 39 44 38 40 45 38 41 45 39 41 45 39 41 45 
39 41 45 37 39 42 36 37 42 37 38 43 37 38 43 36 38 43 36 37 41 35 36 40 
36 37 42 37 37 42 38 37 44 38 38 44 38 40 44 38 40 44 38 40 44 37 40 44 
37 40 44 38 40 44 38 40 44 37 40 44 35 39 44 36 40 45 35 39 44 36 40 46 
35 39 45 38 41 47 38 41 46 37 40 46 38 41 46 37 40 46 37 40 45 36 40 45 
37 40 45 37 40 46 37 40 46 36 40 46 36 40 46 37 41 46 37 41 46 37 40 46 
38 41 45 39 41 45 38 41 45 36 39 44 35 39 45 36 40 46 36 39 45 35 39 44 
35 39 44 36 39 44 36 39 44 35 39 44 36 39 44 36 39 44 36 39 44 37 40 45 
37 40 45 36 39 44 35 39 45 36 40 45 36 39 44 37 40 45 37 40 45 38 41 45 
38 41 45 38 41 45 36 40 46 37 40 46 38 41 47 36 40 46 37 40 46 38 41 47 
39 41 46 39 42 45 39 41 46 39 40 47 36 39 46 38 38 46 38 40 45 38 40 44 
37 39 43 37 39 43 39 41 45 39 41 45 
34 38 43 34 38 43 35 38 43 37 38 42 38 39 43 38 40 44 38 39 43 38 40 44 
39 41 45 39 41 45 38 40 44 38 40 44 39 41 45 38 40 44 39 41 45 39 41 45 
39 41 45 39 41 45 39 41 45 38 41 45 36 40 44 36 39 45 36 40 46 36 40 46 
36 40 46 36 39 44 37 39 43 37 39 43 38 39 43 38 40 44 38 40 44 38 39 43 
38 39 43 38 40 44 38 40 44 39 41 45 38 40 44 38 40 44 38 40 44 39 41 45 
39 41 45 39 41 45 39 41 45 39 41 45 39 41 45 39 41 45 39 41 45 39 41 45 
39 41 45 36 40 45 35 39 44 36 39 45 35 39 44 35 39 44 35 39 44 36 39 45 
36 40 45 35 39 44 35 39 44 35 39 45 37 40 45 39 41 45 38 39 43 39 41 45 
38 39 43 38 39 43 39 41 45 38 40 44 37 39 43 36 38 42 37 39 43 38 39 43 
36 39 44 35 39 45 37 40 46 37 38 42 36 37 41 34 36 41 34 36 45 34 36 45 
34 36 45 35 38 44 35 39 44 36 39 44 36 38 42 37 38 42 37 39 43 38 39 43 
39 40 44 35 38 43 34 38 44 35 39 44 35 39 44 35 39 44 35 39 44 35 39 45 
36 40 45 36 39 46 34 38 48 34 38 48 35 38 48 38 40 47 38 36 49 35 36 48 
34 38 48 35 39 45 36 39 45 38 39 44 38 39 44 38 39 44 38 40 44 38 40 44 
36 40 44 35 39 44 35 39 44 35 39 44 36 39 45 37 41 46 37 41 46 35 39 44 
36 40 45 39 41 45 38 39 43 39 41 45 38 39 44 38 38 44 37 38 43 35 39 44 
35 39 44 36 40 44 38 40 44 38 39 43 37 40 45 35 39 45 35 39 45 35 39 44 
35 39 44 34 38 43 35 39 44 36 40 45 36 39 44 38 40 45 39 40 44 37 39 44 
38 40 47 39 40 47 39 41 45 39 41 45 39 41 45 39 41 45 39 41 45 39 41 45 
39 41 45 39 41 45 39 41 45 39 41 45 39 41 45 39 41 45 38 40 44 38 40 44 
39 41 45 39 41 45 37 39 43 36 38 39 36 37 41 35 37 41 35 36 40 36 37 41 
36 37 41 38 39 43 38 39 43 38 40 44 37 39 43 37 39 43 38 40 44 39 41 45 
38 40 44 36 38 42 37 39 43 37 38 42 38 40 44 39 40 44 39 41 45 39 41 45 
38 39 43 37 38 42 36 37 41 36 37 41 35 36 40 36 37 41 35 36 40 37 38 42 
36 37 41 35 37 41 37 39 43 36 37 41 36 38 42 37 38 42 37 39 43 38 40 44 
38 40 44 38 39 43 37 38 42 37 38 42 38 40 44 38 40 44 37 39 43 38 40 44 
37 38 42 37 38 42 36 40 46 35 40 45 37 40 46 38 41 45 39 41 45 39 41 45 
39 41 45 37 39 42 37 38 42 38 39 42 37 39 42 38 39 43 36 38 42 33 35 39 
36 35 42 38 37 44 38 37 44 38 38 44 38 40 44 38 40 44 38 40 44 38 40 44 
38 40 44 38 40 44 38 40 44 37 40 44 36 40 45 36 40 45 35 39 44 36 40 46 
36 39 45 37 40 46 37 40 46 35 39 44 35 40 45 36 40 46 37 41 46 36 40 46 
36 40 46 35 40 45 36 40 46 36 40 46 36 40 46 35 40 45 35 39 45 36 40 46 
38 41 45 39 41 45 38 41 45 36 39 44 35 39 44 36 40 45 36 39 46 36 39 46 
36 39 46 35 39 44 35 39 44 35 39 45 35 39 44 35 39 44 35 39 44 35 39 45 
34 38 43 34 38 44 35 39 45 36 40 45 35 39 44 36 40 45 36 40 46 38 41 45 
39 41 45 39 41 45 37 40 46 37 40 46 38 41 47 37 40 46 37 40 46 38 41 47 
39 41 45 39 40 44 39 41 46 39 40 47 38 38 46 38 38 46 38 40 45 39 41 45 
38 40 44 38 39 43 39 41 45 39 41 45 
35 39 44 35 39 44 35 38 43 37 38 42 37 38 42 37 38 42 37 38 42 38 40 44 
38 40 44 38 40 44 39 41 45 39 41 45 38 40 44 39 41 45 39 41 45 39 41 45 
39 41 45 39 41 45 39 41 45 38 41 45 36 40 44 35 39 45 36 40 46 37 40 46 
37 40 46 36 39 45 37 40 44 37 38 42 37 38 42 39 41 45 39 41 45 39 41 45 
39 41 45 38 40 44 38 40 44 38 40 44 37 39 43 38 39 43 38 39 43 39 41 45 
39 41 45 39 41 45 39 41 45 39 41 45 39 41 45 39 41 45 38 40 44 38 40 44 
38 40 44 36 39 44 35 39 44 37 40 46 36 39 44 35 39 44 35 39 44 35 39 44 
35 39 44 35 39 44 35 39 44 35 39 44 36 39 44 38 40 44 39 41 45 39 41 45 
38 39 43 37 38 42 38 40 44 38 40 44 38 40 44 38 39 43 35 36 40 34 36 40 
33 37 42 35 39 44 36 40 45 37 38 42 35 37 41 37 39 44 35 39 45 35 40 45 
36 39 45 36 40 45 35 39 44 37 40 44 38 40 44 38 40 44 38 40 44 38 40 44 
39 41 45 38 41 46 35 39 44 35 39 44 35 39 44 35 39 44 35 39 44 35 39 44 
35 39 44 36 40 45 36 40 46 35 38 48 35 36 48 38 38 49 38 38 46 38 38 46 
35 38 48 35 39 45 35 39 44 35 39 44 35 39 44 37 39 44 38 40 44 38 40 44 
36 40 44 35 39 44 35 39 44 35 39 44 35 39 44 35 39 44 35 39 44 35 39 44 
35 39 44 38 40 44 38 40 44 38 40 44 36 39 44 36 39 44 36 39 44 35 39 44 
35 39 44 36 40 44 38 40 44 38 40 44 36 39 44 34 39 43 36 40 46 38 41 47 
35 39 44 35 39 44 35 39 44 35 39 44 35 39 44 37 39 44 38 40 44 38 39 44 
39 40 47 39 40 46 39 41 45 38 40 44 38 40 44 39 41 45 39 41 45 39 41 45 
39 41 45 39 41 45 39 41 45 39 41 45 39 41 45 39 41 45 38 40 44 37 39 43 
38 40 44 39 41 45 37 39 43 37 38 42 37 38 42 37 38 42 36 37 41 38 39 43 
38 40 44 38 39 43 37 38 42 37 38 42 37 38 42 36 37 41 37 38 42 38 40 44 
38 40 44 38 40 44 37 39 43 38 39 43 39 41 45 37 38 42 38 39 43 38 39 43 
36 37 41 35 37 41 34 35 39 35 36 40 36 37 41 35 37 41 35 37 41 35 37 41 
36 37 41 34 35 39 38 40 44 37 38 42 35 37 41 37 38 42 37 38 42 38 40 44 
39 41 45 39 41 45 39 41 45 39 41 45 39 41 45 39 41 45 39 41 45 39 41 45 
39 41 45 39 41 45 36 40 46 36 40 46 36 40 46 38 41 45 39 41 45 39 41 45 
39 41 45 38 40 44 37 39 43 38 40 44 38 40 44 39 40 44 39 41 45 36 38 42 
36 35 42 33 34 40 37 36 43 38 38 44 38 40 44 37 38 42 36 37 41 37 39 43 
38 40 44 38 40 44 38 39 43 38 40 44 37 41 46 36 39 45 35 39 44 35 39 45 
36 39 45 35 39 45 37 40 46 35 39 45 37 40 46 38 41 47 38 41 47 38 41 47 
38 41 47 37 40 46 37 41 46 38 41 47 38 41 47 36 40 45 35 39 44 36 40 46 
38 41 45 39 41 45 37 40 44 35 38 43 35 39 44 35 39 45 35 38 48 34 38 48 
34 38 48 34 38 43 36 39 44 37 40 46 35 39 44 35 39 44 35 39 45 36 40 46 
35 39 44 35 39 44 36 40 46 35 39 45 34 38 43 35 39 45 36 40 46 38 41 45 
39 41 45 39 41 45 37 40 46 38 41 47 38 41 47 38 41 47 38 41 47 37 40 46 
38 40 45 39 41 45 39 41 45 38 40 44 38 40 44 38 40 45 39 41 45 39 41 45 
39 41 45 39 41 45 38 40 44 39 41 45 
37 40 44 37 40 44 36 38 42 37 38 42 37 39 43 38 40 44 39 41 45 38 40 44 
38 40 44 38 40 44 38 40 44 38 40 44 38 40 44 38 40 44 39 41 45 39 41 45 
39 41 45 39 41 45 39 41 45 38 41 45 36 40 44 35 39 45 36 40 46 36 40 46 
36 40 46 36 39 45 37 39 44 38 40 44 38 39 43 38 40 44 39 41 45 38 40 44 
38 40 44 38 40 44 38 40 44 38 40 44 38 40 44 38 39 43 38 39 43 38 40 44 
39 40 44 39 41 45 39 41 45 38 40 44 39 41 45 39 41 45 39 41 45 39 41 45 
39 41 45 38 40 44 38 40 44 38 41 45 36 39 44 35 39 44 36 40 44 37 40 44 
38 41 45 38 40 44 37 40 44 37 40 44 38 41 45 39 41 45 39 41 45 39 41 45 
39 41 45 39 41 45 39 41 45 39 40 44 38 40 44 38 40 44 37 38 42 36 37 41 
38 40 44 37 39 44 36 39 42 36 39 44 36 39 44 36 39 45 36 40 46 35 39 45 
35 39 44 35 39 44 35 39 44 35 39 44 36 39 44 36 39 44 36 39 44 36 39 44 
36 39 44 38 40 47 36 39 46 36 39 46 37 39 44 37 40 44 37 40 44 37 40 44 
37 40 44 38 40 45 39 41 45 38 40 45 38 40 45 39 40 46 38 40 44 38 40 45 
38 40 47 37 40 45 36 40 44 35 39 44 35 39 44 37 39 44 38 40 44 38 40 44 
38 40 44 37 40 44 37 40 44 37 40 44 37 40 44 37 40 44 38 41 45 37 40 44 
37 40 44 39 41 45 39 41 45 39 41 45 37 40 44 37 40 44 37 40 44 37 40 44 
38 41 45 39 41 45 39 41 45 39 41 45 38 41 45 37 40 44 38 40 44 40 42 46 
38 41 45 38 40 45 37 40 45 35 39 45 35 39 44 37 40 44 38 40 44 38 40 45 
38 40 45 39 41 45 39 41 45 38 40 44 38 40 44 39 41 45 39 41 45 39 41 45 
39 41 45 38 40 44 39 41 45 39 41 45 39 41 45 39 41 45 39 41 45 39 41 45 
38 40 44 37 39 43 37 38 42 37 38 42 37 38 42 37 38 42 38 40 44 39 40 44 
37 38 42 38 39 43 37 39 43 38 40 44 37 39 43 37 38 42 38 39 43 39 41 45 
38 40 44 38 40 44 37 38 42 39 40 44 39 41 45 38 40 44 38 40 44 38 40 44 
38 39 43 37 39 43 37 39 43 38 39 43 38 39 43 37 39 43 38 40 44 37 39 43 
37 39 43 37 38 42 37 39 43 38 40 44 38 40 44 38 40 44 37 39 43 38 40 44 
39 41 45 39 41 45 39 41 45 39 41 45 39 41 45 39 41 45 39 41 45 39 41 45 
39 41 45 39 41 45 39 41 45 38 41 45 38 41 45 39 41 45 39 41 45 39 41 45 
39 41 45 39 41 45 39 40 44 38 40 44 38 40 44 38 40 44 39 41 45 38 40 44 
36 38 42 37 38 42 38 39 44 38 39 43 37 39 43 36 37 41 37 39 43 38 40 44 
39 41 45 39 41 45 39 41 45 39 41 45 39 41 45 38 40 44 37 40 45 36 40 45 
35 39 45 37 40 46 38 40 45 38 40 44 38 41 45 39 41 45 39 41 45 39 41 45 
39 41 45 38 41 45 39 41 45 39 41 45 39 41 45 37 40 46 36 40 46 35 38 44 
36 40 45 37 41 46 36 40 46 35 39 44 35 39 44 34 38 44 35 38 48 35 38 48 
35 38 48 34 38 44 36 40 45 37 40 46 38 41 45 38 41 45 37 40 45 36 40 46 
36 40 46 35 39 45 35 39 44 35 39 44 35 39 44 35 39 45 36 40 46 38 41 45 
39 41 45 39 41 45 38 40 44 39 41 45 39 41 45 38 42 45 38 42 45 38 42 45 
38 41 47 37 41 46 37 40 46 36 39 45 35 38 43 36 39 44 38 41 45 39 41 45 
38 40 44 37 39 43 37 39 43 38 40 44 
38 40 44 38 40 44 38 39 43 37 38 42 37 39 43 38 40 44 39 41 45 39 41 45 
39 41 45 39 41 45 39 41 45 39 41 45 39 41 45 39 41 45 39 41 45 39 41 45 
39 41 45 39 41 45 39 41 45 38 41 45 36 40 44 35 39 45 36 40 46 36 40 46 
36 40 46 37 40 46 38 40 44 39 40 44 37 39 43 39 41 45 39 41 45 39 41 45 
38 40 44 39 41 45 38 40 44 38 40 44 38 40 44 38 40 44 39 41 45 38 40 44 
38 40 44 39 40 44 39 41 45 38 40 44 39 41 45 39 41 45 39 41 45 39 41 45 
39 41 45 39 41 45 39 40 44 38 41 45 36 39 44 35 39 44 36 40 44 38 40 44 
39 41 45 39 41 45 39 41 45 38 40 44 39 41 45 39 41 45 39 41 45 39 41 45 
39 41 45 39 41 45 39 41 45 38 40 44 38 40 44 38 39 43 38 40 44 38 40 44 
39 41 45 39 40 44 39 41 45 38 41 47 38 41 47 37 41 46 36 40 46 35 39 45 
35 39 45 35 39 44 35 39 44 35 39 44 35 39 44 35 39 45 35 39 45 35 39 45 
35 39 44 36 39 46 38 38 46 38 38 46 38 40 45 38 40 44 38 40 44 38 40 44 
38 40 44 39 41 45 39 41 45 39 41 45 39 40 44 39 40 44 38 40 44 38 41 45 
39 40 44 38 40 44 37 40 44 35 39 44 35 39 45 37 39 44 38 40 44 38 40 44 
38 40 44 38 40 44 38 40 44 38 40 44 39 41 45 39 41 45 39 41 45 39 41 45 
39 41 45 39 41 45 39 41 45 39 41 45 38 40 44 38 40 44 38 40 44 38 40 44 
39 40 44 39 41 45 39 41 45 39 41 45 39 41 45 38 40 44 39 41 45 39 41 45 
39 41 45 39 41 45 38 41 46 37 40 46 36 39 45 38 40 45 39 41 45 39 41 45 
39 41 45 39 41 45 40 42 46 40 42 46 39 41 45 39 41 45 39 41 45 39 41 45 
39 41 45 38 40 44 39 41 45 39 41 45 39 41 45 39 41 45 39 41 45 39 41 45 
39 41 45 39 41 45 38 40 44 37 39 43 39 41 45 38 40 44 38 40 44 39 40 44 
37 39 43 38 39 43 38 40 44 39 42 45 38 40 44 37 38 42 38 40 44 38 40 44 
38 39 43 38 40 44 37 39 43 39 40 44 39 41 45 39 41 45 39 41 45 39 41 45 
39 41 45 38 40 44 38 40 44 39 41 45 39 41 45 39 41 45 39 41 45 38 40 44 
38 40 44 38 40 44 38 40 44 39 41 45 39 40 44 38 40 44 39 41 45 39 41 45 
39 41 45 39 41 45 39 41 45 39 41 45 39 41 45 39 41 45 39 41 45 39 41 45 
39 41 45 39 41 45 39 41 45 39 41 45 39 41 45 39 41 45 39 41 45 39 41 45 
39 41 45 39 41 45 39 41 45 39 41 45 39 41 45 39 41 45 39 40 44 38 40 44 
38 40 44 38 39 43 38 40 44 38 40 44 39 40 44 37 39 43 38 40 44 39 41 45 
39 41 45 39 41 45 39 41 45 39 41 45 39 41 45 38 39 43 37 39 43 37 41 46 
36 40 45 37 40 46 39 41 45 39 41 45 39 41 45 39 41 45 39 41 45 39 41 45 
39 41 45 39 41 45 39 41 45 39 41 45 39 41 45 37 40 46 36 40 46 35 39 44 
35 39 45 35 39 45 36 40 46 36 40 45 35 39 44 35 39 44 36 40 46 38 40 49 
36 40 46 35 39 44 36 40 45 37 40 46 39 41 45 39 41 45 38 41 45 36 40 46 
37 41 46 36 40 46 35 39 44 35 39 45 35 39 45 35 39 45 36 40 46 37 40 45 
39 41 45 39 41 45 38 40 44 39 41 45 39 41 45 37 41 45 38 42 45 38 42 45 
37 41 46 37 41 46 37 40 46 36 40 46 35 39 45 36 40 44 38 41 45 39 41 45 
39 41 45 39 41 45 39 41 45 39 41 45 
38 40 44 37 39 43 37 38 42 37 38 42 37 39 43 38 40 44 38 40 44 39 41 45 
39 41 45 39 41 45 39 41 45 39 41 45 39 41 45 39 41 45 39 41 45 39 41 45 
39 41 45 39 41 45 39 41 45 38 41 45 36 40 44 35 39 45 36 40 46 36 40 46 
36 40 46 37 40 45 38 40 44 39 41 45 38 40 44 39 41 45 39 41 45 39 41 45 
39 41 45 39 41 45 38 40 44 38 40 44 38 40 44 38 40 44 38 40 44 38 40 44 
37 39 43 37 38 42 38 39 43 39 41 45 39 41 45 39 40 44 39 41 45 39 41 45 
39 41 45 39 41 45 39 41 45 38 40 45 36 39 45 35 39 44 36 40 44 38 40 44 
38 40 44 37 39 43 38 39 43 38 39 43 38 40 44 39 40 44 39 40 44 39 41 45 
39 41 45 39 41 45 39 41 45 38 40 44 39 41 45 38 40 44 38 40 44 39 41 45 
39 40 44 39 40 44 38 40 44 36 40 46 36 40 46 36 40 46 36 40 46 36 40 46 
36 40 46 36 40 45 36 40 44 36 39 44 36 39 44 36 39 44 36 40 45 36 40 46 
37 40 46 38 41 45 39 41 45 39 41 45 38 40 44 38 40 44 38 40 44 38 40 45 
38 40 45 39 40 44 39 41 45 39 41 45 38 41 45 38 41 45 38 41 45 38 41 45 
39 41 45 39 41 45 38 41 45 36 40 46 36 40 46 37 40 45 38 40 44 38 40 44 
38 40 44 38 40 45 38 40 45 39 41 45 38 40 44 38 40 44 39 41 45 38 40 44 
39 41 45 39 41 45 39 41 45 39 41 45 38 40 44 38 40 44 39 41 45 39 41 45 
39 40 44 39 40 44 39 41 45 39 41 45 39 41 45 39 41 45 39 41 45 39 41 45 
39 41 45 39 41 45 38 41 46 38 41 46 37 40 45 38 40 45 39 41 45 39 41 45 
39 41 45 38 41 45 38 41 45 39 41 45 39 41 45 38 40 44 40 42 46 39 41 45 
39 41 45 38 40 44 39 41 45 39 41 45 39 41 45 39 41 45 39 41 45 39 41 45 
39 41 45 39 41 45 39 41 45 38 40 44 38 40 44 39 41 45 39 41 45 39 41 45 
38 40 44 38 40 44 39 41 45 39 41 45 39 40 44 38 40 44 39 40 44 38 39 43 
37 39 43 38 40 44 38 40 44 39 41 45 39 41 45 38 40 44 38 40 44 38 39 43 
38 39 43 38 40 44 38 40 44 39 41 45 39 41 45 39 41 45 39 41 45 39 41 45 
39 41 45 38 39 43 39 41 45 39 41 45 39 41 45 39 41 45 40 42 46 39 41 45 
38 40 44 39 41 45 39 41 45 39 41 45 39 41 45 39 41 45 39 41 45 39 41 45 
39 41 45 39 41 45 39 41 45 39 41 45 39 41 45 39 41 45 39 41 45 39 41 45 
39 41 45 39 41 45 39 41 45 39 41 45 39 41 45 39 41 45 39 41 45 39 41 45 
38 40 44 39 40 44 39 41 45 39 41 45 39 41 45 38 40 44 39 41 45 39 41 45 
39 40 44 39 40 44 39 41 45 39 41 45 38 40 44 37 38 42 36 38 42 36 40 45 
35 39 45 37 40 46 39 41 45 39 41 45 39 41 45 39 41 45 39 41 45 39 41 45 
39 41 45 39 41 45 39 41 45 39 41 45 39 41 45 37 40 46 37 40 46 36 40 46 
36 40 46 36 40 46 36 40 46 36 40 46 36 40 46 36 40 46 36 40 46 38 40 47 
36 40 46 36 40 46 36 40 46 37 40 46 39 41 45 39 41 45 38 41 45 37 40 46 
37 40 46 37 40 46 37 40 46 37 40 46 37 40 46 37 40 46 37 40 46 38 41 45 
39 41 45 39 41 45 39 41 45 39 41 45 39 41 45 36 40 45 37 41 45 37 41 45 
36 40 46 37 40 46 37 40 46 36 40 46 37 40 46 37 41 45 39 41 45 39 41 45 
39 41 45 39 41 45 39 41 45 39 41 45 
37 39 43 37 38 42 37 38 42 37 38 42 37 39 43 38 40 44 38 40 44 39 41 45 
39 41 45 39 41 45 39 41 45 39 41 45 39 41 45 39 41 45 39 41 45 39 41 45 
39 41 45 39 41 45 39 40 44 38 40 44 37 40 45 36 40 45 36 39 45 38 40 45 
38 40 44 38 40 44 39 41 45 38 40 44 38 40 44 39 40 44 39 40 44 39 40 44 
39 41 45 39 40 44 38 40 44 38 40 44 38 40 44 39 41 45 39 41 45 39 41 45 
38 40 44 37 38 42 37 38 42 38 39 43 38 40 44 37 38 42 39 41 45 39 41 45 
39 41 45 39 41 45 39 41 45 38 40 45 36 39 44 35 39 44 36 40 44 38 40 44 
39 41 45 38 40 44 38 40 44 38 40 44 38 40 44 38 39 43 37 38 42 38 39 43 
39 41 45 39 41 45 39 41 45 39 41 45 39 41 45 39 41 45 39 41 45 38 40 44 
37 38 42 37 38 42 37 39 43 35 39 44 35 39 44 35 39 44 37 40 44 38 40 44 
37 40 44 37 40 44 38 40 44 38 40 44 37 40 44 38 40 44 38 40 44 38 41 45 
38 41 45 39 41 45 39 41 45 39 41 45 38 40 44 38 40 44 39 41 45 37 41 45 
37 40 46 37 40 46 39 41 45 38 40 44 36 39 42 36 39 44 37 40 46 36 40 45 
37 40 46 37 40 46 37 40 46 36 40 45 36 40 46 37 40 45 38 40 44 39 41 45 
37 41 45 36 40 46 37 40 46 38 40 45 39 41 45 39 41 45 39 41 45 39 41 45 
39 41 45 39 41 45 39 41 45 39 41 45 39 41 45 39 41 45 39 41 45 39 41 45 
39 41 45 39 41 45 39 41 45 39 41 45 39 41 45 39 41 45 39 41 45 39 41 45 
39 41 45 39 41 45 39 40 44 39 41 45 38 41 45 38 40 44 39 40 44 39 41 45 
37 40 46 36 40 45 37 40 44 39 41 45 39 41 45 39 41 45 39 41 45 39 41 45 
39 41 45 39 41 45 39 41 45 39 41 45 39 41 45 39 41 45 39 41 45 39 41 45 
39 41 45 39 41 45 39 41 45 39 41 45 39 41 45 39 41 45 38 40 44 39 41 45 
39 41 45 39 41 45 39 41 45 39 41 45 39 41 45 39 41 45 38 40 44 38 40 44 
38 40 44 38 40 44 38 39 43 38 40 44 38 40 44 38 39 43 37 39 43 37 39 43 
38 40 44 39 41 45 39 41 45 39 41 45 39 41 45 39 41 45 39 41 45 39 41 45 
39 41 45 38 39 43 39 41 45 39 41 45 39 41 45 39 41 45 39 41 45 39 41 45 
38 40 44 39 40 44 39 41 45 39 41 45 39 41 45 39 41 45 39 41 45 39 41 45 
39 41 45 39 41 45 39 41 45 39 41 45 39 41 45 39 41 45 39 41 45 39 41 45 
39 41 45 38 40 44 38 40 44 39 41 45 39 41 45 39 41 45 39 41 45 39 41 45 
38 40 44 37 38 42 37 39 43 37 39 43 37 39 43 38 40 44 39 41 45 38 39 43 
37 38 42 37 39 43 38 40 44 39 41 45 38 40 44 38 39 43 37 40 44 35 39 43 
35 39 44 37 41 46 39 41 45 39 41 45 39 41 45 39 41 45 39 41 45 39 41 45 
39 41 45 39 41 45 39 41 45 39 41 45 39 41 45 38 41 45 38 41 45 38 41 45 
37 40 46 36 40 46 36 40 46 36 40 46 36 40 46 36 40 46 36 40 46 35 40 45 
35 39 45 36 40 46 36 40 46 37 40 46 39 41 45 39 41 45 39 41 45 38 41 45 
38 41 45 38 41 45 38 41 45 38 41 45 38 41 45 38 41 45 38 41 45 39 41 45 
39 41 45 39 41 45 38 40 44 39 41 45 39 41 45 36 40 46 36 40 46 35 39 45 
36 40 46 35 40 47 38 40 47 38 40 45 38 41 45 39 41 45 39 41 45 39 41 45 
39 41 45 39 41 45 39 41 45 38 40 44 
37 38 42 38 39 43 37 38 42 37 38 42 37 38 42 38 40 44 38 40 44 39 41 45 
39 41 45 39 41 45 39 41 45 39 41 45 39 41 45 39 41 45 39 41 45 39 41 45 
39 41 45 38 40 44 38 40 44 38 40 44 37 40 45 35 39 45 36 39 44 38 40 45 
38 40 45 38 40 44 38 40 45 38 40 44 38 39 43 38 39 43 38 39 43 38 40 44 
38 40 44 38 39 43 38 39 43 38 39 43 38 39 43 38 40 44 39 41 45 39 41 45 
38 40 44 37 38 42 37 38 42 37 38 42 38 39 43 37 39 43 38 39 43 38 40 44 
38 40 44 39 40 44 39 41 45 37 40 44 36 39 44 35 39 44 36 40 44 38 40 44 
38 40 44 38 40 44 38 40 44 39 41 45 39 41 45 38 39 43 37 39 43 38 40 44 
38 40 44 39 41 45 39 41 45 39 41 45 39 41 45 39 41 45 39 41 45 38 40 44 
37 39 43 38 39 43 37 39 44 35 39 44 35 39 44 36 39 44 38 40 44 38 40 44 
38 39 43 38 39 43 38 39 43 38 39 43 38 40 44 39 41 45 39 41 45 39 41 45 
39 41 45 39 41 45 39 41 45 39 41 45 39 41 45 39 41 45 38 41 45 36 40 45 
35 39 45 37 40 46 39 41 45 39 40 44 36 39 42 35 38 44 36 40 46 35 39 44 
35 39 45 35 39 45 36 39 45 36 40 45 36 39 45 37 39 44 38 40 44 38 41 45 
36 40 44 35 39 44 35 39 45 37 40 44 39 41 45 39 41 45 39 41 45 39 41 45 
39 41 45 39 41 45 39 41 45 39 41 45 39 41 45 39 41 45 39 41 45 39 41 45 
39 41 45 39 41 45 39 41 45 39 41 45 39 41 45 39 41 45 39 41 45 39 41 45 
39 41 45 39 41 45 39 41 45 39 41 45 39 41 45 39 40 44 38 40 44 37 40 44 
36 40 45 36 40 46 36 40 44 39 41 45 39 41 45 39 41 45 39 41 45 39 41 45 
39 41 45 39 41 45 39 41 45 39 41 45 39 41 45 39 41 45 39 41 45 39 41 45 
39 41 45 39 41 45 39 41 45 39 41 45 39 41 45 39 41 45 38 40 44 38 39 43 
38 39 43 38 40 44 39 41 45 39 41 45 39 41 45 38 40 44 38 40 44 39 41 45 
39 41 45 38 40 44 37 39 43 37 39 43 38 40 44 38 40 44 38 40 44 38 40 44 
39 41 45 38 40 44 38 40 44 39 41 45 39 41 45 39 41 45 38 40 44 38 40 44 
38 40 44 38 39 43 39 41 45 39 41 45 39 41 45 39 41 45 39 41 45 39 41 45 
38 40 44 37 39 43 38 40 44 39 40 44 39 41 45 38 40 44 38 39 43 38 40 44 
39 40 44 38 40 44 38 40 44 38 40 44 39 41 45 39 41 45 39 40 44 39 41 45 
39 40 44 38 39 43 37 39 43 38 39 43 38 39 43 38 40 44 39 40 44 39 41 45 
39 40 44 37 38 42 37 38 42 37 38 42 36 38 42 37 39 43 37 39 43 37 38 42 
37 38 42 37 38 42 38 39 43 38 41 45 38 40 44 37 38 42 37 38 42 34 38 41 
35 39 44 36 40 45 39 40 44 39 41 45 39 41 45 39 41 45 39 41 45 39 41 45 
39 41 45 39 41 45 39 41 45 39 41 45 39 41 45 39 41 45 39 41 45 39 41 45 
37 40 46 36 40 46 36 40 46 36 40 46 36 40 46 36 40 46 36 40 46 36 40 45 
35 39 45 36 40 45 36 40 46 37 40 46 39 41 45 39 41 45 39 41 45 39 41 45 
39 41 45 39 41 45 39 41 45 39 41 45 39 41 45 39 41 45 39 41 45 39 41 45 
39 41 45 39 41 45 38 40 44 39 41 45 39 41 45 35 39 45 35 39 44 35 39 44 
35 40 47 35 40 47 38 40 47 38 40 45 39 41 45 39 41 45 39 41 45 39 41 45 
39 41 45 39 41 45 39 41 45 37 40 44 
37 39 43 38 40 44 37 38 42 37 38 42 37 38 42 38 39 43 39 41 45 39 41 45 
39 41 45 39 41 45 39 41 45 39 41 45 39 41 45 39 41 45 38 39 43 38 39 43 
39 40 44 38 40 45 38 40 45 36 39 46 36 39 45 35 39 45 35 39 45 36 39 46 
36 39 46 36 39 46 38 40 44 38 40 44 38 39 43 37 40 44 37 40 44 37 40 44 
38 40 44 38 40 44 37 39 43 37 38 42 37 38 42 38 39 43 38 40 44 39 41 45 
38 40 44 38 40 44 38 39 43 37 39 43 37 38 42 37 38 42 37 38 42 37 38 42 
37 39 43 38 40 44 38 40 44 38 40 44 36 39 44 36 39 44 37 40 44 38 40 44 
38 40 44 38 40 44 38 40 44 39 41 45 39 41 45 38 40 44 38 40 44 38 40 44 
38 40 44 39 41 45 39 41 45 39 41 45 39 41 45 39 41 45 39 41 45 39 41 45 
38 40 44 38 40 44 38 40 44 35 38 43 35 39 44 36 39 44 38 40 44 38 40 44 
38 40 44 38 40 44 38 39 43 38 39 43 38 40 44 38 40 44 38 39 43 38 40 44 
39 40 44 39 41 45 39 41 45 39 41 45 39 41 45 39 41 45 39 41 45 37 40 45 
37 40 45 38 41 45 39 41 45 39 40 44 36 38 43 35 38 44 35 39 45 35 39 44 
36 40 45 36 39 45 36 39 44 36 39 44 36 39 44 37 39 44 38 40 44 38 40 44 
36 39 42 34 38 43 34 38 43 36 39 44 38 40 44 38 40 45 38 41 45 39 41 45 
39 41 45 38 40 44 39 40 44 38 41 45 38 41 45 38 41 45 39 41 45 39 41 45 
39 41 45 39 41 45 39 41 45 39 41 45 38 41 45 38 41 45 38 41 45 39 41 45 
39 41 45 39 41 45 39 41 45 38 40 44 38 39 43 38 40 44 38 40 44 37 40 44 
36 39 44 36 40 46 37 40 46 39 41 45 39 41 45 39 41 45 39 41 45 39 41 45 
39 41 45 39 41 45 39 41 45 39 41 45 38 40 44 39 41 45 39 41 45 39 41 45 
39 41 45 39 41 45 39 41 45 39 41 45 39 41 45 39 41 45 38 40 44 37 39 43 
37 39 43 38 39 43 38 40 44 39 41 45 39 41 45 37 39 44 36 39 42 38 40 44 
38 41 45 37 40 44 36 38 42 37 39 43 38 40 44 38 40 44 38 40 44 38 40 44 
38 40 44 38 40 45 38 39 44 38 40 45 38 40 45 38 39 44 37 39 44 38 38 46 
38 40 45 37 39 44 38 40 45 38 40 45 39 41 45 39 41 45 39 41 45 39 41 45 
38 40 44 36 38 42 37 38 42 37 39 43 38 39 43 38 39 43 37 38 42 37 39 43 
37 39 43 36 39 42 36 38 42 37 39 43 38 40 44 38 40 44 37 38 43 37 39 44 
37 39 44 37 39 44 37 38 43 36 38 42 36 38 42 36 38 42 36 38 43 37 39 43 
37 39 43 37 38 42 37 38 42 37 38 42 36 37 41 37 38 42 37 38 42 37 38 42 
37 38 42 37 38 42 37 38 42 38 39 43 36 38 42 36 37 42 36 37 41 35 38 43 
35 39 44 35 38 43 38 39 43 39 40 44 39 40 44 39 41 45 39 41 45 39 41 45 
39 41 45 39 41 45 39 41 45 39 41 45 39 41 45 39 41 45 38 41 45 38 41 45 
36 40 46 36 40 46 36 40 46 36 40 46 36 40 46 36 40 46 36 40 46 36 40 46 
36 40 46 35 39 45 36 40 46 36 40 46 38 40 45 39 41 45 39 41 45 38 41 45 
38 41 45 38 41 45 39 41 45 39 41 45 39 41 45 39 41 45 39 41 45 39 41 45 
39 41 45 38 40 44 38 40 44 39 40 44 39 41 45 35 39 45 35 39 45 35 39 45 
36 40 46 36 40 46 37 40 46 38 40 45 39 41 45 39 41 45 39 41 45 38 41 45 
38 41 45 38 41 45 38 41 45 37 41 45 
37 38 42 37 38 42 37 38 42 37 38 42 37 38 42 37 39 43 38 40 44 39 41 45 
39 41 45 39 41 45 38 40 44 39 41 45 39 41 45 38 40 44 37 38 42 37 38 42 
37 38 43 38 38 46 38 38 49 38 38 49 35 38 48 35 38 48 35 38 48 35 38 48 
35 38 48 36 39 46 38 40 45 38 39 43 37 40 44 36 39 44 36 40 44 36 39 44 
37 38 42 38 40 44 38 40 44 37 39 43 37 38 42 37 38 42 38 39 43 38 40 44 
38 40 44 38 40 44 38 40 44 37 39 43 36 37 41 37 38 42 37 38 42 37 39 43 
38 40 44 38 40 44 38 40 44 38 40 44 38 40 44 37 39 43 38 40 44 38 40 44 
38 40 44 38 40 44 38 40 44 38 40 44 37 39 43 37 39 43 39 41 45 39 41 45 
38 40 44 38 40 44 39 41 45 39 41 45 39 41 45 39 41 45 39 41 45 39 41 45 
39 41 45 39 40 44 39 40 44 37 40 44 37 40 44 38 40 44 38 40 44 38 40 44 
38 40 45 39 41 45 38 40 45 38 39 44 37 38 42 37 38 42 37 38 42 37 38 42 
38 40 44 38 40 44 39 41 45 39 41 45 39 41 45 39 41 45 39 41 45 39 41 46 
39 41 45 39 41 45 39 41 45 38 39 43 37 38 43 35 38 48 35 38 48 36 40 46 
37 39 44 37 39 43 37 38 43 37 38 43 38 40 44 38 39 43 37 39 43 38 39 43 
36 39 42 34 38 43 34 38 43 34 38 43 35 39 44 35 39 44 38 40 44 38 40 44 
38 40 44 37 39 43 38 39 43 38 40 45 37 40 46 37 40 46 37 40 46 39 41 45 
39 41 45 38 40 44 38 40 44 38 40 44 36 40 44 36 39 45 36 39 45 37 40 44 
38 40 44 38 40 44 38 40 44 38 39 43 37 39 43 38 40 44 38 40 44 37 39 44 
36 39 45 36 40 46 38 41 46 39 41 45 39 41 45 39 41 45 39 41 45 39 41 45 
39 41 45 39 41 45 39 41 45 39 41 45 39 41 45 39 41 45 39 41 45 39 41 45 
39 41 45 39 41 45 39 41 45 39 41 45 39 41 45 39 41 45 39 41 45 39 41 45 
38 40 44 38 40 44 38 40 44 39 41 45 38 41 45 36 39 44 35 38 43 36 39 45 
36 40 45 35 39 43 35 38 42 37 39 43 38 40 44 38 40 44 38 40 44 38 40 44 
38 40 44 36 39 46 38 38 49 38 38 49 38 38 46 37 38 43 38 38 46 38 38 49 
38 38 49 35 38 48 35 38 48 36 39 46 38 40 44 38 40 44 38 40 44 38 40 44 
37 39 43 36 37 41 36 37 41 37 38 42 37 38 42 37 38 42 37 38 42 35 38 43 
35 38 43 35 38 43 36 38 42 38 39 43 37 39 44 38 36 46 35 36 48 35 36 45 
36 39 46 35 38 48 36 39 45 35 38 43 35 38 43 34 38 43 34 38 43 34 38 43 
35 38 43 37 38 42 37 38 42 37 38 42 36 37 41 36 37 41 36 37 41 37 38 42 
37 38 42 37 38 42 37 38 42 37 38 42 35 38 42 35 38 43 35 38 43 36 38 43 
37 38 42 37 38 42 37 38 42 38 39 43 38 39 43 38 40 44 39 41 45 39 41 45 
39 41 45 39 41 45 39 41 45 39 41 45 39 41 45 38 40 45 37 40 46 36 40 46 
36 40 46 36 40 46 36 40 46 36 40 46 36 40 46 36 40 46 36 40 46 36 40 46 
36 40 46 36 40 46 36 40 46 36 40 45 36 40 44 38 42 45 38 42 45 36 40 46 
36 40 45 37 40 44 39 41 45 39 41 45 39 41 45 39 41 45 39 41 45 39 41 45 
39 41 45 39 41 45 39 40 44 38 39 43 38 40 44 35 40 47 35 40 47 36 40 46 
35 39 45 36 40 45 36 40 45 36 40 45 37 40 45 37 40 45 37 40 45 35 40 43 
35 39 44 36 39 44 36 40 46 36 40 45 
37 38 42 37 38 42 37 38 42 37 38 42 37 38 42 38 39 43 38 40 44 38 40 44 
39 41 45 39 41 45 38 40 44 38 40 44 39 41 45 39 41 45 38 39 43 38 39 43 
37 39 43 38 36 46 38 36 49 38 38 49 35 38 48 35 38 48 35 38 48 35 38 48 
35 38 48 36 39 46 38 40 45 38 39 43 37 40 44 35 39 44 35 39 44 36 39 44 
38 39 43 38 40 44 38 40 44 38 40 44 37 39 43 37 39 43 38 40 44 38 40 44 
38 40 44 38 40 44 38 40 44 37 39 43 38 38 41 38 39 43 38 39 43 38 39 43 
38 40 44 38 40 44 38 40 44 38 40 44 38 40 44 38 40 44 38 40 44 38 40 44 
38 40 44 38 40 44 38 40 44 38 40 44 37 39 43 37 38 42 38 40 44 38 40 44 
37 39 43 38 40 44 39 41 45 38 40 44 38 39 43 38 39 43 39 40 44 39 41 45 
38 40 44 38 40 44 38 39 43 37 39 43 38 40 44 38 40 44 38 40 44 38 40 44 
38 40 45 38 40 47 38 40 47 37 37 44 37 38 42 37 38 42 37 38 42 37 38 42 
38 40 44 39 41 45 39 41 45 39 41 45 39 41 45 38 40 44 38 40 44 38 40 44 
38 40 44 39 40 44 39 41 45 39 40 44 37 38 43 35 38 48 35 38 48 36 39 46 
37 38 42 37 38 43 37 38 43 37 38 43 37 38 43 37 38 43 38 39 43 38 39 43 
36 39 42 34 38 43 34 38 43 34 38 43 34 38 43 35 39 44 38 40 44 38 40 44 
38 40 44 38 40 44 38 40 44 37 40 44 35 39 45 35 39 45 36 40 45 38 40 44 
38 40 44 38 40 44 39 40 44 38 40 44 36 39 44 34 38 43 34 38 43 36 38 42 
37 39 43 38 40 44 38 40 44 38 40 44 38 39 43 37 39 43 38 39 43 37 40 44 
36 39 45 35 39 45 37 40 45 38 40 45 38 40 44 38 40 44 39 41 45 39 41 45 
39 41 45 39 41 45 39 40 44 39 41 45 39 41 45 38 40 44 38 40 44 38 39 43 
38 39 43 38 40 44 39 40 44 39 40 44 38 40 44 38 40 44 38 40 44 38 40 44 
38 40 44 38 40 44 38 40 44 38 40 44 37 40 45 35 39 44 35 38 44 36 40 45 
35 39 44 34 38 43 35 38 43 37 38 42 37 39 43 38 39 43 38 40 44 38 40 44 
38 39 44 38 38 46 38 38 49 38 36 49 38 38 49 37 37 44 38 38 46 38 36 49 
35 36 48 35 38 48 35 38 48 36 39 46 38 40 44 38 40 44 38 40 44 38 39 43 
37 39 43 38 39 43 37 39 43 37 38 42 37 39 43 37 38 42 37 38 42 34 38 43 
34 38 43 33 37 43 36 38 42 37 38 42 38 39 44 38 36 46 35 36 48 35 36 48 
35 36 48 35 38 48 35 39 45 34 38 43 34 38 43 34 38 43 34 38 43 34 38 43 
35 39 44 38 39 43 38 39 43 37 39 43 36 37 41 36 37 41 36 37 41 37 38 42 
36 37 41 37 38 42 37 38 42 36 37 41 34 38 43 34 38 43 34 38 43 36 37 42 
36 37 41 37 38 42 38 39 43 38 39 43 38 39 43 38 40 44 39 41 45 39 41 45 
39 41 45 39 41 45 39 41 45 39 41 45 39 41 45 37 40 46 36 40 46 36 40 46 
36 40 46 36 40 46 36 40 46 37 41 46 37 40 46 36 40 46 36 40 46 36 40 45 
35 39 45 36 40 46 36 40 46 36 40 45 36 40 44 37 41 44 37 41 45 36 40 46 
36 40 45 37 40 44 39 40 44 39 41 45 39 41 45 39 41 45 39 41 45 39 41 45 
39 41 45 39 40 44 38 39 43 37 38 42 37 38 42 35 38 48 35 38 48 35 38 48 
35 39 44 36 40 44 36 40 45 36 39 45 35 39 44 35 39 45 35 39 45 34 39 43 
34 39 43 35 39 44 36 40 46 36 40 45 
36 38 43 36 38 42 36 39 42 36 39 42 36 39 42 37 39 44 38 40 44 38 40 44 
39 41 45 39 41 45 39 41 45 39 41 45 39 41 45 39 41 45 38 40 44 37 39 43 
38 40 44 38 38 46 38 38 46 36 39 46 36 39 46 36 39 46 36 39 46 36 39 46 
36 39 46 36 39 46 38 40 45 38 40 44 38 40 44 36 40 44 36 40 44 37 40 44 
39 41 45 39 41 45 38 40 44 37 39 43 37 39 43 37 40 44 37 40 45 37 40 44 
37 39 44 37 40 44 37 39 44 36 38 43 37 40 44 37 41 45 37 39 44 37 39 44 
37 40 44 37 39 44 37 39 44 37 40 44 38 40 44 38 40 44 38 39 43 37 39 43 
38 40 44 38 40 44 38 39 43 37 39 43 36 38 42 37 39 43 37 39 43 38 40 44 
38 40 44 38 40 44 38 40 44 38 40 44 39 40 44 39 40 44 38 40 44 38 40 44 
38 40 44 39 41 45 38 40 44 36 38 42 37 39 43 37 39 43 38 39 43 37 39 43 
38 38 46 38 38 49 38 36 49 37 37 44 37 38 42 37 38 42 37 38 42 37 39 43 
38 40 44 38 40 44 38 40 44 38 40 44 39 41 45 37 39 43 37 39 43 37 39 43 
38 39 43 38 40 44 38 41 45 37 40 44 36 39 44 35 39 45 35 39 45 35 39 45 
37 38 43 38 36 46 38 36 46 38 36 46 38 38 46 37 38 43 38 39 43 38 40 44 
36 39 42 34 38 43 34 38 43 34 38 43 34 38 43 35 39 44 37 39 43 37 39 44 
37 39 44 37 39 44 37 39 44 36 39 44 35 39 44 35 39 44 36 39 44 38 41 44 
39 41 45 38 41 45 38 41 45 37 40 44 36 39 45 35 38 44 35 38 44 37 38 43 
37 39 42 38 40 44 38 40 44 38 40 44 38 40 44 37 39 43 38 40 44 37 40 44 
36 38 43 36 39 44 37 39 44 37 39 43 37 39 43 37 39 43 38 39 43 38 40 44 
39 41 45 39 41 45 38 40 44 38 39 43 38 39 43 38 40 44 39 40 44 38 39 43 
37 38 42 36 38 43 36 39 42 37 40 44 38 40 44 38 39 43 38 40 44 37 39 43 
38 40 44 38 40 44 37 40 44 37 39 44 36 39 44 35 40 45 35 39 44 35 39 45 
35 39 44 34 38 43 35 39 43 36 38 42 36 38 42 36 38 42 38 39 43 38 39 43 
38 39 43 37 37 44 38 36 46 35 36 48 38 38 46 38 39 44 38 38 46 38 38 46 
38 38 46 36 39 46 36 39 46 36 39 46 38 40 44 38 40 44 38 40 44 38 40 44 
37 39 43 38 40 44 38 39 43 37 39 43 38 40 44 38 39 43 36 37 41 35 38 42 
35 38 42 33 37 42 36 37 41 36 37 41 37 38 43 37 37 44 37 37 44 37 37 44 
35 39 45 35 39 45 34 38 44 35 38 43 35 38 43 35 38 43 35 39 44 35 38 43 
38 40 45 39 40 44 38 39 43 38 39 43 37 39 43 36 37 41 36 37 41 36 37 41 
36 37 41 36 37 41 36 37 41 36 37 41 36 39 42 35 38 43 35 38 42 37 38 42 
37 38 42 37 38 42 38 40 44 39 41 45 39 41 45 39 41 45 39 41 45 39 41 45 
39 41 45 39 40 44 39 41 45 39 41 45 38 40 44 38 40 45 37 41 46 36 40 46 
36 40 46 36 40 46 36 40 46 37 41 46 37 41 46 36 40 46 36 40 46 36 40 45 
36 40 45 35 39 45 36 40 46 36 40 46 36 40 45 36 40 45 36 40 46 36 40 46 
36 40 46 37 40 46 38 41 45 38 41 46 39 41 45 39 41 45 39 41 45 38 41 45 
38 40 45 37 39 44 36 38 43 36 38 43 36 38 43 35 40 47 38 40 49 35 40 47 
35 39 44 35 39 44 35 39 44 35 39 44 35 39 44 36 39 45 38 40 45 37 40 45 
37 41 46 37 41 46 37 40 45 37 41 45 
34 38 43 34 38 43 35 39 44 35 39 44 35 39 44 36 40 45 38 41 45 39 41 45 
39 41 45 39 41 45 39 41 45 39 41 45 39 41 45 39 41 45 39 41 45 38 40 44 
39 41 45 39 40 44 39 40 44 38 40 45 36 39 44 35 39 44 36 39 44 37 40 45 
38 40 45 38 39 44 38 39 43 39 40 44 37 39 43 38 40 44 38 40 44 38 40 44 
38 40 44 38 40 44 38 40 44 38 40 44 39 40 44 37 40 44 35 39 45 35 39 44 
35 39 44 36 40 45 36 39 44 34 38 43 36 39 45 36 40 46 35 40 45 35 39 45 
36 39 44 35 39 44 35 39 44 36 39 44 38 40 44 38 40 44 37 39 43 37 38 42 
38 40 44 37 39 43 37 38 42 37 38 42 36 37 41 37 39 43 37 38 42 37 38 42 
38 40 44 38 40 44 38 40 44 39 41 45 39 41 45 39 41 45 38 40 44 38 40 44 
38 40 44 38 40 44 38 40 44 37 39 43 38 39 43 38 40 44 38 39 43 37 38 42 
38 38 46 38 38 49 38 36 49 37 37 44 37 38 42 38 39 43 37 39 43 38 39 43 
39 40 44 37 39 43 37 38 42 37 39 43 38 40 44 38 39 43 37 38 42 37 38 42 
38 39 43 38 40 45 36 40 45 35 38 44 34 38 43 33 37 43 34 38 43 36 39 46 
38 36 49 38 36 49 38 36 49 38 36 49 38 36 49 37 39 44 38 40 44 38 40 44 
36 39 44 35 39 44 34 38 43 34 38 43 34 38 43 34 38 43 35 38 43 35 39 44 
35 39 44 35 39 44 35 39 44 35 39 44 35 39 44 35 39 45 35 39 43 38 39 43 
39 40 44 37 40 45 35 39 44 35 38 44 36 39 46 38 38 49 38 36 49 37 38 43 
37 39 42 38 40 44 39 41 45 39 41 45 38 40 44 38 40 44 39 41 45 37 39 43 
36 37 41 37 38 42 37 38 42 37 38 42 37 38 42 37 38 42 37 38 42 38 39 43 
38 40 44 39 41 45 39 41 45 37 39 43 37 38 42 39 40 44 39 41 45 38 39 43 
36 37 41 35 38 43 34 39 43 34 38 43 36 38 42 38 40 44 38 40 44 37 38 42 
38 39 43 37 40 44 36 39 44 35 39 44 35 39 44 35 39 44 35 39 44 35 39 44 
35 39 44 33 37 42 34 38 43 33 37 42 34 38 43 35 37 41 38 39 43 37 38 42 
38 39 43 37 38 43 36 37 42 36 37 42 37 38 43 38 39 44 37 39 42 37 39 42 
38 40 44 38 40 44 38 40 45 38 40 44 37 38 42 37 38 42 38 40 44 38 40 44 
38 40 44 38 40 44 38 40 44 38 40 44 39 41 45 38 40 44 38 39 43 37 38 42 
37 38 42 36 37 41 37 38 42 37 38 42 37 38 42 36 37 41 37 38 42 36 38 42 
35 38 43 34 38 44 36 39 44 37 40 44 38 40 44 38 39 44 38 40 44 38 39 44 
39 41 45 38 40 44 38 39 43 38 39 43 38 40 44 37 38 42 37 38 42 36 37 41 
36 37 41 36 37 41 36 38 42 37 39 43 37 39 43 36 38 42 36 37 41 36 37 41 
36 37 41 37 39 43 38 40 44 39 40 44 39 41 45 39 41 45 39 41 45 39 41 45 
39 40 44 38 40 44 38 40 44 39 41 45 38 40 44 37 39 44 36 40 46 36 40 46 
36 40 46 36 40 46 36 40 46 36 40 46 36 40 46 36 40 46 36 40 46 36 40 46 
36 40 45 35 39 45 36 40 46 36 40 46 36 40 46 36 40 46 36 40 46 36 40 46 
36 40 46 36 40 46 36 40 46 36 40 46 38 41 45 39 41 45 39 41 45 37 40 45 
36 40 46 37 40 46 35 38 48 35 38 48 36 39 46 35 40 47 35 40 47 36 40 46 
35 39 44 36 40 45 36 40 45 35 39 45 35 39 44 37 40 44 39 41 45 39 41 45 
39 41 45 39 41 45 38 41 45 39 41 45 
35 39 44 35 39 44 35 39 44 35 39 44 35 39 44 36 40 45 38 41 45 39 41 45 
39 41 45 39 41 45 38 40 44 38 40 44 39 41 45 39 41 45 39 41 45 39 41 45 
39 41 45 39 41 45 39 41 45 38 41 45 37 40 45 36 40 46 36 39 45 38 40 45 
39 41 45 39 41 45 39 41 45 39 41 45 39 41 45 39 41 45 38 40 44 38 39 43 
38 39 43 38 40 44 38 40 44 38 40 44 39 41 45 37 40 45 34 39 43 35 39 45 
35 39 45 35 39 45 35 39 45 34 38 44 36 40 46 36 40 46 35 39 44 35 39 44 
35 39 44 35 39 44 35 39 44 36 39 42 38 40 44 38 39 43 37 38 42 37 38 42 
37 38 42 37 38 42 37 38 42 37 38 42 37 38 42 37 38 42 37 38 42 36 37 41 
37 39 43 38 40 44 38 40 44 39 41 45 39 41 45 38 40 44 38 40 44 38 40 44 
39 40 44 37 39 43 38 39 43 37 39 43 37 39 43 37 39 43 37 38 42 37 38 42 
37 38 43 38 36 49 38 38 49 37 37 44 37 38 42 38 39 43 37 38 42 38 39 43 
38 40 44 38 40 44 38 39 43 37 39 43 38 39 43 38 39 43 37 38 42 37 38 42 
38 39 43 37 39 43 36 39 44 34 38 43 33 37 42 34 38 43 34 38 43 35 38 44 
35 36 48 35 36 48 38 36 49 38 38 49 38 36 49 37 38 43 38 39 43 38 40 44 
36 40 44 35 39 44 34 38 43 35 39 44 35 39 44 35 39 44 34 38 43 35 39 44 
35 39 44 34 39 43 34 38 43 35 39 44 35 39 44 35 39 44 36 39 42 38 39 43 
38 39 43 36 38 43 34 38 43 35 39 44 38 38 46 38 38 49 38 36 49 37 37 44 
38 39 43 37 39 43 38 39 43 38 40 44 39 40 44 38 40 44 38 40 44 37 39 43 
36 38 42 36 37 41 36 37 41 37 38 42 37 38 42 37 38 42 37 38 42 38 39 43 
38 40 44 39 41 45 39 41 45 38 40 44 37 38 42 38 40 44 38 39 43 37 38 42 
37 38 42 35 39 43 35 39 44 33 37 42 36 38 42 38 39 43 37 38 42 37 38 42 
37 39 43 37 40 44 36 39 44 35 39 44 35 39 44 35 39 44 35 39 44 35 39 44 
35 39 44 35 39 45 35 38 44 33 37 42 34 38 43 35 38 42 37 38 42 37 38 42 
38 39 43 36 37 41 36 37 41 37 39 42 37 38 42 37 38 42 37 39 42 38 39 43 
38 40 44 39 40 44 39 40 44 38 39 43 37 39 43 36 37 41 37 39 43 38 40 44 
39 41 45 39 41 45 39 41 45 39 40 44 39 41 45 38 40 44 38 39 43 37 38 42 
37 38 42 36 37 41 37 38 42 37 39 43 38 39 43 37 38 42 39 40 44 37 40 44 
35 39 44 35 39 45 36 40 45 38 40 44 38 39 43 38 39 43 38 39 43 39 40 44 
39 41 45 38 40 44 38 40 44 38 40 44 38 40 44 38 39 43 37 38 42 37 38 42 
37 38 42 36 37 41 37 38 42 38 40 44 38 40 44 37 39 43 37 38 42 37 38 42 
38 39 43 38 39 43 38 39 43 39 41 45 39 41 45 38 40 44 39 41 45 39 41 45 
39 41 45 38 40 44 39 40 44 39 41 45 38 40 44 36 38 43 35 38 44 36 40 46 
36 40 46 36 40 46 36 40 46 36 40 46 36 40 46 36 40 46 36 40 46 36 40 46 
36 40 46 36 40 46 36 40 46 36 40 46 36 40 46 36 40 46 36 40 46 36 40 46 
36 40 46 36 40 46 36 40 46 36 40 46 38 40 45 39 41 45 39 41 45 37 40 45 
35 39 44 35 39 45 35 38 48 38 40 49 35 40 47 35 40 47 35 40 47 35 40 47 
36 40 46 36 40 46 37 40 46 37 41 46 37 40 46 37 40 45 39 41 45 39 41 45 
39 41 45 39 41 45 39 41 45 39 41 45 
35 39 44 35 39 44 35 39 44 35 39 44 35 39 44 36 40 44 38 41 45 39 41 45 
39 41 45 39 41 45 39 40 44 38 40 44 39 41 45 39 41 45 39 41 45 39 41 45 
38 40 44 37 40 44 37 40 44 37 40 44 37 40 45 38 41 46 37 40 45 38 40 45 
39 41 45 39 41 45 39 41 45 39 41 45 39 41 45 39 41 45 39 40 44 39 40 44 
39 41 45 39 41 45 39 41 45 38 40 44 39 41 45 38 40 45 37 40 45 37 40 46 
36 40 45 34 38 43 35 39 45 36 40 45 36 40 45 36 40 45 35 39 44 36 40 44 
36 40 44 35 39 45 35 39 44 34 38 43 36 39 42 36 39 42 36 38 43 37 38 42 
37 38 42 36 38 43 36 38 43 35 38 42 36 37 42 36 37 41 38 39 43 37 39 43 
37 39 43 38 39 43 38 40 44 38 40 44 38 40 44 38 39 43 38 40 44 38 40 45 
37 40 45 36 38 42 36 38 43 36 37 41 37 38 42 37 38 42 36 37 41 37 38 43 
37 38 43 38 38 46 38 38 46 36 38 43 36 39 42 36 38 42 35 37 41 36 39 42 
36 39 44 38 41 46 36 39 44 37 40 44 36 38 43 36 38 42 36 38 42 36 39 42 
36 38 43 35 38 43 35 38 43 34 38 43 35 39 44 34 38 44 34 38 44 34 38 43 
34 38 44 35 38 44 36 39 45 36 39 46 38 38 46 36 38 43 36 39 42 37 40 44 
36 39 44 34 38 43 34 38 44 35 39 44 34 38 43 34 38 43 34 38 43 34 38 44 
34 38 43 35 38 42 36 38 43 36 39 44 36 38 43 36 38 43 37 39 44 38 40 44 
38 39 43 36 39 42 35 39 44 35 39 43 35 38 44 36 39 46 35 36 45 36 37 42 
38 39 43 37 38 42 37 39 43 38 40 44 38 39 43 37 38 42 37 38 42 38 39 43 
37 39 43 36 37 41 35 37 41 36 38 43 35 38 42 36 38 42 36 37 41 38 40 44 
39 41 45 39 41 45 38 40 44 38 40 44 38 40 44 38 40 44 37 39 43 36 37 42 
36 39 42 36 39 44 35 39 45 34 38 43 37 40 44 38 40 44 37 39 43 38 40 44 
37 39 43 37 39 44 35 38 43 34 38 43 35 39 44 35 39 44 35 39 44 35 39 44 
35 39 45 35 39 44 33 37 43 34 38 43 34 38 43 35 39 43 37 39 43 35 38 43 
36 38 42 37 39 43 37 39 43 38 39 43 37 39 43 36 38 42 37 39 43 38 40 44 
38 40 44 38 39 43 38 39 43 38 40 44 37 39 43 38 40 44 38 40 44 38 40 44 
38 40 44 39 41 45 39 41 45 38 40 44 38 39 43 37 39 43 37 38 42 37 38 42 
37 39 43 36 37 41 36 37 41 38 40 44 39 40 44 38 40 44 39 40 44 38 40 44 
37 39 44 37 40 45 37 40 45 38 40 44 37 39 43 38 39 43 39 40 44 38 39 43 
38 40 44 37 39 43 38 40 44 39 41 45 38 40 44 37 39 43 37 38 43 36 39 44 
36 38 43 36 38 42 36 38 43 37 39 44 38 41 45 38 40 44 38 40 44 39 40 44 
39 41 45 39 41 45 38 40 44 38 40 44 38 40 44 38 40 44 38 40 44 39 41 45 
39 41 45 39 41 45 39 41 45 39 41 45 38 40 44 38 40 44 37 40 46 38 41 45 
37 40 46 36 40 46 36 40 46 36 40 46 36 40 45 36 40 45 36 40 45 36 40 45 
37 40 45 37 41 46 36 40 46 36 40 46 36 40 46 36 40 46 36 40 46 36 40 46 
36 40 46 36 40 46 36 40 46 36 40 46 38 40 45 38 41 45 37 40 45 36 39 45 
35 40 45 36 40 46 36 40 46 36 40 46 36 40 46 35 39 45 35 39 45 35 39 45 
36 40 45 35 39 45 36 40 46 37 41 46 37 41 46 37 40 45 39 41 45 39 41 45 
39 41 45 39 41 45 39 41 45 39 41 45 
36 40 45 36 40 45 35 39 44 35 39 44 35 39 44 36 40 44 38 41 45 39 41 45 
39 41 45 39 41 45 39 41 45 39 41 45 39 41 45 39 41 45 39 41 45 39 41 45 
39 41 45 37 40 45 37 40 46 37 40 46 38 41 46 39 41 45 38 41 45 39 41 45 
39 41 45 38 40 44 39 40 44 39 41 45 38 40 44 39 41 45 39 41 45 39 40 44 
38 40 44 39 41 45 38 40 44 38 40 44 39 41 45 39 41 45 39 41 45 39 41 45 
37 40 45 36 39 45 35 39 44 35 39 43 36 40 42 36 40 44 36 40 44 36 40 44 
36 40 44 36 40 46 36 40 45 35 39 44 34 38 43 34 38 43 35 37 41 36 37 41 
37 38 42 35 38 43 34 38 43 34 38 43 36 38 43 37 39 43 38 40 44 38 40 44 
38 40 44 38 40 44 38 40 44 38 40 44 38 40 44 38 40 44 38 40 44 38 40 45 
36 40 45 34 38 44 34 38 43 37 39 43 38 40 44 38 40 44 37 39 43 38 40 44 
38 40 44 38 39 43 37 39 43 36 39 42 35 38 44 34 38 43 34 38 43 35 39 44 
35 39 44 36 40 46 35 39 44 35 39 44 35 39 44 34 38 43 34 38 43 34 38 43 
34 38 43 35 39 44 34 38 44 34 38 43 34 38 43 34 38 44 34 38 43 34 38 43 
33 38 43 33 37 42 35 39 44 35 39 44 35 39 44 35 39 44 35 38 43 35 39 44 
35 39 44 34 38 43 34 38 43 34 38 43 34 38 43 34 38 43 34 38 43 34 38 43 
34 38 43 37 38 42 37 39 42 38 39 43 37 38 42 37 38 42 37 39 43 38 39 43 
38 39 43 37 39 44 35 39 44 35 39 44 35 39 44 34 38 43 34 38 43 36 38 42 
37 38 43 36 38 42 38 39 43 38 40 44 38 40 44 37 39 43 37 38 42 37 38 42 
37 38 42 37 38 42 35 37 41 35 39 44 34 38 43 35 39 43 37 39 43 39 41 45 
39 41 45 39 41 45 39 41 45 39 41 45 38 40 44 38 40 44 36 39 42 35 38 43 
34 38 43 34 38 43 35 39 43 34 38 43 38 40 44 38 39 43 38 40 44 39 41 45 
38 39 43 37 40 44 36 39 45 35 39 45 35 39 45 35 39 44 35 39 44 35 39 44 
35 39 44 34 38 43 34 38 43 33 38 43 33 37 42 33 37 42 34 38 43 34 38 43 
36 38 43 37 38 42 37 38 42 37 38 42 37 39 43 38 40 44 38 40 44 38 40 44 
38 40 44 38 40 44 38 41 45 37 39 43 37 38 42 37 39 43 38 40 44 37 39 43 
38 40 44 39 41 45 39 41 45 38 40 44 38 40 44 38 39 43 37 38 42 37 39 43 
37 38 42 36 37 41 36 38 42 39 41 45 38 39 43 38 40 44 38 40 44 38 39 43 
38 39 43 38 40 44 38 40 44 38 40 44 37 39 43 36 38 42 38 40 44 38 40 44 
38 40 44 38 39 43 39 41 45 39 41 45 39 41 45 38 40 44 36 39 44 34 38 43 
34 38 43 34 38 43 34 38 43 35 39 44 37 39 43 38 40 44 38 40 44 37 38 42 
38 39 43 38 40 44 39 41 45 39 41 45 38 40 44 38 40 44 38 40 44 39 41 45 
39 41 45 39 41 45 39 41 45 39 41 45 39 41 45 39 41 45 39 41 45 39 41 45 
37 40 46 36 40 46 36 40 46 36 40 45 36 40 44 36 40 44 36 40 44 36 40 44 
36 40 45 36 40 45 36 40 46 36 40 46 36 40 46 36 40 46 36 40 46 36 40 46 
36 40 46 36 40 46 36 40 46 36 40 46 36 40 46 36 40 45 35 39 44 36 40 45 
36 40 46 36 40 46 36 40 46 36 40 46 36 40 46 35 39 45 35 39 44 35 39 44 
35 39 44 35 39 45 36 40 46 36 40 46 36 40 46 37 41 45 39 41 45 39 41 45 
39 41 45 39 41 45 39 41 45 39 41 45 
35 39 44 35 39 44 35 39 44 35 39 44 35 39 44 36 40 44 38 41 45 39 41 45 
39 41 45 39 41 45 39 41 45 39 41 45 39 41 45 39 41 45 39 41 45 39 41 45 
39 41 45 38 41 46 38 41 47 38 41 47 39 41 46 39 41 45 38 40 44 39 41 45 
39 41 45 38 40 44 37 39 43 39 40 44 38 40 44 38 40 44 38 40 44 39 41 45 
38 40 44 38 40 44 38 40 44 39 41 45 39 41 45 39 41 45 39 41 45 39 41 45 
37 40 46 37 40 46 37 40 46 36 40 44 36 40 44 36 40 44 36 40 44 36 40 44 
36 40 44 36 40 45 36 40 45 35 40 45 35 39 44 34 38 43 35 37 41 36 38 42 
37 38 42 35 38 42 34 38 43 35 39 44 37 40 44 38 40 44 38 40 44 38 40 44 
38 40 44 38 40 44 38 40 44 38 40 44 38 40 44 38 40 44 38 40 44 37 40 44 
35 39 44 34 39 43 35 39 43 38 39 43 39 42 45 37 39 43 36 37 41 37 38 42 
37 38 42 38 39 42 38 38 41 35 38 42 34 38 43 34 38 43 34 38 43 36 40 45 
36 40 46 36 40 46 35 40 45 34 38 43 34 38 43 34 38 43 35 39 44 34 38 43 
34 38 43 34 38 43 34 38 43 34 38 43 34 38 43 35 39 44 34 38 43 35 39 44 
34 38 44 34 38 43 35 39 44 35 39 44 35 39 44 35 39 44 35 39 44 35 39 44 
35 39 44 34 38 43 33 37 42 34 38 43 33 37 42 34 38 44 34 39 43 34 38 43 
34 38 43 37 38 42 37 38 42 37 38 42 37 38 42 37 38 42 37 38 42 37 38 42 
37 39 42 36 39 42 35 39 44 36 39 45 36 40 45 34 38 43 34 38 43 37 40 44 
38 40 44 37 38 42 38 40 44 38 40 44 38 40 44 38 40 44 37 39 43 37 38 42 
37 38 42 36 37 41 37 38 42 35 39 44 35 39 44 36 39 44 38 39 43 39 41 45 
39 41 45 39 41 45 39 41 45 39 41 45 39 41 45 39 41 45 37 40 44 35 39 44 
35 39 44 36 40 45 36 40 46 36 40 46 38 40 44 38 39 43 38 40 44 38 40 44 
38 40 44 38 40 44 37 40 45 36 40 46 35 39 45 35 39 44 35 39 45 34 39 43 
34 39 43 34 38 44 34 38 43 33 37 42 33 37 42 34 38 43 34 38 43 34 38 43 
36 38 43 37 38 42 37 38 42 37 38 42 38 39 43 37 38 42 38 39 43 38 40 44 
38 40 44 38 40 44 38 41 45 37 39 43 37 38 42 36 37 41 36 37 41 36 37 41 
37 38 42 37 39 43 37 38 42 36 37 41 37 38 42 36 38 42 37 38 42 38 40 44 
38 40 44 38 40 44 38 40 44 38 40 44 38 40 44 39 41 45 39 41 45 38 40 44 
38 40 44 38 40 44 39 40 44 38 40 44 38 40 44 37 39 43 38 40 44 38 40 44 
38 40 44 38 40 44 39 41 45 39 41 45 38 40 44 39 41 45 37 40 45 35 39 44 
34 38 43 34 39 43 35 39 44 34 38 43 36 38 42 38 39 43 38 40 44 38 40 44 
39 41 45 39 41 45 39 41 45 39 41 45 39 41 45 39 41 45 39 41 45 39 41 45 
39 41 45 39 41 45 39 41 45 39 41 45 39 41 45 39 41 45 39 41 45 39 41 45 
37 40 46 36 40 46 36 40 46 36 40 45 36 40 44 36 40 44 36 40 44 36 40 44 
36 40 45 36 40 46 36 40 46 36 40 46 36 40 46 36 40 46 36 40 46 36 40 46 
36 40 46 36 40 46 36 40 45 37 40 46 36 40 45 35 39 44 35 39 44 36 40 45 
36 40 46 36 40 46 36 40 46 36 40 46 36 40 46 36 40 46 36 40 46 36 40 46 
35 39 44 35 39 45 36 40 45 35 39 44 36 40 45 37 41 45 39 41 45 39 41 45 
39 41 45 39 41 45 39 41 45 39 41 45 
36 39 44 36 39 44 36 39 44 37 40 44 36 38 43 37 39 44 39 41 45 39 41 45 
39 41 45 39 41 45 39 41 45 39 41 45 39 41 45 39 41 45 39 41 45 39 41 45 
39 41 45 38 41 46 38 41 46 38 41 46 39 41 46 39 41 45 39 41 45 39 41 45 
39 41 45 38 40 44 37 38 42 38 39 43 40 42 46 38 40 44 37 38 42 38 40 44 
39 41 45 39 41 45 39 41 45 39 41 45 39 41 45 39 41 45 39 41 45 39 41 45 
38 40 45 36 40 45 36 40 44 37 40 44 37 40 44 37 40 44 37 40 44 37 40 44 
37 40 44 36 39 42 36 39 42 37 40 44 37 40 44 36 39 44 37 39 43 37 39 43 
37 39 43 37 39 43 35 39 44 36 39 44 37 40 44 38 39 43 38 40 44 38 40 44 
37 40 44 37 40 44 37 40 44 37 40 44 37 40 44 37 40 44 37 40 45 37 40 45 
35 39 44 35 39 44 35 39 43 38 39 43 39 41 45 37 39 43 34 36 41 35 37 41 
35 37 41 36 38 43 35 38 43 33 37 42 35 39 44 35 39 44 36 40 45 37 40 45 
37 40 45 37 40 45 37 40 45 36 39 44 35 39 43 35 39 44 35 39 44 35 39 44 
35 39 44 34 38 43 34 38 43 34 38 43 34 38 43 35 39 44 34 38 43 33 37 42 
34 38 43 35 39 44 34 38 43 34 38 43 35 39 44 35 39 44 35 39 44 35 39 44 
35 39 44 34 38 43 34 38 43 35 39 44 34 38 43 35 39 45 36 39 44 35 38 43 
35 38 43 37 38 42 37 39 43 37 39 43 36 38 43 36 38 43 36 38 43 36 38 43 
36 38 43 35 39 44 35 39 44 35 39 44 35 39 45 34 38 44 34 38 44 36 39 44 
38 40 44 38 40 44 38 40 44 38 40 44 38 40 44 38 40 44 38 40 44 37 38 42 
37 39 43 37 38 42 38 39 43 36 39 44 36 39 42 37 40 45 38 39 43 38 40 44 
39 41 45 39 41 45 39 41 45 39 41 45 38 40 44 39 41 45 38 40 44 36 40 44 
36 39 44 37 40 45 37 40 45 37 40 45 38 40 44 38 39 43 38 40 44 38 40 44 
38 40 44 38 40 44 37 40 45 37 40 45 37 40 45 37 40 44 36 39 44 37 40 45 
37 40 45 37 41 46 36 40 45 33 37 42 33 38 43 35 39 44 36 39 44 36 39 42 
36 38 42 38 39 43 38 40 44 38 40 44 37 39 43 36 37 41 37 39 43 37 39 43 
38 40 44 38 40 44 38 40 44 37 38 42 37 38 42 36 37 41 36 37 41 36 37 41 
36 37 41 37 38 42 37 38 42 36 37 41 38 40 44 38 40 44 38 39 43 38 40 44 
38 40 44 38 40 44 39 41 45 39 41 45 39 41 45 39 41 45 38 40 44 39 41 45 
38 40 44 38 40 44 38 40 44 38 40 44 38 40 44 39 41 45 38 40 44 38 40 44 
38 40 44 39 41 45 39 41 45 39 41 45 38 40 44 38 40 44 39 40 44 38 41 45 
37 40 45 37 40 44 37 39 44 36 40 44 37 40 44 36 39 44 38 41 45 39 41 45 
39 41 45 39 41 45 39 41 45 39 41 45 39 41 45 39 41 45 39 41 45 38 41 45 
38 41 45 38 41 45 39 41 45 39 41 45 39 41 45 39 41 45 38 41 45 39 41 46 
37 40 46 36 40 46 37 41 46 37 41 46 37 41 45 37 40 44 36 40 45 36 40 45 
37 40 45 37 40 46 37 40 46 37 40 46 36 40 46 36 40 46 36 40 46 36 40 45 
37 41 45 36 40 44 34 38 43 36 39 45 36 40 46 36 40 46 36 40 46 36 40 46 
36 40 46 36 40 46 36 40 46 36 40 46 36 40 46 36 40 45 36 40 46 36 40 46 
35 39 44 35 39 45 36 40 46 35 39 45 36 40 46 37 41 45 39 41 45 39 41 45 
39 41 45 39 41 45 39 41 45 39 41 45 
37 38 42 37 39 43 38 40 44 38 40 44 38 40 44 38 40 44 38 40 44 39 41 45 
39 41 45 39 41 45 39 41 45 39 41 45 39 41 45 39 41 45 39 41 45 39 41 45 
39 41 45 39 41 45 39 41 45 39 41 45 39 41 45 39 41 45 39 41 45 39 41 45 
39 41 45 39 41 45 38 40 44 38 39 43 38 40 44 39 41 45 39 41 45 39 41 45 
39 41 45 39 41 45 39 41 45 39 41 45 39 41 45 39 41 45 39 41 45 39 41 45 
38 40 44 38 40 44 38 40 44 38 40 44 38 40 44 38 40 44 39 40 44 39 40 44 
38 40 44 38 40 44 38 40 44 38 40 44 39 40 44 38 40 44 38 40 44 37 38 42 
36 37 41 37 38 42 37 39 43 38 40 44 38 40 44 37 38 42 38 40 44 37 40 44 
35 39 44 35 39 44 35 39 44 35 39 44 35 39 44 35 39 44 36 40 45 36 40 46 
35 39 44 36 40 45 36 40 45 38 40 44 39 40 44 38 41 45 34 39 43 34 38 43 
34 38 43 34 39 43 34 39 43 35 39 44 35 39 45 35 39 44 37 40 44 38 40 44 
38 40 44 38 40 44 38 40 44 38 40 44 36 39 44 35 39 44 35 39 44 35 39 44 
36 39 45 35 39 45 35 39 44 34 38 43 34 38 43 34 38 43 34 38 43 34 38 43 
34 38 43 34 38 43 34 38 43 34 38 43 35 39 44 36 40 45 35 39 44 35 39 44 
35 39 45 35 39 45 35 39 44 35 39 44 36 40 45 36 40 45 39 40 44 39 40 44 
39 40 44 38 40 44 39 40 44 37 40 44 35 39 44 35 39 44 35 39 44 35 39 44 
35 39 45 35 39 44 34 38 44 34 38 44 35 39 44 35 39 44 35 39 45 35 37 41 
38 39 43 38 40 44 38 40 44 38 40 44 39 41 45 39 41 45 38 40 44 38 39 43 
38 40 44 38 40 44 38 40 44 38 40 44 37 39 43 39 41 45 38 40 44 39 41 45 
39 41 45 38 40 44 38 39 43 38 39 43 37 38 42 37 38 42 37 38 42 37 38 42 
38 40 44 38 39 43 38 40 44 38 40 44 38 40 44 38 39 43 38 40 44 38 40 44 
38 40 44 38 40 44 38 40 44 39 41 45 39 41 45 39 41 45 38 40 44 38 40 44 
38 40 44 39 41 45 37 40 45 35 39 45 35 39 45 37 40 45 38 40 44 38 40 44 
38 40 44 38 40 44 38 40 44 38 40 44 37 39 43 37 38 42 37 38 42 36 37 41 
38 39 43 38 39 43 38 40 44 38 39 43 37 38 42 37 38 42 37 38 42 36 37 41 
36 37 41 36 37 41 37 38 42 37 38 42 37 39 43 38 39 43 37 38 42 37 38 42 
37 38 42 38 40 44 39 41 45 38 40 44 37 38 42 39 41 45 38 40 44 38 39 43 
38 39 43 38 40 44 38 40 44 39 41 45 39 41 45 39 41 45 39 41 45 38 40 44 
38 40 44 39 41 45 39 41 45 39 41 45 39 41 45 39 41 45 39 40 44 39 40 44 
39 41 45 39 41 45 39 41 45 38 41 45 35 39 44 33 37 43 36 40 45 39 41 45 
39 41 45 39 41 45 39 41 45 39 41 45 39 41 45 39 41 45 38 40 44 37 40 44 
35 39 45 36 40 46 37 41 45 39 41 45 39 41 45 38 41 46 35 40 45 36 40 46 
35 39 45 35 39 44 36 40 45 38 41 45 39 41 45 38 40 45 35 39 44 34 39 43 
37 40 45 39 41 45 39 41 45 38 41 45 36 40 46 36 40 46 36 40 45 36 40 44 
36 40 44 35 39 44 34 38 43 35 39 45 36 40 46 36 40 46 36 40 46 36 40 46 
36 40 46 36 40 46 36 40 46 36 40 46 37 40 46 35 39 44 35 39 45 36 40 45 
35 39 44 35 39 45 36 40 46 36 40 46 36 40 46 37 41 45 39 41 45 39 41 45 
39 41 45 39 41 45 39 41 45 39 41 45 
37 38 42 38 40 44 38 40 44 37 39 43 38 40 44 39 40 44 38 40 44 39 41 45 
39 41 45 39 41 45 39 41 45 39 41 45 39 41 45 39 41 45 39 41 45 39 41 45 
39 41 45 39 41 45 39 41 45 39 41 45 39 41 45 39 41 45 39 41 45 39 41 45 
39 41 45 39 41 45 39 41 45 39 41 45 39 41 45 39 41 45 39 41 45 39 41 45 
39 41 45 39 41 45 39 41 45 39 41 45 38 40 44 39 41 45 39 41 45 39 41 45 
39 41 45 37 39 43 38 40 44 38 41 45 39 41 45 38 40 44 38 40 44 38 40 44 
38 40 44 38 40 44 38 40 44 38 40 44 38 40 44 38 40 44 38 40 44 37 39 43 
37 38 42 36 37 41 38 39 43 39 40 44 38 39 43 37 38 42 38 40 44 37 40 44 
35 39 44 35 39 44 35 39 44 35 39 44 35 39 44 35 39 44 35 39 44 35 39 44 
35 39 44 35 39 44 36 39 44 38 40 44 38 40 44 37 40 44 35 39 44 35 39 44 
35 39 44 35 39 44 35 39 44 35 39 44 35 39 44 35 39 44 37 40 44 39 41 45 
38 40 44 38 40 44 38 40 44 38 40 44 36 39 44 35 39 44 35 39 44 35 39 44 
35 39 44 35 39 44 35 39 44 35 39 44 34 38 43 35 39 44 34 38 43 34 38 43 
34 38 43 34 38 43 34 38 43 34 38 43 35 39 44 36 39 45 35 39 44 35 39 45 
36 40 45 35 39 45 35 39 44 35 39 44 35 39 44 35 39 44 38 40 44 38 40 44 
38 40 44 38 40 44 38 40 44 37 39 43 35 39 44 35 39 44 35 39 44 35 39 44 
35 39 44 35 39 44 35 39 44 34 38 44 34 38 43 34 38 43 35 39 44 37 40 44 
38 40 44 38 40 44 38 40 44 38 40 44 39 40 44 38 40 44 38 40 44 38 40 44 
38 40 44 38 40 44 38 40 44 38 40 44 39 41 45 37 39 43 38 40 44 39 41 45 
39 41 45 39 41 45 37 39 43 37 38 42 36 38 42 35 36 40 35 36 40 36 37 41 
37 39 43 38 40 44 38 39 43 38 40 44 38 40 44 38 40 44 39 41 45 38 40 44 
38 40 44 38 40 44 39 41 45 39 41 45 38 40 44 38 40 44 38 40 44 38 40 44 
38 40 44 38 40 44 36 39 44 35 39 45 35 39 44 37 40 45 38 40 44 38 39 43 
38 40 44 38 40 44 38 40 44 38 40 44 38 40 44 36 38 42 35 37 41 37 38 42 
38 39 43 37 39 43 38 40 44 38 40 44 37 38 42 38 39 43 37 38 42 36 37 41 
36 37 41 36 37 41 36 37 41 36 37 41 36 37 41 36 37 41 36 37 41 36 37 41 
36 37 41 37 39 43 38 40 44 38 40 44 37 38 42 38 40 44 39 41 45 39 40 44 
39 41 45 38 40 44 38 40 44 39 41 45 39 41 45 38 40 44 39 41 45 38 40 44 
38 40 44 39 41 45 39 41 45 39 41 45 39 41 45 39 41 45 39 41 45 39 41 45 
39 41 45 39 41 45 39 41 45 38 40 45 36 39 45 34 38 44 36 39 44 38 40 44 
38 40 44 39 41 45 39 41 45 39 41 45 39 41 45 39 41 45 39 41 45 38 40 45 
36 40 46 36 40 46 37 41 45 39 41 45 39 41 45 37 40 46 34 39 43 36 40 45 
34 39 43 33 37 42 33 37 43 36 39 42 37 38 42 36 38 42 35 38 43 34 38 43 
36 39 44 38 41 45 39 41 45 38 41 45 36 40 45 36 40 45 36 40 45 36 40 44 
35 39 43 34 38 43 35 39 44 35 39 44 35 39 44 35 39 44 34 38 44 35 39 45 
35 39 45 35 39 44 36 40 46 36 40 46 36 40 46 36 39 45 34 38 43 35 39 44 
36 40 46 36 40 46 36 40 46 36 40 46 36 40 46 37 41 45 39 41 45 39 41 45 
39 41 45 39 41 45 39 41 45 39 41 45 
37 38 42 38 41 45 38 39 43 37 39 43 38 40 44 39 41 45 38 40 44 39 41 45 
39 41 45 39 41 45 39 41 45 39 41 45 39 41 45 39 41 45 39 41 45 39 41 45 
39 41 45 39 41 45 39 41 45 39 41 45 39 41 45 39 41 45 39 41 45 39 41 45 
39 41 45 39 41 45 39 41 45 39 41 45 39 41 45 39 41 45 39 41 45 39 41 45 
39 41 45 39 41 45 39 41 45 39 41 45 39 41 45 39 41 45 38 40 44 38 40 44 
37 39 43 37 39 43 38 40 44 38 41 45 39 41 45 38 40 44 38 40 44 38 41 45 
38 41 45 38 40 44 38 40 44 39 41 45 38 40 44 37 38 42 38 39 43 38 39 43 
37 39 43 37 38 42 38 39 43 38 39 43 37 38 42 37 38 42 38 40 44 37 40 44 
35 39 44 35 39 44 35 39 44 35 39 44 35 39 44 35 39 44 35 39 44 35 39 44 
35 39 44 35 39 44 36 39 44 38 40 44 38 40 44 38 40 45 38 40 45 38 40 45 
37 40 44 35 39 44 35 39 44 35 39 44 35 39 44 35 39 44 36 40 44 37 40 45 
37 40 44 38 40 44 38 40 44 38 40 44 36 39 42 36 39 42 36 39 44 35 39 44 
35 39 44 35 39 44 35 39 44 35 39 44 34 38 43 35 39 44 35 39 44 35 39 44 
34 38 44 35 39 45 35 39 45 35 39 44 35 39 44 36 39 44 37 40 44 37 40 45 
36 40 45 36 39 45 35 39 44 35 39 44 35 39 44 35 39 44 38 40 44 38 39 43 
37 39 43 37 39 43 38 39 43 38 40 44 37 39 43 37 40 44 36 39 44 35 39 44 
35 39 44 35 39 44 35 39 44 35 39 45 36 39 44 37 39 44 37 40 44 37 40 44 
38 40 44 38 40 44 38 40 44 38 40 44 38 39 43 38 40 44 38 40 44 38 40 44 
38 40 44 38 40 44 38 40 44 38 40 44 38 40 44 38 40 44 38 40 44 39 41 45 
39 41 45 39 41 45 38 40 44 38 40 44 38 39 43 37 39 43 37 39 43 37 38 42 
36 38 42 38 39 43 39 41 45 38 40 44 38 40 44 38 40 44 39 41 45 38 40 44 
38 40 44 38 40 44 39 41 45 38 40 44 38 39 43 38 40 44 38 40 44 38 40 44 
38 40 44 38 40 44 37 39 44 37 39 44 37 39 44 38 40 45 39 40 44 38 40 44 
38 40 44 38 40 44 38 40 44 38 40 44 39 41 45 39 41 45 38 39 43 37 38 42 
37 39 43 37 39 43 38 40 44 38 40 44 37 38 42 36 38 42 37 39 43 36 38 42 
36 37 41 36 37 41 36 37 41 36 37 41 35 38 42 35 38 43 35 38 43 35 38 43 
36 38 43 35 38 43 37 40 45 37 41 45 37 40 45 38 41 45 39 41 45 39 41 45 
39 41 45 38 40 44 38 40 44 39 41 45 39 41 45 38 40 44 38 40 44 38 40 44 
39 41 45 39 41 45 39 41 45 39 41 45 38 40 44 39 41 45 39 41 45 38 40 44 
38 40 44 38 39 43 38 39 43 39 41 45 38 40 45 37 39 44 37 39 43 37 39 43 
38 40 44 39 41 45 39 41 45 39 41 45 39 41 45 39 41 45 39 41 45 38 41 46 
36 40 46 36 40 46 37 41 45 39 41 45 39 41 45 38 40 45 36 38 43 36 38 43 
36 39 45 35 36 45 35 36 45 35 37 41 36 37 41 37 38 42 36 38 43 36 38 43 
37 39 44 38 40 45 39 41 45 38 40 45 35 38 43 34 38 43 34 38 43 34 38 43 
34 38 41 35 39 43 37 39 44 37 39 44 36 39 44 36 39 44 37 39 44 36 40 45 
35 39 45 35 39 45 36 40 46 36 40 46 36 40 46 34 38 43 35 39 44 35 39 44 
36 40 46 36 40 46 36 40 46 36 40 46 36 40 46 37 41 45 39 41 45 39 41 45 
39 41 45 39 41 45 39 41 45 39 41 45 
38 39 43 38 41 45 38 40 44 38 40 44 39 41 45 39 41 45 39 41 45 39 41 45 
39 41 45 39 41 45 39 41 45 39 41 45 39 41 45 39 41 45 39 41 45 39 41 45 
39 41 45 39 41 45 39 41 45 39 41 45 39 41 45 39 41 45 39 41 45 39 41 45 
39 41 45 39 41 45 39 41 45 39 41 45 39 41 45 38 40 44 39 40 44 39 41 45 
39 41 45 39 41 45 39 41 45 39 41 45 39 41 45 39 41 45 38 40 44 38 40 44 
37 39 43 38 40 44 38 40 44 38 40 44 39 41 45 38 40 44 38 39 43 38 39 43 
38 39 43 38 40 44 39 41 45 39 41 45 38 40 44 37 39 43 38 39 43 38 40 44 
38 39 43 37 39 43 37 39 43 37 38 42 36 38 42 37 38 42 38 39 43 37 40 45 
35 39 44 35 39 44 35 39 44 35 39 44 35 39 44 35 39 44 35 39 44 35 39 44 
35 39 44 35 39 44 36 39 44 39 41 45 39 41 45 39 41 45 39 41 45 39 40 44 
37 40 44 35 39 44 35 39 44 35 39 44 35 39 44 35 39 44 35 39 44 35 39 44 
35 39 44 37 40 44 38 40 44 38 40 44 37 38 42 37 39 43 37 40 44 36 39 44 
35 39 44 35 39 44 35 39 44 35 39 44 35 39 44 35 39 45 36 40 45 36 40 45 
35 39 44 35 39 44 35 39 44 35 39 44 35 38 44 37 40 45 39 41 45 39 41 45 
37 41 46 36 39 45 35 39 44 35 39 44 35 39 44 35 39 44 37 40 44 39 40 44 
38 40 44 38 40 44 38 40 44 38 40 44 38 40 44 38 40 44 37 40 44 35 39 45 
36 40 45 36 40 45 35 39 45 35 39 45 38 40 45 39 41 45 37 39 43 38 40 44 
38 40 44 39 41 45 39 41 45 38 40 44 38 40 44 39 40 44 39 41 45 39 41 45 
39 41 45 38 40 44 38 39 43 38 40 44 39 41 45 39 41 45 39 41 45 39 41 45 
39 41 45 39 41 45 39 41 45 39 41 45 39 41 45 39 40 44 38 40 44 38 40 44 
38 39 43 38 40 44 39 40 44 38 40 44 39 41 45 39 41 45 39 41 45 38 40 44 
38 40 44 38 40 44 39 41 45 39 40 44 38 40 44 39 41 45 39 41 45 39 41 45 
38 40 44 38 40 44 38 40 44 38 40 44 38 40 44 38 40 44 38 39 43 39 41 45 
39 41 45 38 40 44 38 40 44 38 40 44 38 40 44 39 41 45 38 40 44 38 39 43 
37 38 42 38 39 43 38 40 44 37 38 42 36 38 42 37 38 42 37 39 43 37 39 43 
37 39 43 37 38 42 37 38 42 37 39 43 36 39 44 35 39 45 36 40 45 35 39 45 
35 39 45 35 39 45 36 40 46 36 40 46 36 40 46 38 41 45 39 41 45 39 41 45 
39 41 45 39 40 44 38 40 44 39 41 45 39 41 45 39 41 45 39 41 45 39 41 45 
39 41 45 39 41 45 39 41 45 39 41 45 38 40 44 39 41 45 38 40 44 38 40 44 
38 40 44 37 39 43 37 39 43 38 40 44 39 41 45 39 40 44 38 40 44 38 40 44 
39 41 45 39 41 45 39 41 45 39 41 45 39 41 45 39 41 45 39 41 45 38 41 46 
36 40 46 36 40 46 37 41 45 39 41 45 39 41 45 39 40 44 38 40 44 39 40 44 
38 38 46 38 36 49 38 38 49 37 38 43 38 38 41 37 38 42 37 38 42 37 38 42 
37 39 43 37 38 42 38 40 44 38 40 45 35 39 44 34 38 43 35 39 44 34 38 43 
34 38 43 35 38 43 38 39 43 38 40 44 38 39 43 38 40 44 38 40 44 37 40 45 
36 40 46 36 40 46 36 40 46 36 40 46 36 40 45 35 39 44 36 39 45 35 39 45 
36 40 46 36 40 46 36 40 46 36 40 46 36 40 46 37 41 45 39 41 45 39 41 45 
39 41 45 39 41 45 39 41 45 38 41 45 
38 40 44 38 40 44 39 41 45 39 41 45 39 41 45 39 41 45 39 41 45 39 41 45 
39 41 45 39 41 45 39 41 45 39 41 45 39 41 45 39 41 45 39 41 45 39 41 45 
39 41 45 39 41 45 39 41 45 39 41 45 39 41 45 39 41 45 39 41 45 39 41 45 
39 41 45 39 41 45 39 41 45 39 41 45 39 41 45 39 41 45 39 41 45 39 41 45 
38 40 44 39 41 45 39 41 45 39 41 45 39 41 45 39 41 45 39 41 45 38 40 44 
38 40 44 38 40 44 39 40 44 39 41 45 39 40 44 38 40 44 37 38 42 37 38 42 
37 38 42 38 39 43 38 40 44 38 40 44 38 40 44 39 40 44 39 40 44 38 39 43 
37 38 42 38 40 44 38 40 44 38 40 44 37 39 43 37 38 42 36 38 42 37 39 44 
35 39 44 35 39 44 35 39 44 35 39 44 35 39 44 35 39 44 35 39 44 35 39 44 
35 39 44 35 39 44 36 39 44 38 40 44 38 40 44 38 40 44 38 40 44 38 40 44 
37 40 44 35 39 44 35 39 44 35 39 44 35 39 44 35 39 44 35 39 44 35 39 44 
35 39 44 37 40 44 38 40 44 38 40 44 38 40 44 38 40 44 37 40 44 36 39 44 
35 39 44 35 39 44 35 39 44 35 39 45 35 39 44 35 39 44 35 39 45 35 39 45 
35 39 44 34 38 43 34 38 43 35 39 44 35 39 44 37 40 45 39 41 45 38 41 45 
37 41 46 35 39 45 35 39 44 35 39 44 35 39 45 35 39 44 37 39 43 38 41 45 
38 41 45 39 41 45 39 41 45 38 40 44 38 40 44 37 40 44 36 40 44 35 39 45 
36 40 45 36 40 46 36 40 46 36 40 46 38 41 45 38 40 44 35 36 40 38 40 44 
39 41 45 38 40 44 38 40 44 38 40 44 38 40 44 38 40 44 38 40 44 39 41 45 
39 41 45 38 40 44 38 40 44 39 41 45 39 41 45 39 41 45 39 41 45 39 41 45 
39 41 45 39 41 45 39 41 45 39 41 45 39 41 45 39 41 45 38 40 44 38 40 44 
38 40 44 39 40 44 38 40 44 38 39 43 38 40 44 38 40 44 39 41 45 38 40 44 
38 40 44 38 40 44 38 40 44 38 40 44 38 40 44 39 40 44 39 41 45 39 41 45 
39 40 44 38 40 44 38 40 44 38 40 44 38 40 44 38 40 44 36 37 41 38 40 44 
39 41 45 38 40 44 38 40 44 38 40 44 38 40 44 38 39 43 38 40 44 38 39 43 
37 38 42 38 39 43 37 39 43 36 38 42 36 37 41 37 39 43 37 38 42 37 38 42 
38 40 44 38 40 44 38 39 43 38 39 43 37 40 45 36 40 46 36 40 46 36 40 46 
36 40 46 36 40 45 36 40 46 36 40 46 36 40 46 38 41 45 38 41 44 38 40 44 
38 40 45 38 40 44 38 40 44 39 40 44 39 41 45 39 41 45 39 41 45 39 41 45 
39 41 45 39 41 45 39 41 45 39 40 44 39 40 44 38 40 44 38 40 44 38 40 44 
38 40 44 38 40 44 38 40 44 38 40 44 38 40 44 39 41 45 39 41 45 38 40 44 
37 39 43 38 40 44 39 41 45 40 42 46 39 41 45 39 41 45 39 41 45 37 40 46 
36 40 46 36 40 46 37 41 45 38 41 45 39 41 45 39 41 45 39 41 45 39 41 45 
36 39 46 38 36 49 38 38 49 38 40 45 38 39 42 37 38 42 37 38 42 37 38 42 
37 38 42 37 38 42 38 40 44 37 40 44 35 39 44 34 38 44 36 40 46 36 40 46 
36 39 44 36 38 43 37 38 42 38 39 43 37 39 43 37 40 44 38 40 44 37 40 45 
36 40 46 36 40 46 36 40 46 36 40 45 35 39 44 35 39 45 35 39 45 36 40 45 
36 40 46 36 40 46 36 40 46 36 40 46 36 40 46 37 41 45 39 41 45 39 41 45 
39 41 45 39 41 45 39 41 45 37 40 44 
38 40 44 38 40 44 39 41 45 39 41 45 38 40 44 38 40 44 39 40 44 39 41 45 
39 41 45 39 41 45 39 41 45 39 41 45 39 41 45 39 41 45 39 41 45 39 41 45 
39 41 45 39 41 45 39 41 45 39 41 45 39 41 45 39 41 45 39 41 45 39 41 45 
38 40 44 38 40 44 37 39 43 38 40 44 38 40 44 38 40 44 38 40 44 39 41 45 
39 41 45 39 41 45 39 41 45 39 41 45 39 41 45 38 40 44 38 40 44 38 40 44 
38 40 44 38 39 43 38 39 43 38 40 44 38 40 44 38 40 44 38 39 43 37 39 43 
37 38 42 38 38 41 37 39 43 37 38 42 38 40 44 39 41 45 39 40 44 38 40 44 
37 39 43 38 40 44 38 40 44 38 39 43 38 40 44 37 38 42 36 38 42 37 39 43 
37 39 44 37 39 44 36 39 44 35 39 44 35 39 44 35 39 44 35 39 44 35 39 44 
37 39 44 36 39 44 36 39 42 37 38 42 37 38 42 37 38 42 37 38 42 37 38 42 
37 38 42 36 38 43 36 39 42 36 39 44 35 39 44 35 39 44 35 39 44 35 39 44 
35 39 44 37 40 44 38 39 43 38 40 44 38 41 45 38 40 44 37 40 44 36 39 44 
35 39 44 35 39 44 35 39 44 35 39 44 35 39 44 35 39 44 35 39 44 35 39 44 
35 39 44 34 38 43 34 38 43 35 39 44 35 39 44 36 40 45 37 40 45 37 41 45 
37 40 46 35 39 45 35 39 44 34 38 44 35 39 44 35 39 45 36 39 44 36 40 44 
36 40 44 39 41 45 39 41 45 38 40 44 36 40 44 36 40 44 36 39 44 35 39 44 
35 39 45 36 40 45 36 40 45 36 40 46 38 41 45 38 41 44 36 38 42 37 39 43 
37 39 43 37 39 43 37 39 43 38 39 43 37 39 43 38 40 44 39 41 45 39 41 45 
39 40 44 38 40 44 38 40 44 38 40 44 38 40 44 38 40 44 38 40 44 39 41 45 
39 41 45 39 41 45 39 41 45 39 41 45 39 41 45 39 41 45 38 40 44 38 39 43 
38 40 44 38 40 44 38 40 44 38 40 44 37 39 43 38 39 43 38 40 44 38 39 43 
38 39 43 37 39 43 36 39 42 36 39 42 37 39 43 38 40 44 38 40 44 38 40 44 
38 39 43 38 39 43 38 39 43 38 40 44 38 40 44 38 40 44 36 37 41 38 40 44 
39 41 45 39 41 45 38 40 44 38 40 44 38 39 43 37 39 43 37 39 43 37 38 42 
37 39 43 36 39 44 36 40 44 37 39 44 38 40 44 38 40 44 37 39 43 38 39 43 
38 40 44 38 40 44 38 40 44 38 40 44 38 40 44 37 40 45 38 40 45 36 40 46 
36 40 46 36 40 45 36 40 46 36 40 46 36 40 46 37 40 45 37 40 45 36 39 45 
37 39 44 37 40 45 37 40 45 37 40 45 37 40 45 37 40 45 38 40 44 38 40 44 
39 40 44 38 40 44 38 40 44 38 40 44 38 40 44 38 40 44 38 40 44 38 40 44 
38 39 43 38 40 44 38 40 44 38 40 44 38 40 44 39 41 45 39 41 45 38 40 44 
36 38 42 37 38 42 39 41 45 39 41 45 39 41 45 38 40 45 37 40 45 36 40 45 
36 40 46 36 40 46 36 40 46 37 41 45 37 41 45 38 41 45 39 41 45 39 41 45 
38 40 45 37 37 44 37 37 44 37 38 43 37 39 42 37 38 42 37 38 42 37 38 42 
37 39 43 38 40 44 38 40 44 37 40 44 36 40 45 35 39 45 37 40 46 38 40 45 
38 40 44 37 39 43 37 38 42 38 39 43 37 40 44 36 39 44 36 39 44 37 40 45 
38 40 45 38 40 45 38 40 45 38 40 45 37 40 44 35 39 44 35 39 45 36 40 46 
36 40 45 36 40 46 37 40 46 38 40 45 38 40 45 38 41 45 39 41 45 39 41 45 
39 41 45 39 41 45 39 41 45 38 40 44 
39 41 45 39 41 45 39 41 45 39 41 45 39 41 45 38 41 45 38 40 44 39 41 45 
39 41 45 39 41 45 39 41 45 39 41 45 39 41 45 39 41 45 39 41 45 39 41 45 
39 41 45 39 41 45 39 41 45 39 41 45 39 41 45 39 41 45 39 41 45 39 41 45 
38 40 44 38 40 44 37 38 42 37 38 42 37 38 42 37 38 42 37 38 42 39 40 44 
39 41 45 39 41 45 39 41 45 39 41 45 39 41 45 38 40 44 37 39 43 38 40 44 
38 40 44 38 40 44 39 40 44 39 40 44 39 41 45 38 40 44 38 39 43 38 40 44 
38 39 43 38 39 43 38 39 43 37 39 43 38 40 44 39 41 45 38 40 44 38 40 44 
38 40 44 38 40 44 39 41 45 38 40 44 38 40 44 38 40 44 38 40 44 38 40 44 
38 40 44 38 40 44 36 39 44 35 39 44 35 39 44 35 39 44 35 39 44 36 39 44 
38 40 44 38 40 44 38 39 43 36 37 41 36 37 41 36 37 41 36 37 41 36 37 41 
36 37 41 36 37 41 37 38 42 36 39 42 35 39 44 35 39 44 35 39 44 35 39 44 
35 39 44 37 40 44 38 40 44 38 40 44 39 41 45 38 40 44 37 39 43 35 39 44 
35 39 44 35 39 44 36 40 44 36 40 44 36 40 44 36 40 44 36 40 44 36 40 44 
36 40 44 35 39 42 34 38 43 34 38 43 35 39 44 35 39 44 35 39 44 36 40 45 
36 40 45 35 39 45 35 39 44 35 39 44 35 39 44 35 39 44 35 39 44 35 39 44 
35 39 44 39 41 45 39 40 44 37 40 44 35 39 44 35 39 44 35 39 44 35 39 44 
35 39 44 35 39 44 35 39 45 36 40 45 38 40 45 38 41 44 38 39 43 37 38 42 
37 38 42 37 39 43 37 39 43 37 39 43 38 40 44 38 40 44 38 40 44 38 40 44 
38 40 44 38 40 44 39 40 44 38 40 44 38 40 44 38 40 44 38 40 44 39 41 45 
39 41 45 39 41 45 39 41 45 39 41 45 39 41 45 39 41 45 39 40 44 38 40 44 
38 40 44 38 40 44 39 41 45 38 40 44 38 40 44 38 40 44 38 39 43 37 38 42 
37 38 42 37 38 42 35 39 44 35 39 44 36 39 44 38 40 44 38 40 44 38 40 44 
38 40 44 38 40 44 38 40 44 38 40 44 38 40 44 38 39 43 37 38 42 38 40 44 
39 41 45 39 41 45 38 40 44 38 40 44 38 40 44 38 40 44 38 39 43 37 38 42 
37 39 44 35 39 44 35 39 44 36 39 44 38 40 44 38 40 44 38 40 44 38 40 44 
38 40 44 38 40 44 38 40 44 38 40 44 38 40 44 38 40 44 39 41 45 37 40 46 
36 40 46 36 40 45 36 40 46 36 40 46 36 40 46 36 40 46 36 40 45 35 39 44 
35 39 45 36 40 46 36 40 46 36 40 45 36 40 45 36 40 45 38 40 44 38 40 44 
39 40 44 39 41 45 38 40 44 38 40 44 39 41 45 39 41 45 39 41 45 38 40 44 
39 40 44 39 41 45 39 41 45 39 40 44 38 40 44 39 41 45 39 41 45 39 41 45 
37 39 43 37 38 42 39 41 45 39 41 45 38 41 45 36 40 46 35 39 44 35 39 44 
36 40 45 36 40 45 36 40 46 36 40 46 36 40 46 38 41 45 39 41 45 39 41 45 
39 41 45 38 39 43 37 39 42 36 38 42 38 39 43 38 40 44 37 39 43 37 39 43 
38 39 43 39 41 45 38 40 44 36 39 44 36 40 46 36 40 46 37 40 46 39 40 44 
38 39 43 38 39 42 38 39 43 38 39 43 37 40 44 35 39 44 35 39 44 38 40 45 
39 41 45 39 40 44 39 40 44 39 41 45 39 41 45 35 39 44 35 39 45 36 39 45 
35 39 44 35 39 45 37 40 46 38 41 45 39 41 45 39 41 45 39 41 45 39 41 45 
39 41 45 39 41 45 39 41 45 39 41 45 
39 41 45 39 41 45 38 40 44 39 41 45 39 41 45 38 40 44 38 39 43 39 40 44 
39 41 45 39 41 45 39 41 45 39 41 45 39 41 45 39 41 45 39 41 45 39 41 45 
39 41 45 39 41 45 39 41 45 39 41 45 39 41 45 39 41 45 39 41 45 38 40 44 
38 40 44 39 41 45 38 39 43 37 39 43 37 38 42 37 38 42 37 38 42 38 39 43 
39 41 45 39 41 45 38 40 44 38 40 44 39 41 45 39 40 44 38 40 44 38 40 44 
38 40 44 38 40 44 39 41 45 39 41 45 39 41 45 38 40 44 36 38 42 37 39 43 
38 40 44 38 40 44 38 40 44 37 40 44 37 40 44 38 41 45 39 41 45 39 41 45 
38 40 44 39 41 45 39 41 45 38 40 44 37 39 43 38 40 44 38 40 44 38 40 44 
38 39 43 37 38 42 35 38 42 33 37 42 34 38 43 34 38 44 35 39 44 36 39 44 
37 40 44 37 40 44 37 40 44 37 38 42 37 38 42 36 38 42 36 37 41 36 37 41 
36 37 41 35 36 40 37 38 42 36 39 44 35 39 44 35 39 44 35 39 44 35 39 44 
35 39 44 37 39 44 38 40 44 39 41 45 39 41 45 39 40 44 36 38 43 35 38 43 
34 38 43 35 39 44 36 40 44 36 40 44 36 40 44 36 40 44 36 40 44 36 40 44 
36 40 44 35 39 43 34 38 43 34 38 43 35 39 44 35 39 44 35 39 44 35 39 44 
35 39 44 35 39 44 35 39 44 35 39 44 34 38 43 34 38 43 34 38 43 34 38 43 
34 38 43 37 40 44 38 40 44 37 40 44 35 39 44 35 39 44 35 39 44 35 39 44 
35 39 44 34 38 44 35 39 44 35 39 44 37 40 44 38 39 43 39 40 44 38 40 44 
38 40 44 38 40 44 38 39 43 38 40 44 38 40 44 38 40 44 38 40 44 38 40 44 
38 40 44 38 40 44 39 40 44 39 41 45 39 41 45 38 40 44 38 40 44 39 41 45 
39 41 45 39 41 45 39 41 45 39 41 45 38 40 44 38 40 44 39 40 44 39 41 45 
39 41 45 39 41 45 39 41 45 38 40 44 39 41 45 39 40 44 38 40 44 37 39 43 
36 37 41 37 39 43 36 39 44 35 39 44 36 40 44 37 39 43 37 40 44 38 40 44 
38 40 44 38 40 44 38 40 44 39 41 45 39 41 45 38 40 44 38 40 44 38 41 45 
38 41 45 39 41 45 38 40 44 38 40 44 38 40 45 38 41 45 38 40 44 37 39 43 
38 40 45 35 39 45 36 40 45 36 40 45 37 40 44 37 40 44 37 40 44 37 40 44 
37 40 44 38 40 44 38 41 45 38 40 44 37 40 44 37 40 44 38 41 45 36 40 46 
36 40 46 36 40 45 36 40 46 36 40 46 35 39 44 35 39 44 35 39 45 34 38 44 
35 39 45 35 39 45 35 39 44 35 39 44 35 39 44 36 39 44 38 39 44 37 40 44 
38 40 44 38 40 45 38 41 45 38 40 44 39 41 45 38 40 44 38 40 44 38 40 44 
39 41 45 39 40 44 39 41 45 39 41 45 38 40 44 39 41 45 39 41 45 38 40 44 
37 38 42 37 38 42 39 41 45 39 41 45 38 41 45 36 40 46 35 39 44 35 39 44 
35 39 44 36 40 45 36 40 45 36 40 45 36 40 45 38 41 45 39 41 45 39 41 45 
39 41 45 39 40 44 38 40 44 38 39 43 39 40 44 39 41 45 38 40 44 38 39 43 
38 40 44 39 41 45 38 40 44 36 38 43 36 39 45 36 40 45 37 40 46 39 40 44 
37 39 42 37 39 42 38 39 44 37 39 44 36 39 44 35 39 44 35 39 44 37 39 44 
38 39 43 38 40 44 38 40 44 39 40 44 38 40 44 35 39 44 35 39 44 35 39 44 
35 39 44 36 39 45 37 40 46 38 41 45 39 41 45 39 41 45 39 41 45 39 41 45 
39 41 45 39 41 45 39 41 45 39 41 45 
39 41 45 39 41 45 38 40 44 38 40 44 38 40 44 38 40 44 38 39 43 39 40 44 
39 41 45 39 41 45 39 41 45 39 41 45 39 41 45 39 41 45 39 41 45 39 41 45 
39 41 45 39 41 45 39 41 45 39 41 45 39 41 45 39 41 45 39 41 45 39 41 45 
38 40 44 38 40 44 38 40 44 38 39 43 37 38 42 37 38 42 37 38 42 37 38 42 
38 40 44 39 41 45 38 40 44 38 40 44 38 40 44 38 40 44 39 40 44 39 41 45 
38 40 44 38 40 44 38 40 44 38 40 44 38 40 44 38 40 44 35 38 43 35 39 43 
36 39 44 36 39 45 36 39 45 36 39 44 36 39 44 36 40 44 37 40 44 38 40 44 
38 40 44 39 41 45 39 41 45 38 40 44 38 39 43 37 38 42 37 38 42 37 38 42 
37 38 42 37 38 42 36 37 42 35 37 41 35 37 41 34 38 43 34 38 43 36 39 44 
36 39 44 36 39 44 36 39 44 38 39 43 38 39 43 38 40 44 37 39 43 37 39 43 
36 37 41 36 37 41 37 38 42 36 39 42 35 39 44 35 39 44 35 39 44 35 39 44 
34 38 44 37 39 44 38 40 44 38 40 44 38 40 44 38 40 44 37 39 43 35 39 43 
34 38 44 34 38 43 35 39 44 35 39 44 36 40 45 36 40 44 34 38 43 35 39 43 
35 39 44 35 39 44 34 38 43 34 38 43 35 39 44 35 39 44 35 39 44 35 39 44 
35 39 44 35 39 44 35 39 44 35 39 44 34 38 43 34 38 43 34 38 43 34 38 43 
34 38 43 35 38 43 35 39 43 36 39 44 34 38 43 35 39 44 35 39 44 35 39 44 
35 39 44 35 39 44 35 39 44 35 39 44 37 39 44 38 40 44 39 41 45 38 40 44 
38 40 44 39 41 45 38 40 44 38 40 44 38 40 44 38 40 44 38 40 44 39 40 44 
38 40 44 37 39 43 38 40 44 39 41 45 39 41 45 39 40 44 37 39 43 39 40 44 
39 41 45 38 40 44 38 40 44 38 40 44 38 40 44 39 40 44 39 41 45 39 40 44 
38 40 44 38 40 44 39 41 45 38 40 44 39 40 44 38 40 44 39 41 45 38 40 44 
37 39 43 37 39 44 35 38 43 35 39 44 35 39 44 35 39 43 35 39 43 37 40 45 
38 40 44 38 40 44 38 40 44 39 41 45 38 40 44 38 40 44 39 40 44 38 40 44 
38 40 44 38 40 44 38 41 45 37 40 45 37 40 45 37 40 46 37 40 46 36 39 44 
36 40 45 35 39 45 36 40 45 36 40 46 36 39 44 36 39 44 36 39 44 36 39 44 
36 39 44 36 40 45 37 40 45 36 40 44 36 39 44 36 39 45 37 40 46 36 40 46 
36 40 46 36 40 46 36 40 46 36 40 46 35 39 44 35 39 44 35 39 45 35 39 44 
35 39 44 35 39 44 35 39 44 35 39 44 35 39 44 35 39 44 36 39 44 36 40 45 
35 39 44 37 39 44 36 40 45 36 39 42 38 40 44 38 39 43 38 40 44 38 40 44 
38 40 44 39 41 45 39 40 44 38 40 44 38 39 43 39 41 45 39 41 45 37 39 43 
36 37 41 36 37 41 38 40 44 39 41 45 38 41 45 36 40 45 36 40 44 36 40 44 
37 40 44 37 40 44 36 40 44 36 39 44 35 39 44 38 40 44 39 41 45 39 41 45 
39 41 45 39 41 45 39 41 45 39 41 45 39 41 45 39 41 45 39 41 45 39 41 45 
39 41 45 39 41 45 38 40 44 37 40 44 35 39 44 35 39 44 37 40 46 39 41 45 
38 40 44 37 39 44 35 39 43 35 39 44 35 39 44 35 39 44 35 39 44 37 39 44 
38 39 43 38 39 43 38 40 44 39 40 44 38 40 44 35 39 44 35 39 44 35 39 44 
37 39 43 38 40 44 38 41 45 39 41 45 39 41 45 39 41 45 39 41 45 39 41 45 
39 41 45 39 41 45 39 41 45 39 41 45 
39 41 45 38 40 44 38 40 44 38 39 43 38 40 44 38 40 44 39 40 44 39 41 45 
39 41 45 39 41 45 39 41 45 39 41 45 39 41 45 39 41 45 39 41 45 39 41 45 
39 41 45 39 41 45 39 41 45 39 41 45 39 41 45 39 41 45 39 41 45 39 41 45 
38 40 44 38 40 44 37 39 43 38 39 43 37 38 42 36 37 41 38 39 43 38 39 43 
38 39 43 39 41 45 39 41 45 38 40 44 38 39 43 38 40 44 38 40 44 38 40 44 
38 40 44 38 40 44 38 40 44 38 40 44 38 40 44 38 40 44 35 39 44 35 39 44 
35 39 45 34 38 44 35 39 43 35 39 44 35 39 44 35 39 44 36 39 44 38 40 44 
38 40 44 38 40 44 38 40 44 39 40 44 38 40 44 38 39 42 38 38 41 37 38 42 
37 38 42 37 38 42 37 38 42 38 38 41 36 38 42 35 38 43 34 38 43 35 39 44 
35 39 44 35 39 44 36 39 44 39 40 44 38 40 44 38 40 44 38 39 43 37 38 42 
36 37 41 37 38 42 37 38 42 35 38 43 34 39 43 34 39 43 34 38 43 35 39 44 
34 38 44 37 40 45 39 41 45 38 40 44 39 40 44 38 40 44 36 38 42 35 39 43 
35 39 44 34 38 43 34 38 43 34 38 44 34 38 43 34 38 43 34 38 43 33 37 42 
34 38 43 34 38 43 34 38 43 34 38 43 34 38 43 34 38 43 35 39 44 35 39 44 
35 39 44 34 38 44 34 38 43 34 38 43 33 38 43 33 38 43 34 38 43 34 38 43 
34 38 43 34 38 43 34 38 43 34 38 43 34 38 43 34 38 43 35 39 44 35 39 44 
35 39 44 35 39 45 36 40 45 36 40 45 37 40 45 38 40 44 38 40 44 38 40 44 
38 40 44 38 40 44 39 41 45 38 40 44 38 40 44 38 40 44 38 40 44 38 40 44 
38 40 44 38 40 44 38 40 44 38 40 44 38 40 44 38 40 44 37 39 43 38 40 44 
38 40 44 39 41 45 38 40 44 38 40 44 38 40 44 38 40 44 39 41 45 39 41 45 
39 41 45 39 41 45 39 41 45 38 40 44 38 40 44 38 40 44 39 40 44 38 40 44 
39 41 45 37 39 43 34 38 43 34 38 43 35 39 44 35 39 44 35 39 44 36 40 44 
38 40 44 38 40 44 38 40 44 38 40 44 37 39 43 37 38 42 38 39 43 37 39 43 
38 39 43 38 40 44 38 40 45 37 40 46 36 40 46 36 40 46 36 40 46 35 39 45 
34 39 43 35 39 44 35 39 45 36 40 46 35 39 44 35 39 44 35 39 44 35 39 44 
35 39 44 35 39 45 36 40 46 36 40 45 36 40 45 35 39 45 35 39 45 36 40 46 
36 40 46 36 40 46 36 40 46 36 40 46 36 40 45 36 40 45 36 40 45 36 40 45 
36 40 45 36 40 45 35 39 45 35 39 44 35 39 44 35 39 44 35 39 44 35 39 45 
34 39 43 35 39 45 35 39 44 36 39 44 39 40 44 39 40 44 38 40 44 38 40 44 
38 39 43 39 40 44 39 40 44 38 40 44 38 40 44 38 40 44 38 40 44 38 39 43 
37 38 42 37 38 42 37 39 43 38 40 44 38 40 44 36 40 44 36 40 44 37 40 44 
38 40 44 38 40 44 37 40 45 35 39 45 36 40 45 38 41 45 39 41 45 39 41 45 
39 41 45 39 41 45 39 41 45 39 41 45 39 41 45 39 41 45 39 41 45 39 41 45 
39 41 45 39 41 45 38 40 44 37 39 43 35 39 43 34 39 43 36 39 45 38 40 44 
37 39 43 36 38 43 34 38 43 34 38 43 35 39 44 35 39 44 35 39 44 37 40 44 
38 40 44 38 39 43 38 40 44 38 40 44 39 41 45 36 39 44 35 39 44 36 40 45 
39 40 44 39 41 45 39 41 45 39 41 45 39 40 44 39 41 45 39 41 45 39 41 45 
38 40 44 38 40 44 39 41 45 39 41 45 
38 40 44 39 40 44 38 40 44 38 40 44 38 40 44 38 40 44 39 40 44 39 41 45 
39 41 45 39 41 45 39 41 45 39 41 45 39 41 45 39 41 45 39 41 45 39 41 45 
39 41 45 39 41 45 39 41 45 39 41 45 39 41 45 39 41 45 39 41 45 39 41 45 
38 40 44 38 40 44 38 40 44 38 40 44 38 39 43 37 39 43 38 40 44 37 39 43 
38 39 43 39 41 45 38 40 44 38 40 44 39 41 45 38 40 44 37 39 44 37 40 44 
37 40 44 37 40 44 37 40 44 37 40 44 37 40 44 37 40 44 36 39 44 35 39 44 
35 39 44 35 39 44 35 39 44 35 39 44 35 39 44 35 39 44 36 40 44 37 40 44 
37 40 44 37 40 44 37 40 44 38 40 44 38 40 44 38 40 44 38 40 44 38 39 43 
37 38 42 37 38 43 37 38 42 37 39 43 37 40 44 36 39 44 35 39 44 35 39 45 
36 40 45 35 39 45 35 39 44 37 40 44 37 40 44 37 40 44 37 38 42 36 37 41 
36 37 41 37 38 42 37 38 42 36 38 43 34 39 43 34 38 43 34 38 43 35 39 44 
35 39 44 36 39 44 37 39 43 37 38 42 37 39 43 37 40 44 36 38 42 35 38 43 
35 39 44 35 39 44 34 38 43 34 38 43 34 38 43 34 38 43 34 38 43 34 38 43 
34 38 43 34 38 43 34 38 43 34 38 43 34 38 41 34 38 43 34 38 44 34 38 44 
34 38 44 34 38 43 33 37 42 33 37 42 34 38 43 34 38 43 35 38 43 34 38 43 
34 38 43 34 38 43 34 38 43 34 38 43 34 38 43 34 38 43 34 38 43 34 38 43 
35 39 44 35 39 44 35 39 44 35 39 44 37 39 44 38 39 43 38 40 44 38 40 44 
38 40 44 38 40 44 38 40 44 38 40 44 38 40 44 38 40 44 38 40 44 38 40 44 
38 40 44 39 41 45 38 40 44 38 40 44 38 39 43 38 40 44 38 40 44 38 40 44 
38 40 44 39 41 45 38 40 44 38 40 44 38 40 44 38 40 44 38 40 44 38 40 44 
38 40 44 38 39 43 38 40 44 37 39 43 38 40 44 37 40 44 38 40 44 38 40 44 
38 40 44 37 39 44 35 38 43 35 39 44 36 39 44 36 39 44 36 39 44 37 40 44 
38 40 44 38 40 44 38 40 44 38 40 44 37 38 42 37 38 43 37 38 43 37 38 43 
37 38 43 37 39 44 37 40 45 37 40 46 36 40 46 36 40 46 36 40 46 35 39 45 
35 39 44 36 39 44 35 39 44 35 39 44 36 39 44 36 39 44 35 39 44 35 39 44 
35 39 44 35 39 45 36 40 46 36 40 46 36 40 46 35 39 45 35 39 44 36 40 46 
36 40 46 36 40 46 36 40 46 36 40 46 36 40 46 36 40 46 36 40 46 36 40 46 
36 40 46 37 40 46 36 40 46 36 40 46 36 39 44 36 40 45 35 39 44 34 38 43 
35 38 43 36 39 45 36 39 44 37 39 44 39 41 45 39 41 45 39 40 44 38 39 43 
38 40 44 38 39 43 38 39 43 38 40 44 38 40 44 38 40 44 38 40 44 38 40 44 
38 40 44 38 40 44 38 40 44 39 40 44 37 40 44 36 40 44 36 40 44 37 40 44 
38 40 44 38 40 44 36 39 44 36 39 45 37 40 46 38 41 45 39 41 45 39 41 45 
39 41 45 39 41 45 39 41 45 39 41 45 39 41 45 39 41 45 39 41 45 39 41 45 
39 41 45 38 41 45 38 40 44 36 39 44 34 38 44 34 38 44 35 38 43 37 38 42 
37 39 43 36 38 43 34 38 43 35 39 44 34 38 43 35 39 44 35 39 44 37 40 44 
38 40 44 38 40 44 38 40 44 37 40 44 39 41 45 36 39 44 35 39 44 37 40 45 
39 41 45 39 41 45 39 41 45 38 39 43 38 39 43 38 40 44 38 41 45 38 41 45 
38 40 44 38 40 44 39 41 45 39 41 45 
38 40 44 39 41 45 38 40 44 38 40 44 38 40 44 38 40 44 39 41 45 39 41 45 
39 41 45 39 41 45 39 41 45 39 41 45 39 41 45 39 41 45 39 41 45 39 41 45 
39 41 45 39 41 45 39 41 45 39 41 45 39 41 45 39 41 45 39 41 45 39 41 45 
38 40 44 38 40 45 38 40 45 38 39 44 37 40 45 35 39 44 36 39 44 36 39 44 
38 39 43 39 41 45 39 41 45 38 40 44 38 40 44 37 40 44 35 39 44 35 39 44 
35 39 44 35 39 44 35 39 44 35 39 44 36 39 45 35 39 44 34 38 43 35 39 45 
35 39 44 35 39 44 35 39 44 35 39 44 35 39 44 35 39 44 35 39 44 35 39 44 
35 39 44 35 39 44 35 39 44 35 38 44 35 38 43 35 39 44 35 38 44 35 38 43 
35 39 44 35 39 44 35 38 43 35 39 44 35 39 44 35 39 44 36 40 45 36 40 46 
36 40 46 35 39 45 35 39 44 35 39 44 35 39 44 36 39 44 38 39 43 37 38 42 
37 38 42 37 38 42 37 38 42 37 38 42 37 38 42 36 38 42 36 38 42 37 38 42 
37 38 42 37 39 43 36 38 42 37 38 42 35 38 43 35 39 44 34 38 43 35 39 42 
35 39 43 35 39 43 34 38 43 33 37 42 34 38 43 34 38 43 34 38 43 35 39 45 
34 38 43 33 38 43 35 38 42 35 37 41 35 36 41 34 38 44 34 38 48 35 38 48 
35 38 44 36 37 42 36 37 41 36 37 41 36 37 41 36 37 41 36 37 41 36 37 41 
36 37 41 34 38 43 34 38 43 34 38 43 34 38 43 34 38 43 34 38 43 33 37 42 
34 38 43 34 38 43 34 38 43 34 38 43 36 38 42 38 39 43 38 40 44 38 40 44 
38 40 44 38 40 44 38 40 44 38 40 44 38 40 44 38 40 44 38 40 44 38 40 44 
37 39 43 38 40 44 38 40 44 38 40 44 39 41 45 39 41 45 38 40 44 38 40 44 
39 41 45 39 41 45 38 40 44 38 40 44 39 41 45 39 40 44 38 40 44 37 39 43 
38 40 44 37 38 42 37 38 42 37 38 42 36 39 44 35 39 44 36 39 44 38 40 44 
38 40 44 38 39 43 37 38 42 37 39 43 38 40 44 38 40 44 38 40 44 38 41 45 
38 40 44 37 39 43 38 39 43 38 40 44 38 40 44 38 38 46 38 36 49 38 36 49 
35 36 48 35 38 48 35 40 47 35 39 45 36 40 45 37 40 46 37 40 45 37 39 43 
38 40 44 38 40 44 37 40 44 37 39 42 38 40 44 37 40 44 36 40 44 35 39 44 
35 39 45 35 39 45 36 40 46 36 40 46 35 39 45 35 39 44 35 39 44 36 40 46 
37 40 46 36 40 45 36 40 46 36 40 46 36 40 46 36 40 46 36 40 46 37 40 46 
38 41 45 39 41 45 39 41 45 38 41 45 38 41 45 38 41 45 37 39 43 35 36 40 
36 37 41 38 41 45 38 41 45 38 40 44 38 40 44 39 41 45 39 41 45 39 41 45 
38 40 44 37 39 43 37 39 43 38 40 44 38 40 44 39 41 45 37 39 43 37 38 42 
38 40 44 38 40 44 37 40 45 38 41 46 37 40 45 38 41 45 38 40 44 38 40 44 
39 41 45 38 40 44 37 39 43 38 40 44 39 41 45 39 41 45 39 41 45 39 41 45 
39 41 45 39 41 45 39 41 45 39 41 45 39 41 45 39 41 45 39 41 45 39 41 45 
38 40 44 36 40 44 36 39 44 36 39 45 35 36 48 35 36 48 37 37 44 37 38 42 
37 39 42 36 38 43 34 38 43 34 38 43 34 38 44 35 38 48 35 40 47 36 39 45 
37 40 46 37 40 46 36 40 46 36 40 45 37 40 46 37 40 46 36 39 45 36 40 45 
39 41 45 39 41 45 38 41 45 36 39 44 35 39 43 35 38 43 35 39 44 36 39 44 
37 40 45 39 41 45 39 41 45 39 41 45 
39 41 45 39 41 45 39 41 45 39 41 45 39 41 45 38 40 44 38 40 44 39 41 45 
39 41 45 39 41 45 39 41 45 39 41 45 39 41 45 39 41 45 39 41 45 39 41 45 
39 41 45 39 41 45 39 41 45 39 41 45 39 41 45 39 41 45 39 41 45 39 41 45 
38 39 43 37 39 44 38 38 46 38 38 49 38 40 47 35 39 44 35 39 44 35 38 43 
37 38 42 38 40 44 38 40 44 38 40 44 38 40 44 36 39 44 35 39 44 35 39 44 
35 39 44 35 39 44 35 39 44 35 39 45 36 40 45 34 38 43 33 38 43 34 38 44 
35 39 44 35 39 44 35 39 44 35 39 44 35 39 44 35 39 44 34 38 44 35 39 44 
35 39 44 34 38 43 34 38 43 34 38 43 34 38 43 34 38 44 34 38 43 34 38 43 
34 38 43 34 38 43 34 38 43 35 39 44 35 39 44 36 40 45 37 40 46 36 39 45 
35 39 45 35 39 45 35 39 44 35 39 44 35 39 44 36 39 44 38 40 44 37 39 43 
37 38 42 36 37 41 36 37 41 37 38 42 37 38 42 37 39 43 37 38 42 37 38 42 
36 37 41 38 39 43 38 40 44 38 41 45 36 40 44 35 39 44 34 38 43 35 39 42 
36 40 42 35 39 43 34 38 43 33 37 42 33 37 42 34 38 43 34 38 43 36 40 45 
35 39 44 34 38 43 35 38 43 37 38 42 36 37 41 35 36 45 34 38 48 34 38 48 
35 38 44 36 37 42 37 38 42 36 37 41 36 37 41 36 37 41 38 38 41 38 38 41 
38 38 41 34 38 43 34 38 43 34 38 43 34 38 43 34 38 43 34 38 43 34 38 43 
34 38 43 34 38 43 34 38 43 34 38 43 35 37 41 37 38 42 37 39 43 38 40 44 
38 40 44 38 40 44 38 40 44 38 40 44 38 40 44 38 40 44 38 40 44 38 40 44 
37 39 43 38 40 44 38 40 44 38 40 44 38 40 44 38 40 44 38 40 44 38 40 44 
38 40 44 38 39 43 38 39 43 39 41 45 38 40 44 37 39 43 38 39 43 38 40 44 
38 40 44 38 40 44 37 38 42 37 39 43 36 39 44 35 39 44 35 39 44 38 41 45 
38 40 44 38 39 43 37 38 42 37 39 43 38 40 44 38 40 44 38 40 44 38 40 44 
38 40 44 38 39 43 37 39 44 37 37 44 38 38 46 38 38 46 38 36 49 35 36 48 
35 36 48 34 38 48 35 38 48 35 39 45 35 39 44 35 38 43 37 39 43 38 40 44 
39 40 44 37 39 43 39 41 45 39 40 44 37 39 43 38 40 44 37 40 44 35 39 45 
35 39 45 36 40 45 36 40 45 35 39 45 35 39 44 35 39 45 35 39 44 34 39 43 
35 39 45 36 40 46 36 40 46 36 40 46 36 40 45 36 40 46 35 39 45 36 40 45 
38 41 45 39 41 45 39 41 45 39 41 45 39 41 45 39 41 45 38 40 44 38 39 43 
38 40 44 39 41 45 39 41 45 38 40 44 38 40 44 39 41 45 39 41 45 39 41 45 
39 41 45 37 39 43 38 39 43 39 41 45 38 40 44 39 41 45 38 40 44 38 40 44 
39 41 45 38 40 44 36 40 45 37 40 46 37 40 46 38 41 45 39 41 45 39 41 45 
39 41 45 38 41 45 38 40 44 39 40 44 39 41 45 39 41 45 39 41 45 39 41 45 
39 41 45 39 41 45 39 41 45 39 41 45 39 41 45 39 41 45 39 41 45 39 41 45 
38 40 45 36 39 45 35 39 44 36 39 46 38 38 49 38 36 49 38 40 47 38 39 43 
38 39 42 36 40 44 35 39 44 35 39 44 35 40 47 35 38 48 35 40 47 36 40 46 
36 40 46 36 40 46 36 40 46 36 40 46 36 40 46 36 39 45 35 39 44 36 39 44 
38 41 45 39 41 45 38 41 45 35 39 44 35 39 44 35 39 45 36 40 45 36 40 45 
37 41 45 39 41 45 39 41 45 39 41 45 
38 39 43 38 39 43 38 39 43 38 39 43 38 39 43 38 40 44 38 40 44 39 41 45 
39 41 45 39 41 45 39 41 45 39 41 45 39 41 45 39 41 45 39 41 45 39 41 45 
39 41 45 39 41 45 39 41 45 39 41 45 39 41 45 39 41 45 39 40 44 38 40 44 
37 38 42 37 38 43 38 36 49 38 38 49 38 38 49 35 38 43 34 38 43 35 38 43 
37 38 42 38 40 44 38 40 44 38 40 44 38 40 44 36 39 44 35 39 44 35 39 44 
35 39 44 36 39 44 36 39 44 35 39 45 35 39 44 34 38 43 34 38 43 34 38 43 
34 38 43 35 39 44 35 39 44 35 39 44 35 39 44 35 39 44 35 39 44 34 38 43 
34 38 43 34 38 41 34 38 43 34 38 43 34 38 43 34 38 41 34 38 43 34 38 43 
34 38 43 34 38 43 34 38 43 35 39 44 34 38 43 35 39 44 35 39 44 34 38 43 
34 38 43 34 38 41 34 38 43 34 38 43 34 38 43 35 38 43 37 38 42 35 36 40 
35 36 40 36 37 41 36 37 41 37 38 42 37 38 42 37 39 43 37 38 42 37 39 43 
38 39 43 38 40 44 37 39 44 37 39 43 36 40 44 35 39 44 35 39 44 35 39 43 
36 40 42 35 39 43 34 38 43 34 38 43 34 38 43 34 38 43 34 38 43 34 38 43 
34 38 43 34 38 43 33 37 42 36 37 41 37 38 42 35 38 44 34 36 45 34 36 45 
35 38 43 36 37 41 35 37 41 36 38 42 36 37 41 36 37 41 35 37 41 35 37 41 
35 37 41 34 38 43 34 38 43 34 38 43 34 38 43 34 38 43 34 38 43 34 38 43 
34 38 43 34 38 43 34 38 43 34 38 43 36 38 42 35 37 41 37 38 42 38 39 44 
37 38 43 37 38 42 37 39 44 38 40 45 38 40 44 38 40 44 38 40 44 38 40 44 
38 40 44 38 40 44 38 40 44 38 40 44 38 40 44 38 40 44 38 40 44 38 40 44 
38 40 44 37 38 42 37 39 43 38 40 44 37 39 43 37 38 42 38 39 43 38 40 44 
38 40 44 38 40 44 37 39 43 37 38 43 36 39 44 35 39 44 35 39 44 38 41 45 
38 40 44 38 39 43 37 38 42 37 39 43 38 40 44 38 39 43 38 40 44 38 40 44 
38 40 44 38 40 44 37 39 44 38 38 46 35 36 45 37 37 44 37 37 44 37 36 43 
35 38 44 34 36 45 34 36 45 35 38 44 34 38 43 33 37 42 36 38 42 39 40 44 
39 40 44 37 38 42 37 39 43 37 38 42 37 38 42 38 40 44 37 40 44 35 39 44 
35 39 45 36 40 46 36 39 44 34 38 43 34 38 43 34 38 43 34 38 44 35 39 44 
35 39 45 36 40 46 36 40 46 36 40 46 36 40 45 37 41 46 35 39 44 36 40 45 
38 41 46 39 41 45 39 41 45 39 41 45 39 41 45 39 41 45 39 41 45 39 41 45 
39 41 45 38 40 44 38 40 44 39 41 45 38 39 43 38 39 43 38 40 44 39 40 44 
39 41 45 38 39 43 36 38 42 37 39 43 37 39 43 38 40 44 39 41 45 39 41 45 
39 41 45 39 41 45 36 40 46 36 40 46 37 40 46 39 41 45 39 41 45 39 41 45 
38 40 44 37 39 43 38 40 44 39 41 45 39 41 45 39 41 45 39 41 45 38 40 44 
39 41 45 39 40 44 39 41 45 39 41 45 39 41 45 39 41 45 39 41 45 39 41 45 
38 40 44 36 39 44 35 39 44 35 38 44 38 38 46 38 36 49 38 40 47 38 40 44 
38 39 43 37 40 44 36 39 44 35 39 44 35 40 47 38 40 49 35 40 47 36 40 46 
36 40 46 36 40 46 36 40 46 36 40 46 36 40 46 35 39 44 35 39 44 35 39 44 
37 40 44 38 40 44 38 40 45 36 40 45 35 39 45 36 40 46 36 40 46 36 40 46 
38 41 45 39 41 45 39 41 45 39 41 45 
38 40 44 38 39 43 37 38 42 37 38 42 37 38 42 38 40 44 39 41 45 39 41 45 
39 41 45 39 41 45 39 41 45 39 41 45 39 41 45 39 41 45 39 41 45 39 41 45 
39 41 45 38 40 44 38 40 44 38 40 44 38 40 44 38 39 43 37 38 42 37 38 42 
37 38 42 37 38 43 38 36 49 38 38 49 38 38 49 38 40 44 38 41 44 38 40 44 
38 40 44 37 39 43 37 39 43 38 40 44 38 40 44 38 40 44 38 40 44 37 39 43 
38 39 43 39 40 44 39 41 45 37 39 43 37 38 42 36 38 42 36 38 42 37 39 43 
37 38 42 37 38 42 37 39 43 37 38 42 37 38 42 38 39 43 37 39 43 37 38 42 
36 37 41 36 37 41 36 37 41 36 37 41 35 36 40 35 36 40 37 38 42 37 38 42 
37 38 42 37 38 42 37 39 43 37 38 42 35 36 40 35 37 41 36 37 41 36 37 41 
36 37 41 35 36 40 36 38 42 37 38 42 37 38 42 37 38 42 36 37 41 35 36 40 
35 36 40 36 37 41 37 38 42 37 38 42 37 38 42 37 38 42 37 38 42 37 39 43 
38 40 44 36 39 44 35 39 44 34 38 43 35 39 44 35 39 44 35 39 44 35 39 44 
35 39 44 35 39 44 34 38 44 34 38 43 34 38 43 34 38 43 34 38 43 34 38 43 
34 38 43 34 38 43 35 38 42 35 36 40 37 38 42 35 38 43 33 37 42 33 37 42 
34 38 44 33 37 43 33 37 42 34 38 43 34 38 43 33 37 42 34 38 43 34 38 43 
34 38 43 34 38 43 34 38 43 35 39 45 35 39 44 34 38 43 34 38 43 34 38 43 
34 38 43 34 38 43 34 38 43 34 38 43 34 38 43 34 38 43 34 38 43 38 38 49 
38 36 49 35 36 48 35 36 48 37 37 44 38 40 44 36 40 44 35 39 44 35 39 44 
35 39 44 35 39 44 35 39 44 35 39 44 35 39 44 35 39 44 35 39 44 35 39 44 
35 39 45 35 39 44 34 38 43 35 38 43 37 38 42 38 40 44 38 40 44 38 40 44 
38 40 44 36 39 44 35 39 44 35 39 44 38 40 44 38 40 44 38 40 44 39 41 45 
38 39 43 38 39 43 37 38 42 38 40 44 38 40 44 38 40 44 38 40 44 38 40 44 
38 40 44 38 40 44 36 39 44 35 39 44 34 38 43 34 38 43 34 38 43 34 38 43 
35 38 43 36 37 42 36 37 42 37 38 42 37 38 42 37 38 42 37 39 43 37 39 43 
39 41 45 38 40 44 37 38 42 35 36 40 36 37 41 37 39 43 38 39 43 37 39 43 
37 38 42 37 39 43 38 40 44 37 38 42 36 38 43 33 37 42 34 38 43 35 39 44 
36 39 45 36 40 46 36 40 46 36 40 46 36 40 45 38 41 45 39 41 45 39 41 45 
38 40 44 38 40 44 39 41 45 39 41 45 39 41 45 39 41 45 39 41 45 39 41 45 
39 41 45 39 41 45 38 39 43 38 40 44 38 39 43 39 40 44 39 41 45 38 40 44 
39 41 45 39 40 44 37 38 42 37 38 42 37 38 42 38 40 44 38 40 44 38 39 43 
39 41 45 39 41 45 39 41 45 39 41 45 39 41 45 39 41 45 39 41 45 39 41 45 
38 40 44 38 39 43 39 40 44 39 41 45 39 41 45 39 41 45 39 41 45 38 40 44 
38 40 44 38 39 43 38 40 44 39 41 45 39 41 45 39 41 45 39 41 45 39 41 45 
37 39 44 35 38 44 36 40 45 35 38 43 38 40 44 39 40 46 37 39 44 35 39 44 
35 39 44 37 39 44 39 41 45 39 41 45 39 41 45 39 41 45 39 40 46 37 40 46 
36 40 46 36 40 46 36 40 46 36 40 46 36 40 46 36 40 46 36 40 46 35 39 45 
36 39 46 35 40 47 38 40 47 38 40 47 38 38 49 38 40 47 36 39 46 36 40 45 
38 41 45 39 41 45 39 41 45 37 40 44 
38 40 44 39 40 44 37 38 42 38 39 43 36 37 41 37 39 43 39 41 45 39 41 45 
39 41 45 39 41 45 39 41 45 39 41 45 39 41 45 39 41 45 39 41 45 39 41 45 
39 41 45 38 40 44 38 40 44 38 40 44 38 40 44 38 40 44 38 39 43 38 39 43 
37 38 42 37 37 42 35 36 48 35 36 48 38 36 46 38 40 45 38 39 43 37 39 43 
37 38 42 36 37 41 37 38 42 38 40 44 38 40 44 38 39 43 38 39 43 37 38 42 
38 39 43 39 40 44 39 40 44 38 40 44 38 39 43 37 38 42 37 38 42 37 38 42 
37 38 42 37 38 42 37 38 42 37 38 42 37 38 42 37 38 42 37 38 42 37 38 42 
36 37 41 37 38 42 37 38 42 37 38 42 37 39 43 38 39 43 37 38 42 37 38 42 
37 38 42 37 39 43 37 38 42 37 38 42 36 37 41 36 37 41 36 37 41 36 37 41 
36 37 41 36 37 41 37 39 43 37 38 42 37 38 42 37 38 42 37 38 42 38 39 43 
37 38 42 37 38 42 37 38 42 37 38 42 37 38 42 37 38 42 37 38 42 37 39 43 
38 40 44 36 39 44 35 39 44 35 39 44 35 39 44 35 39 44 35 39 44 35 39 44 
35 39 44 35 39 44 35 39 44 35 39 44 35 39 44 34 38 43 34 38 43 34 38 43 
34 38 43 35 39 44 36 39 42 37 38 42 37 38 42 36 38 43 34 38 43 34 38 43 
34 38 43 34 38 43 34 38 43 35 39 44 34 38 43 33 38 43 34 38 43 34 38 43 
34 38 43 34 38 43 34 38 43 35 39 44 34 38 43 33 37 42 34 38 43 34 38 43 
34 38 43 35 39 44 34 38 43 34 38 43 34 38 43 33 38 43 33 38 43 35 38 48 
38 36 49 35 36 48 36 35 45 35 35 43 36 38 42 36 39 42 35 39 44 35 39 44 
35 39 44 35 39 44 35 39 44 35 39 44 35 39 44 35 39 44 35 39 44 35 39 44 
35 39 44 35 39 44 34 39 43 36 39 42 38 40 44 38 40 44 38 40 44 38 40 44 
38 40 44 36 39 44 35 39 44 35 39 44 38 40 44 38 40 44 38 40 44 39 40 44 
38 40 44 38 40 44 37 39 43 38 40 44 38 40 44 38 40 44 38 40 44 38 40 44 
37 39 43 38 40 44 37 40 44 35 40 45 36 40 45 36 40 45 35 39 44 35 38 43 
36 39 42 37 39 43 38 39 43 38 40 44 37 39 43 37 38 42 38 39 43 38 40 44 
38 40 44 38 40 44 37 39 43 37 38 42 36 37 41 37 39 43 38 40 44 37 39 43 
37 38 42 38 39 43 38 40 44 37 38 42 35 38 42 33 38 43 34 38 43 35 39 44 
35 39 45 36 40 46 36 40 46 36 40 46 36 40 46 38 41 45 39 41 45 39 40 44 
38 39 43 37 39 43 37 39 43 38 40 44 39 41 45 39 41 45 39 41 45 39 41 45 
39 41 45 39 41 45 38 40 44 39 40 44 38 40 44 38 40 44 38 40 44 38 40 44 
39 41 45 39 41 45 38 39 43 36 38 42 37 38 42 39 40 44 38 40 44 38 40 44 
38 40 44 39 41 45 39 41 45 39 41 45 39 41 45 39 41 45 39 41 45 39 41 45 
39 41 45 39 41 45 39 41 45 39 41 45 39 41 45 39 41 45 39 41 45 39 41 45 
39 41 45 39 41 45 39 41 45 39 41 45 39 41 45 39 41 45 39 41 45 38 40 44 
37 39 44 35 39 44 35 40 45 36 39 44 37 39 42 38 39 43 38 40 45 35 39 44 
35 39 44 37 39 44 39 40 44 39 40 44 39 40 44 39 40 44 39 41 45 37 40 46 
36 40 46 36 40 46 36 40 46 36 40 46 37 40 46 35 39 45 35 39 45 35 39 45 
35 38 48 35 38 48 38 38 49 38 38 49 38 38 49 38 40 47 36 39 46 36 40 45 
37 41 45 39 41 45 39 41 45 37 40 44 
38 40 44 39 41 45 38 40 44 38 40 44 37 38 42 38 39 43 39 41 45 39 41 45 
39 41 45 39 41 45 39 41 45 39 41 45 39 41 45 39 41 45 39 41 45 39 40 44 
39 41 45 38 40 44 38 40 44 38 40 44 38 40 44 38 40 44 38 40 44 38 40 44 
37 39 43 37 38 43 37 37 44 37 37 44 37 37 44 38 39 44 37 38 42 37 38 42 
37 38 42 36 37 41 37 38 42 38 39 43 36 38 42 35 37 41 35 36 40 35 36 40 
37 38 42 37 40 44 37 40 44 38 40 44 37 38 42 37 38 42 37 38 42 37 38 42 
37 38 42 37 38 42 37 38 42 37 38 42 37 38 42 37 38 42 37 38 42 37 38 42 
37 39 43 37 39 43 37 39 43 39 41 45 39 41 45 38 40 44 39 40 44 38 40 44 
37 38 42 36 37 41 37 38 42 37 38 42 36 37 41 36 37 41 36 37 41 36 37 41 
36 37 41 36 37 41 37 39 43 37 38 42 37 38 42 37 38 42 37 39 43 37 38 42 
37 38 42 37 39 43 37 38 42 37 39 43 37 38 42 37 38 42 38 39 43 38 39 43 
37 38 42 33 37 42 34 38 43 35 39 43 35 39 44 36 39 44 35 39 44 35 39 44 
35 39 44 35 39 44 35 39 44 35 39 44 36 39 45 36 39 44 36 39 44 36 39 44 
35 38 43 35 39 44 36 39 42 37 38 42 37 38 42 36 38 43 35 39 43 35 38 43 
35 38 43 35 38 43 33 37 42 35 38 43 35 39 44 35 39 44 35 39 44 34 38 43 
34 38 43 34 38 43 34 38 43 34 38 43 34 38 43 34 38 43 34 38 43 34 38 43 
35 38 43 35 39 44 35 38 43 35 38 43 35 38 43 36 38 43 36 38 43 36 39 46 
38 40 47 38 38 46 38 38 46 36 37 42 36 38 42 36 39 42 35 39 44 36 39 44 
36 39 44 36 39 44 35 39 44 35 39 44 35 39 44 35 39 44 36 39 44 36 39 44 
36 39 44 36 39 44 36 39 44 37 39 44 38 40 44 38 40 44 38 40 44 38 40 44 
38 40 44 36 39 44 36 39 44 36 39 44 38 40 44 38 40 44 38 40 44 37 40 44 
37 40 44 37 40 44 37 40 45 37 40 44 38 40 44 38 40 44 38 40 44 38 40 44 
37 39 43 38 40 44 37 40 45 36 40 46 36 40 46 36 40 45 36 39 44 37 39 44 
37 40 44 38 40 44 38 40 44 38 40 44 37 39 43 37 38 42 38 39 43 38 40 44 
38 40 44 38 40 44 37 39 43 37 39 43 37 39 43 38 40 44 38 40 44 38 40 44 
38 40 44 38 40 45 38 40 45 38 39 44 36 38 43 35 38 43 34 38 43 35 39 44 
36 40 45 38 41 46 36 40 46 36 40 46 36 40 45 38 41 45 39 41 45 38 40 44 
37 38 42 37 38 42 37 38 42 37 39 43 39 40 44 39 41 45 39 41 45 39 41 45 
39 41 45 38 40 44 39 41 45 39 41 45 39 41 45 39 41 45 39 41 45 39 41 45 
38 40 44 39 41 45 38 40 44 37 38 42 37 38 42 38 40 44 39 41 45 38 40 44 
37 39 43 38 39 43 39 41 45 39 41 45 39 41 45 39 41 45 39 41 45 39 41 45 
39 41 45 39 41 45 39 41 45 39 41 45 39 41 45 39 41 45 39 41 45 39 41 45 
39 41 45 39 41 45 39 41 45 38 40 44 38 40 44 39 41 45 39 41 45 38 40 44 
38 40 44 36 40 44 35 39 44 35 38 43 37 38 42 38 39 43 37 40 44 35 39 44 
35 39 44 36 39 44 37 40 44 37 40 44 38 40 45 38 41 45 39 41 45 37 40 46 
37 40 46 37 40 46 37 40 46 36 40 45 36 40 45 36 39 44 36 39 44 35 39 44 
35 38 44 36 39 46 38 40 47 38 40 47 38 38 49 38 40 47 37 40 46 36 40 45 
38 41 45 39 41 45 39 41 45 37 40 44 
38 40 44 39 41 45 39 41 45 38 40 44 37 38 42 38 40 44 39 41 45 39 41 45 
39 41 45 39 41 45 39 41 45 39 41 45 39 41 45 38 40 44 37 39 43 37 38 42 
38 40 44 38 40 44 38 40 44 38 40 44 38 40 44 39 41 45 38 40 44 38 40 44 
37 39 43 37 38 42 37 38 43 37 38 43 37 38 43 37 38 42 37 38 42 37 38 42 
35 37 41 37 38 42 37 38 42 37 39 43 36 38 42 35 37 41 36 37 41 36 38 42 
35 39 44 35 39 44 35 39 44 38 40 44 37 38 42 37 39 43 37 38 42 37 38 42 
37 38 42 37 38 42 37 38 42 37 38 42 37 38 42 37 39 43 37 38 42 37 38 42 
37 38 42 37 38 42 37 38 42 38 40 44 38 40 44 38 40 44 39 41 45 39 41 45 
38 40 44 37 39 43 37 38 42 37 38 42 37 38 42 37 38 42 37 38 42 37 38 42 
36 37 41 37 38 42 38 40 44 37 38 42 36 37 41 37 39 43 37 39 43 36 37 41 
37 38 42 37 38 42 37 38 42 37 39 43 37 38 42 37 38 42 37 39 43 37 39 43 
37 38 42 35 36 40 35 36 40 36 37 41 37 39 43 39 41 45 37 40 44 36 39 44 
35 39 44 35 39 44 35 39 44 35 39 44 36 40 44 38 40 44 38 40 44 38 40 45 
38 39 43 37 38 42 37 38 42 37 38 42 37 38 42 37 38 42 37 38 42 37 38 42 
37 39 43 37 39 43 35 38 42 35 38 43 35 39 44 35 39 44 35 39 44 35 39 44 
35 39 44 35 39 44 35 39 44 34 38 43 34 38 43 34 38 43 35 38 43 37 38 42 
37 38 42 36 37 41 37 38 42 36 37 41 36 37 41 38 39 43 38 40 44 37 39 43 
37 38 42 37 38 42 37 38 42 37 38 42 37 38 42 37 39 43 37 39 43 38 40 44 
38 40 44 38 40 44 37 40 44 35 39 44 35 39 44 36 39 44 38 40 44 38 40 44 
38 40 44 38 40 44 38 40 44 38 40 44 38 40 44 38 40 44 38 40 44 38 40 44 
38 40 44 38 40 44 38 40 44 38 40 44 38 40 44 38 40 44 38 40 44 35 39 44 
35 39 44 35 39 44 35 39 44 35 39 44 36 40 44 38 40 44 38 40 44 38 40 44 
38 40 44 38 40 44 38 40 44 38 40 44 38 40 44 38 40 44 38 40 44 38 40 44 
38 40 44 38 40 44 38 40 44 38 39 43 38 39 43 37 38 42 38 39 43 38 40 44 
38 39 43 37 39 43 38 40 44 39 41 45 38 40 44 37 38 42 38 39 43 38 40 44 
38 40 44 38 40 47 38 38 49 38 38 49 38 38 46 37 38 43 36 38 42 37 39 43 
38 40 44 38 40 44 37 40 46 36 40 46 35 39 44 37 39 44 38 40 44 38 39 43 
37 38 42 37 38 42 36 38 42 37 38 42 38 40 44 38 40 44 38 40 44 38 40 44 
38 40 44 39 41 45 39 41 45 39 41 45 39 41 45 39 41 45 39 41 45 38 40 44 
38 40 44 39 41 45 39 41 45 38 40 44 38 39 43 38 41 45 38 40 44 38 40 44 
38 40 44 38 40 44 39 41 45 39 41 45 39 41 45 39 41 45 39 41 45 39 41 45 
39 41 45 39 41 45 39 41 45 39 41 45 39 41 45 38 40 44 38 40 44 39 41 45 
39 41 45 39 41 45 39 41 45 39 41 45 39 41 45 39 41 45 38 40 44 39 41 45 
39 41 45 38 40 44 37 39 43 36 38 42 38 40 44 38 40 44 36 39 42 35 39 44 
35 39 44 35 39 44 35 39 44 35 39 44 35 39 45 36 40 46 37 40 46 38 41 45 
39 41 45 38 40 44 39 40 44 38 40 44 38 40 44 38 40 44 38 40 44 38 39 43 
38 39 44 38 40 45 39 41 45 38 39 43 38 39 44 39 41 45 38 40 45 38 40 44 
39 41 45 39 41 45 39 41 45 37 40 44 
38 40 44 39 41 45 39 41 45 38 40 44 38 39 43 38 40 44 39 41 45 39 40 44 
38 40 44 39 41 45 39 41 45 38 40 44 38 39 43 37 39 43 37 38 42 37 38 42 
38 40 44 38 39 43 38 39 43 37 39 43 37 39 43 38 40 44 38 40 44 37 39 43 
37 38 42 37 39 42 37 39 42 37 39 42 38 38 41 37 38 42 37 38 42 37 38 42 
36 38 42 36 37 41 36 37 41 37 39 43 37 39 43 36 37 41 36 38 42 37 39 43 
36 40 45 35 40 45 35 39 44 37 39 43 38 39 43 38 39 43 38 39 43 36 37 41 
37 38 42 37 38 42 37 38 42 37 38 42 37 38 42 37 38 42 37 38 42 37 38 42 
37 38 42 37 38 42 37 38 42 38 40 44 38 40 44 38 40 44 39 41 45 38 39 43 
38 39 43 38 39 43 37 39 43 37 38 42 37 38 42 37 38 42 37 38 42 37 38 42 
37 38 42 37 39 43 38 39 43 36 38 42 36 37 41 37 38 42 37 39 43 36 37 41 
36 37 41 36 38 42 37 38 42 37 38 42 37 38 42 37 38 42 37 38 42 37 38 42 
36 38 42 35 36 40 35 36 40 38 38 41 37 38 42 38 39 43 37 38 42 35 38 43 
34 38 43 35 39 44 35 39 44 35 39 44 36 39 44 37 39 43 38 39 43 38 39 43 
38 39 43 36 38 42 37 38 42 37 38 42 37 38 42 37 38 42 36 37 41 35 36 40 
36 37 41 37 38 42 36 38 42 35 39 43 36 40 45 35 39 44 35 39 44 35 39 44 
35 39 44 35 39 44 34 38 43 35 39 44 35 39 44 35 39 44 35 38 43 37 39 43 
37 38 42 36 37 41 37 38 42 37 38 42 36 37 41 37 38 42 38 39 43 37 38 42 
38 38 41 38 38 41 38 38 41 37 38 42 37 38 42 37 38 42 37 38 42 37 38 42 
37 38 42 37 38 42 37 39 43 35 39 44 35 39 44 36 39 44 38 40 44 38 39 43 
38 39 43 38 40 44 38 39 43 37 39 43 37 39 43 38 39 43 38 40 44 38 39 43 
37 39 43 38 39 43 38 40 44 38 40 44 38 40 44 38 40 44 38 40 44 35 39 44 
35 39 44 35 39 44 35 39 45 35 39 44 36 40 44 38 40 44 38 40 44 38 40 44 
39 41 45 38 40 44 39 40 44 39 40 44 38 40 44 38 40 44 38 40 44 38 40 44 
38 40 44 38 40 44 38 40 44 39 41 45 38 40 44 37 39 43 38 39 43 38 39 43 
38 39 43 38 40 44 38 40 44 39 41 45 38 40 44 38 39 43 38 39 43 37 39 43 
37 39 43 38 38 46 38 36 49 38 36 49 37 37 44 37 38 43 36 37 41 37 38 42 
38 40 44 38 40 44 37 39 44 35 39 45 35 39 44 36 38 43 38 40 44 38 39 43 
37 38 42 37 38 42 37 38 42 37 38 42 38 40 44 38 40 44 38 40 44 38 40 44 
38 40 44 38 40 44 39 40 44 39 40 44 39 41 45 38 40 44 38 40 44 38 40 44 
38 40 44 39 41 45 38 40 44 38 40 44 38 40 44 39 41 45 39 40 44 38 40 44 
39 41 45 38 40 44 39 40 44 39 41 45 39 41 45 39 41 45 39 41 45 39 41 45 
39 41 45 39 41 45 39 41 45 39 41 45 39 41 45 39 41 45 39 41 45 39 41 45 
39 41 45 39 41 45 39 41 45 39 41 45 39 41 45 39 41 45 39 41 45 39 41 45 
39 40 44 38 40 44 37 39 43 37 39 43 38 40 44 39 41 45 37 39 43 35 39 44 
35 39 44 35 39 44 35 39 44 35 39 45 36 40 45 36 40 46 36 40 46 38 41 46 
39 41 45 38 40 44 38 40 44 39 41 45 39 41 45 39 41 45 39 41 45 39 41 45 
39 40 44 39 40 44 39 40 44 39 40 44 39 40 44 39 41 45 38 40 44 38 40 44 
39 41 45 38 40 44 39 41 45 37 40 44 
38 39 43 38 39 43 38 39 43 38 40 44 38 40 44 38 40 44 38 40 44 39 40 44 
38 40 44 38 40 44 39 41 45 39 41 45 38 40 44 37 39 43 37 38 42 37 38 42 
39 41 45 38 40 44 38 40 44 38 40 44 38 40 44 38 40 44 38 40 44 37 39 43 
37 38 42 37 39 43 37 39 43 37 38 42 37 38 42 37 38 42 37 38 42 37 39 43 
38 39 43 36 38 42 37 38 42 37 38 42 37 39 43 36 38 42 36 38 42 36 38 43 
36 39 44 36 40 44 35 39 43 36 38 42 37 38 42 37 38 42 36 37 41 35 36 40 
36 37 41 37 38 42 37 38 42 37 38 42 37 38 42 37 38 42 37 38 42 37 38 42 
37 38 42 37 38 42 37 38 42 38 40 44 38 40 44 38 39 43 38 39 43 37 38 42 
37 38 42 37 38 42 37 38 42 37 38 42 37 38 42 37 38 42 36 37 41 36 37 41 
36 37 41 36 37 41 36 37 41 36 37 41 37 38 42 37 38 42 37 38 42 36 37 41 
36 38 42 37 39 43 37 38 42 37 38 42 37 38 42 37 38 42 37 38 42 37 38 42 
37 38 42 36 37 41 35 36 40 37 38 42 37 38 42 36 37 41 35 36 41 33 37 42 
34 38 43 35 39 44 35 39 44 35 39 44 35 39 44 36 39 42 36 38 42 37 39 43 
37 38 42 35 37 41 36 38 42 37 38 42 37 39 43 37 39 43 36 37 41 35 36 40 
36 37 41 37 38 42 37 38 42 35 39 43 35 39 44 35 39 44 35 39 44 35 39 44 
35 39 44 35 39 44 34 38 43 35 39 44 35 39 44 35 39 44 35 38 43 36 38 42 
36 38 42 36 38 42 36 38 43 36 39 42 36 38 43 35 37 41 36 38 42 36 38 43 
36 38 43 36 38 43 36 38 42 36 38 42 36 38 42 36 38 42 36 38 43 37 39 43 
36 39 42 36 38 43 36 38 43 35 39 44 35 39 44 36 39 44 38 40 44 37 39 43 
37 38 42 37 39 43 37 38 42 37 38 42 37 38 42 37 38 42 38 39 43 38 39 43 
37 39 43 37 38 42 37 39 43 38 39 43 38 39 43 38 40 44 38 40 44 36 38 42 
33 37 42 35 38 42 36 39 42 36 39 44 36 39 42 37 39 43 38 39 43 38 39 43 
38 39 43 38 39 43 38 40 45 38 40 45 37 40 46 38 40 45 38 40 44 38 40 44 
38 40 44 38 40 44 38 40 44 38 40 44 38 40 44 37 39 43 38 40 44 38 40 44 
38 40 44 38 40 44 38 40 44 38 40 44 38 39 43 39 41 45 37 39 43 36 37 41 
36 37 41 37 37 44 35 36 48 38 36 46 37 37 44 36 38 43 36 38 43 38 40 44 
39 41 45 38 40 44 36 39 44 35 39 44 34 38 43 35 38 42 36 38 42 36 38 43 
36 37 42 36 38 43 37 39 43 37 39 43 37 39 44 36 39 42 38 40 44 38 40 44 
38 40 44 38 40 44 38 39 44 38 40 45 38 40 45 38 40 44 38 40 44 38 40 44 
38 40 44 38 40 44 38 40 44 38 40 44 38 40 44 38 40 44 38 39 43 38 40 44 
39 41 45 38 40 44 39 40 44 39 41 45 39 41 45 39 41 45 39 41 45 39 41 45 
39 41 45 39 41 45 39 41 45 38 40 44 38 40 44 39 41 45 39 41 45 39 41 45 
39 41 45 39 41 45 38 40 44 38 40 44 39 40 44 39 41 45 39 41 45 39 41 45 
38 41 45 38 40 45 37 40 44 37 39 44 37 39 44 38 40 45 36 38 43 35 39 44 
34 38 43 34 38 43 35 39 45 36 40 46 36 40 45 36 40 46 36 40 46 38 41 45 
39 40 44 39 40 44 37 40 45 37 40 45 38 41 45 39 41 45 39 41 45 39 41 45 
39 41 45 38 40 44 38 40 45 38 40 45 38 41 45 38 41 45 37 40 45 37 40 44 
37 40 44 36 39 42 37 40 45 37 40 44 
37 38 42 37 39 43 38 40 44 38 40 44 37 39 43 38 40 44 38 40 44 39 41 45 
38 40 44 38 40 44 39 41 45 39 41 45 39 41 45 38 40 44 37 38 42 37 38 42 
38 40 44 38 40 44 38 40 44 39 41 45 39 41 45 39 41 45 38 40 44 37 38 42 
38 39 43 37 38 42 37 38 42 37 38 42 37 38 42 37 38 42 37 38 42 37 38 42 
38 40 44 38 40 44 38 39 43 37 38 42 37 38 42 36 38 43 35 38 43 34 38 43 
36 39 42 38 38 41 36 37 41 37 38 42 37 38 42 36 37 41 36 37 41 36 37 41 
36 37 41 36 37 41 36 38 42 37 39 43 37 38 42 37 38 42 37 38 42 37 38 42 
36 37 41 36 37 41 36 37 41 37 38 42 37 38 42 37 38 42 37 38 42 37 38 42 
36 37 41 36 37 41 36 37 41 36 37 41 36 37 41 36 37 41 36 37 41 36 37 41 
36 37 41 37 38 42 36 37 41 35 37 41 37 38 42 37 39 43 37 38 42 36 37 41 
36 37 41 37 38 42 37 38 42 37 38 42 37 38 42 37 38 42 37 38 42 37 38 42 
36 37 41 36 37 41 36 37 41 36 37 41 36 37 41 36 37 41 35 37 41 33 37 42 
34 38 43 35 39 44 35 39 44 35 39 44 35 39 44 35 39 44 34 38 43 35 38 43 
37 38 42 37 39 43 37 38 42 37 38 42 37 39 43 37 38 42 36 37 41 37 38 42 
37 39 43 37 39 43 37 38 42 35 39 43 35 39 44 34 38 44 34 38 44 35 39 44 
35 39 44 35 39 44 35 39 44 34 38 43 35 39 44 35 39 44 34 38 43 34 38 43 
34 38 43 34 38 43 34 38 43 34 38 43 34 38 43 34 38 43 34 38 43 35 39 44 
35 39 44 35 39 45 34 38 44 34 38 43 34 38 43 34 38 43 35 38 44 36 40 45 
35 39 44 35 39 44 35 39 44 35 39 44 35 39 44 36 39 44 38 40 44 37 39 43 
37 38 42 37 38 42 37 38 42 37 38 42 37 38 42 37 38 42 37 38 42 37 38 42 
37 38 42 37 38 42 37 38 42 37 38 42 37 38 42 37 39 43 37 39 43 37 38 42 
35 36 40 36 37 41 36 37 41 36 38 42 37 38 42 37 38 42 37 38 42 37 38 42 
37 38 42 37 38 42 36 39 45 35 38 48 35 38 48 36 39 46 37 39 42 37 38 42 
37 38 42 37 38 42 37 38 42 37 39 43 37 39 43 37 39 43 37 39 43 38 40 44 
38 40 44 38 40 44 38 39 43 38 39 43 38 40 44 38 40 44 37 39 43 36 37 41 
36 37 42 37 37 44 35 36 48 35 36 48 36 39 45 35 38 44 35 39 44 37 40 44 
38 40 44 38 40 44 36 39 44 35 39 44 34 38 43 34 38 43 34 38 43 35 38 43 
34 38 43 34 38 43 34 38 43 34 38 43 34 38 43 35 38 43 38 40 44 39 41 45 
39 40 44 38 40 44 38 39 44 38 39 44 38 38 46 38 40 44 38 40 44 38 40 44 
38 40 44 38 40 44 39 41 45 39 41 45 38 40 44 38 40 44 38 39 43 38 40 44 
37 39 43 37 39 43 39 41 45 39 41 45 39 41 45 39 41 45 39 41 45 39 41 45 
39 41 45 39 41 45 38 40 44 38 40 44 38 40 44 39 41 45 39 41 45 39 41 45 
39 41 45 38 40 44 38 40 44 38 40 44 39 41 45 39 41 45 39 41 45 39 41 45 
39 41 45 37 41 46 36 39 45 34 38 43 35 39 45 36 40 46 35 39 44 35 39 44 
34 38 43 34 38 43 36 40 45 36 40 46 35 39 45 36 40 45 36 40 46 38 41 45 
39 41 45 39 40 44 37 40 46 36 40 46 36 40 46 39 41 45 39 41 45 39 41 45 
39 41 45 39 41 45 38 41 45 36 40 46 36 40 46 36 40 46 36 40 46 36 40 45 
35 39 45 35 38 43 35 39 44 36 40 45 
37 38 42 38 39 43 38 41 45 38 39 43 37 38 42 38 40 44 38 40 44 38 40 44 
39 40 44 39 40 44 39 41 45 39 41 45 39 41 45 39 41 45 38 39 43 38 39 43 
38 39 43 38 40 44 38 40 44 39 41 45 38 40 44 38 40 44 38 39 43 37 38 42 
37 38 42 37 38 42 37 38 42 37 38 42 37 38 42 37 38 42 37 38 42 37 38 42 
38 39 43 38 39 43 38 40 44 38 39 43 37 38 42 36 38 42 34 38 43 35 39 43 
37 38 42 36 37 41 36 37 41 38 39 43 37 38 42 36 37 41 36 37 41 36 37 41 
36 37 41 36 37 41 36 37 41 37 38 42 37 38 42 37 38 42 36 37 41 36 37 41 
36 37 41 36 37 41 36 37 41 35 36 40 35 37 41 37 38 42 37 38 42 37 38 42 
36 38 42 36 37 41 36 37 41 36 37 41 36 37 41 36 37 41 36 37 41 37 38 42 
36 37 41 37 38 42 36 37 41 35 37 41 36 37 41 37 38 42 37 38 42 37 38 42 
36 37 41 36 37 41 37 38 42 37 38 42 36 37 41 36 37 41 37 38 42 37 38 42 
36 37 41 36 37 41 36 37 41 36 37 41 36 37 41 36 37 41 36 38 42 35 38 43 
35 39 44 35 38 44 35 38 44 35 39 44 35 39 44 35 39 44 35 39 44 35 38 43 
35 37 41 38 40 44 37 39 43 36 37 41 36 37 41 36 37 41 36 38 42 37 39 43 
38 40 44 37 39 43 36 37 41 35 38 43 34 38 43 34 38 43 34 38 43 34 38 43 
34 38 43 35 39 44 35 39 44 35 39 44 35 39 44 34 38 43 34 38 43 35 39 44 
34 38 43 34 38 43 34 38 43 34 38 44 34 38 44 34 38 43 34 38 43 35 39 44 
35 39 44 35 39 45 35 39 44 35 39 44 35 39 44 34 38 43 34 38 43 35 39 44 
35 39 44 35 39 44 35 39 44 35 39 44 35 39 44 36 39 44 38 40 44 37 39 43 
37 38 42 37 38 42 37 38 42 37 38 42 37 38 42 37 38 42 36 37 41 36 37 41 
36 37 41 37 38 42 36 37 41 36 37 41 37 38 42 37 38 42 37 38 42 36 37 41 
36 37 41 36 37 41 36 37 41 36 37 41 37 38 42 37 38 42 36 37 41 37 38 42 
37 39 43 37 38 42 35 36 45 34 38 48 34 38 48 35 38 44 36 37 41 36 37 41 
36 37 41 36 37 41 37 38 42 37 38 42 37 38 42 37 38 42 37 38 42 37 38 42 
37 38 42 37 38 42 37 38 42 38 39 43 38 40 44 38 40 44 37 39 43 36 37 41 
36 37 42 37 37 44 38 36 49 38 36 46 35 38 44 35 38 44 35 39 44 37 39 43 
37 39 43 38 40 44 36 39 44 35 39 44 35 39 44 34 38 43 34 38 43 34 38 43 
34 38 43 34 38 43 33 37 43 34 38 43 34 38 43 35 38 43 38 40 44 39 41 45 
38 39 43 38 39 43 37 38 43 37 37 44 38 38 46 37 38 42 38 39 43 38 40 44 
38 40 44 38 40 44 39 41 45 38 40 44 38 39 43 37 39 43 37 38 42 37 38 42 
37 38 42 37 38 42 39 41 45 39 41 45 39 41 45 39 41 45 39 41 45 39 41 45 
39 41 45 38 40 44 38 40 44 38 40 44 38 39 43 38 40 44 39 41 45 39 41 45 
39 41 45 39 41 45 39 41 45 39 41 45 39 41 45 38 40 44 38 40 44 39 41 45 
38 41 45 37 41 46 35 39 45 35 39 44 35 39 44 35 39 45 35 39 44 35 39 44 
34 38 43 34 38 43 36 40 45 36 40 46 36 40 46 36 40 46 36 40 46 38 41 45 
39 41 45 39 41 45 37 40 46 36 40 46 36 40 46 39 41 45 39 41 45 39 41 45 
39 41 45 39 41 45 38 41 45 36 40 46 36 40 46 36 40 46 36 40 46 36 40 46 
35 39 45 35 39 44 35 39 44 36 40 44 
36 37 41 37 38 42 37 39 43 37 38 42 37 38 42 37 39 43 37 39 43 38 39 43 
38 40 44 38 40 44 39 41 45 38 40 44 37 39 43 38 39 43 39 40 44 38 40 44 
38 40 44 38 40 44 38 40 44 38 40 44 38 40 44 38 40 44 38 40 44 38 39 43 
37 39 43 37 38 42 36 38 42 36 37 41 36 37 41 36 37 41 37 38 42 37 38 42 
37 39 43 37 39 43 37 39 43 38 40 44 37 39 43 36 38 42 36 38 43 37 39 44 
37 39 43 37 38 42 37 38 42 37 39 44 35 38 43 35 38 42 36 37 41 36 37 41 
36 37 41 36 37 41 36 37 41 36 37 41 36 37 41 36 37 41 36 37 41 36 37 41 
36 37 41 36 37 41 35 37 41 35 36 40 36 37 41 36 37 41 37 38 42 37 39 43 
37 39 43 36 38 42 36 37 41 36 37 41 36 37 41 36 37 41 36 37 41 36 37 41 
36 37 41 37 38 42 37 38 42 36 37 41 36 37 41 36 37 41 36 37 41 37 38 42 
36 37 41 35 36 40 36 37 41 36 37 41 35 36 40 36 37 41 37 38 42 36 37 41 
36 37 41 37 39 43 37 38 42 36 37 41 36 37 41 36 37 41 37 38 42 36 39 42 
35 39 43 34 38 41 34 38 43 35 39 44 36 40 44 36 40 44 36 40 44 35 39 43 
35 37 41 36 39 42 35 38 42 35 38 42 35 37 41 35 37 41 35 38 43 36 39 42 
36 38 43 36 38 43 35 38 42 33 37 42 34 38 43 34 38 43 34 38 43 34 38 43 
34 38 43 34 38 44 34 38 44 34 38 44 34 38 43 34 38 43 34 38 43 34 38 43 
34 38 43 34 38 43 34 38 43 34 38 43 34 38 43 34 38 43 34 38 43 35 39 44 
35 39 44 34 38 43 34 38 43 35 39 44 35 39 44 35 39 44 34 38 43 35 39 44 
35 39 44 35 39 44 35 39 44 35 39 44 35 39 44 35 39 45 36 39 42 37 38 43 
36 37 42 36 37 41 36 37 41 36 37 41 36 37 41 36 37 41 36 37 41 36 37 41 
36 37 41 36 37 41 36 37 41 35 36 40 35 38 42 35 38 42 34 36 41 35 36 40 
36 37 41 36 37 41 36 37 41 36 37 41 36 37 41 36 37 41 36 37 41 36 38 42 
37 38 42 37 38 42 35 36 45 34 38 48 34 36 45 33 36 42 34 36 41 35 38 42 
35 37 41 33 37 42 35 37 41 35 38 43 35 38 44 35 38 44 37 37 44 37 36 43 
37 37 44 37 38 43 37 38 42 36 38 42 37 39 43 37 39 43 38 39 43 36 37 41 
37 38 42 37 39 44 36 39 46 36 39 46 35 39 45 34 38 43 34 38 43 35 38 43 
36 39 44 36 39 42 35 39 44 35 39 44 34 38 43 34 38 43 35 39 44 34 38 43 
34 38 43 34 38 43 34 38 43 33 37 43 34 38 44 36 39 44 38 40 44 39 40 44 
37 38 43 37 37 44 37 37 44 37 37 44 37 38 43 36 37 41 37 39 43 37 39 43 
37 39 43 36 39 44 37 40 44 37 39 44 36 38 43 36 38 43 36 39 42 36 39 42 
36 38 43 36 38 43 37 40 45 37 40 45 37 40 45 39 41 45 39 41 45 39 41 45 
39 41 45 38 40 44 38 40 44 38 40 44 37 39 43 38 39 43 38 40 44 38 40 44 
39 41 45 39 41 45 38 40 44 39 41 45 39 41 45 38 40 44 38 40 44 39 41 45 
38 41 45 36 40 46 35 39 45 35 39 44 35 39 45 36 40 45 36 40 45 35 39 44 
34 38 43 35 39 44 36 40 44 36 40 45 37 40 45 38 41 45 38 41 45 37 40 45 
37 40 44 37 40 44 36 40 45 36 40 45 36 40 45 37 40 46 37 40 46 37 40 45 
37 40 45 37 40 45 37 40 46 36 40 46 36 40 46 36 40 46 36 40 45 36 40 45 
35 39 45 35 39 44 35 39 44 36 40 44 
37 38 42 38 39 43 37 38 42 37 38 42 37 38 42 37 38 42 37 38 42 38 39 43 
38 40 44 38 40 44 39 41 45 38 40 44 37 39 43 38 39 43 38 39 43 38 40 44 
38 40 44 38 40 44 38 40 44 38 40 44 39 41 45 38 40 44 39 40 44 38 40 44 
38 40 44 38 40 44 36 38 42 36 37 41 36 37 41 36 37 41 37 38 42 37 39 43 
37 38 42 36 38 42 37 38 42 37 39 43 38 40 44 37 39 43 37 38 42 37 39 43 
37 38 42 38 39 43 37 39 43 36 39 45 34 38 44 34 38 43 36 37 41 36 37 41 
36 37 41 36 37 41 36 37 41 36 37 41 36 37 41 36 37 41 36 37 41 36 37 41 
36 37 41 36 37 41 35 36 40 35 36 40 35 36 40 36 37 41 36 37 41 36 37 41 
37 39 43 37 38 42 36 37 41 36 37 41 36 37 41 36 37 41 36 37 41 36 37 41 
37 39 43 37 38 42 37 38 42 36 37 41 36 37 41 36 37 41 36 37 41 36 37 41 
35 36 40 34 36 40 35 37 41 36 37 41 36 37 41 36 37 41 37 38 42 37 38 42 
38 39 43 37 39 43 37 38 42 36 37 41 36 37 41 36 37 41 37 38 42 36 39 42 
36 40 44 35 39 43 35 39 43 36 40 44 36 40 44 36 40 44 36 40 44 36 40 44 
35 39 42 34 38 41 35 39 42 35 39 44 34 38 43 34 38 43 34 38 43 34 38 43 
34 38 43 33 37 42 34 38 43 33 37 42 34 38 43 34 38 43 34 38 43 33 37 43 
33 37 42 34 38 43 35 39 44 34 38 43 34 38 43 34 38 43 35 39 44 34 38 43 
34 38 43 34 38 43 34 38 43 34 38 43 34 38 43 34 38 43 34 38 43 35 39 44 
35 39 44 34 38 43 34 38 43 34 38 43 34 38 43 34 38 43 35 39 44 35 39 45 
35 39 44 35 39 44 35 39 44 35 39 44 35 39 44 35 39 45 35 38 43 37 37 42 
37 37 42 36 37 41 36 37 41 36 37 41 36 37 41 36 37 41 36 37 41 36 37 41 
36 37 41 36 37 41 37 38 42 36 37 41 34 38 41 34 38 43 33 37 42 35 36 40 
35 36 40 36 37 41 36 37 41 36 37 41 36 37 41 36 37 41 36 37 41 36 37 41 
36 37 41 38 38 41 35 36 45 34 38 48 34 36 45 33 36 42 33 37 42 33 38 43 
33 38 43 33 37 42 34 38 44 34 36 45 34 38 48 35 36 48 35 36 48 35 36 48 
38 36 46 37 38 43 38 39 42 37 39 43 37 38 42 37 39 43 38 40 44 37 39 43 
38 39 43 37 40 44 35 39 44 35 39 44 35 39 45 34 38 44 34 38 43 34 38 44 
36 40 45 34 38 43 34 38 43 34 38 43 34 38 43 34 38 43 35 39 44 35 39 44 
34 38 43 34 38 43 34 38 43 34 38 43 35 39 44 37 40 45 38 40 44 38 39 43 
38 39 44 38 36 49 38 36 49 37 37 44 37 38 43 36 37 41 37 38 42 37 39 43 
37 39 43 35 39 43 35 39 44 35 39 44 35 38 43 35 39 44 35 39 44 34 38 44 
35 39 44 34 38 43 35 39 45 36 40 45 36 40 44 39 41 45 39 41 45 39 41 45 
38 40 44 38 40 44 38 40 44 39 41 45 38 40 44 38 40 44 38 40 44 38 40 44 
39 41 45 39 41 45 38 40 44 38 40 44 39 41 45 38 40 44 38 40 44 39 41 45 
38 41 45 37 40 46 35 39 45 36 40 45 36 40 46 36 40 46 36 40 45 35 39 45 
35 39 45 35 39 45 36 40 44 36 40 44 38 40 44 39 41 45 39 41 45 37 40 44 
36 40 44 36 40 44 36 40 44 36 40 44 36 40 44 36 40 46 36 40 46 36 40 46 
35 39 45 35 39 45 36 40 46 36 40 46 37 40 46 37 40 46 36 40 44 36 40 44 
35 39 44 35 39 44 35 39 44 36 40 44 
38 40 44 38 40 44 38 39 43 38 39 43 38 39 43 37 39 43 37 38 42 38 39 43 
39 41 45 39 41 45 39 41 45 39 41 45 38 40 44 39 40 44 39 40 44 38 39 43 
38 40 44 38 40 44 38 40 44 38 40 44 39 41 45 38 40 44 39 40 44 39 40 44 
39 41 45 38 40 44 37 39 43 36 38 42 36 37 41 36 37 41 36 37 41 36 38 42 
36 38 42 37 38 42 37 39 43 38 40 44 38 40 44 38 39 43 37 38 42 37 38 42 
37 38 42 37 38 42 37 38 42 36 39 44 35 39 44 34 38 43 37 39 43 37 38 42 
37 38 42 37 38 42 37 38 42 36 38 42 36 37 41 36 38 42 37 38 42 36 37 41 
37 38 42 36 37 41 36 37 41 36 37 41 36 37 41 36 37 41 36 37 41 36 37 41 
37 39 43 37 38 42 37 39 43 37 38 42 37 38 42 37 38 42 36 38 42 36 37 41 
37 39 43 36 38 42 36 37 41 36 37 41 37 38 42 37 38 42 37 38 42 37 38 42 
36 37 41 35 36 40 35 36 40 35 36 40 36 37 41 36 37 41 37 38 42 37 38 42 
37 38 42 38 39 43 36 38 42 36 37 41 37 38 42 37 38 42 37 38 42 36 39 42 
36 40 44 36 40 44 36 40 44 36 40 44 36 40 44 36 40 44 36 40 44 36 40 44 
35 39 42 34 38 41 34 38 41 34 38 43 34 38 43 34 38 43 34 38 43 34 38 43 
35 39 44 34 38 43 34 38 43 34 38 43 34 38 43 34 38 43 34 38 43 35 38 44 
34 38 43 33 37 42 34 38 43 34 38 43 35 39 44 35 39 44 35 39 44 35 39 44 
33 37 43 34 38 43 34 38 43 34 38 43 34 38 43 34 38 43 34 38 43 35 39 44 
35 39 44 35 39 44 35 39 44 35 39 44 35 39 44 35 39 44 35 39 44 35 39 44 
35 39 44 35 39 44 35 39 44 35 39 44 35 39 44 35 39 45 35 39 44 38 38 44 
38 37 44 37 38 42 36 37 41 36 37 41 36 37 41 37 38 42 36 38 42 36 37 41 
36 37 41 38 38 41 38 39 43 37 38 42 34 38 43 34 38 43 34 38 41 36 37 41 
36 37 41 36 37 41 36 37 41 36 37 41 36 38 42 36 37 41 36 37 41 36 37 41 
36 37 41 36 37 41 35 38 44 35 38 48 34 38 48 34 38 44 34 38 43 33 37 42 
34 38 43 33 37 43 33 37 43 34 36 45 34 38 48 35 38 48 35 36 48 38 36 49 
38 38 46 37 38 43 37 39 43 38 40 45 38 39 43 37 39 43 37 39 43 38 39 43 
38 40 44 37 40 44 35 39 44 35 39 44 35 39 44 35 39 44 35 39 44 35 39 44 
35 39 44 35 39 44 34 38 43 35 39 44 35 39 44 34 38 43 35 38 44 34 38 43 
34 38 43 35 39 44 35 39 44 35 39 44 35 39 44 37 40 45 38 40 44 37 39 42 
37 37 44 38 38 49 38 36 49 38 38 46 37 39 44 37 38 42 37 38 42 38 40 44 
38 41 45 36 40 44 35 39 44 35 39 44 34 38 44 35 39 43 35 39 44 34 38 43 
35 39 44 35 39 44 35 39 44 35 39 44 36 40 44 39 41 45 39 41 45 39 41 45 
38 40 44 37 39 43 38 40 44 39 41 45 39 41 45 39 41 45 38 40 44 39 41 45 
39 41 45 39 41 45 39 41 45 39 41 45 39 41 45 39 41 45 39 41 45 39 41 45 
38 41 45 37 40 46 35 39 45 35 39 45 36 40 46 36 40 46 36 40 46 36 40 46 
36 40 46 36 40 46 36 40 44 36 40 44 38 40 44 39 41 45 39 41 45 37 40 44 
36 40 44 36 40 44 36 40 44 36 40 44 36 40 44 36 40 46 36 40 46 36 40 46 
36 40 46 36 40 46 36 40 46 36 40 46 36 40 46 36 40 46 36 40 44 36 40 44 
36 40 45 36 40 45 36 40 45 37 40 45 
37 39 43 39 41 45 39 41 45 38 40 44 39 40 44 38 40 44 39 40 44 38 40 44 
39 40 44 39 41 45 38 40 44 38 40 44 38 40 44 39 41 45 39 41 45 38 39 43 
38 39 43 38 39 43 38 40 44 38 39 43 38 40 44 38 40 44 38 40 44 38 40 44 
38 40 44 38 40 44 38 40 44 37 38 42 36 37 41 36 37 41 36 37 41 35 37 41 
36 37 41 38 39 43 37 40 44 36 39 44 36 39 44 36 39 44 36 39 44 36 39 44 
36 39 44 36 39 44 36 39 44 35 39 44 35 39 44 35 39 44 36 40 44 36 39 44 
36 39 42 36 39 42 36 39 42 36 38 43 36 38 42 37 38 42 37 39 43 37 38 42 
37 39 43 36 38 42 35 38 42 35 38 43 36 38 42 37 38 42 37 38 42 37 38 42 
37 38 42 37 38 42 37 39 43 37 39 43 37 39 43 37 39 43 36 38 42 36 37 41 
37 38 42 37 38 42 37 38 42 37 38 42 37 39 43 37 38 42 37 38 42 37 38 42 
37 38 42 36 37 41 35 37 41 35 36 40 35 36 40 36 37 41 36 37 41 37 38 42 
37 38 42 37 38 42 36 37 41 35 36 40 36 38 42 36 39 42 35 38 43 35 38 43 
35 39 44 35 39 44 35 39 43 36 40 42 36 40 44 36 40 44 36 40 44 36 40 42 
35 39 42 35 39 42 35 39 42 35 39 42 35 39 42 35 39 43 35 39 42 35 39 43 
35 39 44 34 38 43 34 38 44 34 38 43 34 38 43 34 38 43 34 38 44 35 39 44 
34 38 43 33 37 42 34 38 43 34 38 43 35 39 44 35 39 44 35 39 44 34 38 43 
34 38 43 34 38 43 34 38 43 34 38 43 34 38 43 34 38 43 34 38 43 35 39 44 
35 39 44 35 39 44 36 40 44 36 40 44 35 39 44 35 39 44 35 39 44 35 39 44 
35 39 44 36 40 44 36 40 44 35 39 44 35 39 44 35 39 44 35 39 45 36 38 43 
37 38 43 38 40 44 37 38 42 36 37 41 37 38 42 37 39 43 36 38 42 35 37 41 
36 37 41 36 38 43 36 39 44 36 39 44 34 38 43 34 38 43 34 38 43 37 38 42 
37 38 42 37 38 42 36 38 42 36 38 42 37 38 42 36 38 42 36 37 41 36 38 42 
35 37 41 36 37 41 35 38 43 34 38 44 34 38 44 34 38 43 34 38 43 34 38 43 
34 38 43 34 38 44 33 37 43 33 37 43 35 38 44 35 39 45 36 39 45 36 39 46 
36 39 45 35 38 43 35 39 43 37 39 44 37 40 44 36 39 44 35 38 43 36 39 44 
37 39 44 36 39 44 35 39 44 35 39 44 35 39 44 35 39 45 36 40 46 35 39 44 
35 39 44 35 39 44 36 40 44 37 40 44 36 40 44 35 39 43 34 38 43 33 37 42 
34 38 43 35 39 44 35 39 44 35 39 44 35 39 44 37 40 44 38 40 44 37 38 42 
37 38 43 38 40 47 38 40 47 38 40 45 38 40 44 37 38 42 36 38 43 36 40 45 
37 40 46 36 40 45 35 39 44 35 39 44 36 40 45 36 40 45 37 40 45 35 39 44 
35 39 44 35 39 44 36 40 46 36 40 46 37 40 45 39 41 45 39 41 45 39 41 45 
39 41 45 39 41 45 39 41 45 39 41 45 38 40 44 38 40 44 38 40 44 39 41 45 
38 40 44 38 40 44 39 41 45 39 40 44 38 40 44 38 40 44 38 40 44 38 40 44 
38 40 44 38 40 44 37 39 44 37 40 44 35 39 44 35 39 45 35 39 45 35 39 45 
35 39 45 35 39 44 36 40 44 36 40 44 36 40 44 37 40 44 38 40 44 37 40 44 
36 40 44 36 40 44 35 39 45 35 39 45 35 39 44 35 39 45 35 39 45 36 40 46 
36 40 45 36 40 45 36 40 45 36 40 45 36 40 45 36 40 44 36 40 44 36 40 44 
36 40 44 37 40 45 37 40 45 36 40 44 
37 39 43 39 41 45 39 41 45 38 40 44 38 40 44 38 40 44 38 40 44 38 40 44 
38 40 44 38 40 44 38 40 44 38 39 43 38 40 44 39 41 45 38 39 43 39 40 44 
39 41 45 38 40 44 38 40 44 37 38 42 38 39 43 38 40 44 38 40 44 38 40 44 
38 39 43 38 39 43 38 39 43 38 39 43 38 39 43 36 37 41 36 38 42 36 37 41 
37 38 42 38 39 43 37 40 44 35 39 44 35 39 44 35 39 44 35 39 45 35 39 45 
35 39 44 35 39 44 35 39 44 35 39 44 35 39 44 35 39 44 35 39 44 35 39 44 
35 39 44 34 38 43 34 38 43 35 38 43 37 39 43 37 38 42 37 38 42 38 39 43 
37 39 43 35 38 43 35 39 44 35 39 44 36 39 42 38 39 43 37 38 42 37 38 42 
37 38 42 37 38 42 37 38 42 37 38 42 37 39 43 37 39 43 36 38 42 36 37 41 
37 38 42 38 39 43 38 40 44 37 38 42 36 37 41 37 38 42 37 38 42 37 38 42 
37 38 42 36 37 41 36 37 41 35 36 40 35 36 40 36 37 41 36 37 41 37 38 42 
37 38 42 37 38 42 37 38 42 36 38 42 35 38 43 34 38 43 34 38 43 34 38 43 
33 37 43 34 38 41 35 39 43 36 40 44 36 40 44 36 40 44 36 40 44 36 40 42 
35 39 43 35 39 42 35 39 42 35 39 42 35 39 42 36 40 42 35 39 43 35 39 43 
35 39 44 34 38 43 34 38 43 34 38 43 34 38 43 34 38 43 34 38 44 34 38 44 
34 38 43 33 37 42 35 39 44 35 39 44 34 38 43 35 39 44 34 38 43 34 38 43 
34 38 43 34 38 43 34 38 43 34 38 43 35 39 44 35 39 44 34 38 43 35 39 44 
35 39 44 35 39 44 36 40 44 36 40 44 36 40 44 35 39 43 35 39 44 35 39 44 
36 40 44 36 40 44 36 40 44 35 39 44 35 39 44 35 39 44 35 39 44 34 38 43 
36 38 43 38 40 44 37 39 43 37 39 43 37 38 42 37 38 42 37 38 42 36 37 41 
36 37 41 35 38 43 34 38 43 35 39 44 35 39 44 35 39 44 34 38 43 36 37 41 
36 37 41 37 38 42 37 38 42 36 38 42 37 38 42 37 38 42 37 38 42 36 38 42 
36 38 42 37 38 42 35 38 42 34 38 43 35 39 44 35 39 44 35 39 44 35 39 44 
35 39 44 34 38 43 35 39 44 34 38 43 35 39 44 35 39 44 35 39 44 35 39 44 
34 38 43 33 37 42 34 38 44 35 39 44 35 39 44 35 39 44 35 39 44 35 39 44 
35 39 44 35 39 44 35 39 44 35 39 44 35 39 44 35 39 45 36 40 45 35 39 44 
35 39 44 35 39 45 38 40 44 38 40 44 37 40 44 36 39 45 35 39 44 34 38 43 
34 38 43 35 39 44 35 39 44 35 39 45 35 39 44 37 40 44 38 40 44 37 38 42 
37 39 42 38 40 44 38 40 44 38 39 43 38 39 43 37 39 43 36 39 44 36 39 45 
36 40 45 35 39 45 35 39 45 35 39 45 35 39 45 35 39 45 35 39 45 35 39 44 
35 39 45 35 39 45 36 40 46 36 40 46 37 40 46 39 41 45 39 41 45 39 41 45 
39 41 45 39 41 45 39 41 45 39 41 45 38 40 44 38 40 44 38 40 44 39 41 45 
39 41 45 39 41 45 39 41 45 39 41 45 38 40 44 38 40 44 38 40 44 38 40 44 
38 39 43 38 39 43 38 40 44 37 40 44 35 39 44 35 39 44 35 39 44 35 39 44 
35 39 44 35 39 44 36 40 44 36 40 44 36 40 44 36 40 44 36 40 44 36 40 44 
36 40 44 36 40 44 35 39 45 35 39 45 35 39 44 35 39 45 35 39 45 36 40 46 
36 40 44 36 40 44 36 40 44 36 40 44 36 40 44 36 40 44 36 40 44 36 40 44 
36 40 44 37 41 44 36 40 44 36 40 44 
38 40 44 38 40 44 38 40 44 38 40 44 38 40 44 38 40 44 38 40 44 38 40 44 
39 41 45 39 41 45 39 41 45 39 41 45 39 41 45 39 41 45 38 40 44 38 40 44 
39 41 45 39 41 45 39 41 45 38 40 44 38 40 44 38 40 44 38 40 44 38 40 44 
38 40 44 37 39 43 37 38 42 36 38 42 36 37 41 37 39 43 36 37 41 38 39 43 
38 40 44 38 40 44 36 40 44 35 39 44 35 39 44 35 39 44 35 39 44 35 39 44 
35 39 44 35 39 44 35 39 44 35 39 44 35 39 44 35 39 44 35 39 44 35 39 45 
36 40 46 35 39 44 35 39 44 36 39 44 37 40 44 37 39 43 38 39 43 38 40 44 
38 40 44 36 39 44 35 39 44 35 39 44 37 40 44 38 40 44 37 38 42 38 39 43 
38 40 44 38 39 43 37 38 42 37 38 42 37 39 43 37 38 42 37 39 43 37 39 43 
37 38 42 37 38 42 37 38 42 37 39 43 37 38 42 36 37 41 36 37 41 36 37 41 
36 37 41 36 37 41 36 37 41 36 37 41 37 38 42 37 38 42 37 38 42 37 38 42 
37 39 43 37 39 43 37 38 42 37 38 42 35 38 43 34 38 43 35 39 44 35 39 44 
34 38 43 35 39 43 36 40 44 36 40 44 36 40 44 36 40 44 36 40 44 36 40 44 
36 40 44 35 39 43 35 39 43 35 39 42 35 39 43 35 39 43 36 40 44 36 40 44 
35 39 44 34 38 43 33 37 42 34 38 43 34 38 43 34 38 43 34 38 43 34 38 43 
34 38 43 34 38 43 34 38 43 34 38 43 34 38 43 35 39 44 34 38 44 34 38 44 
34 38 43 34 38 43 34 38 43 34 38 43 34 38 43 34 38 43 34 38 43 34 38 43 
34 38 43 35 39 44 35 40 43 36 40 44 36 40 44 35 39 44 35 39 44 35 39 44 
36 40 44 36 40 44 36 40 44 35 39 44 35 39 44 35 39 44 35 39 44 35 39 44 
36 39 44 38 40 44 38 40 44 38 39 43 37 38 42 37 38 42 37 38 42 37 38 42 
37 38 42 35 38 43 34 38 43 35 39 44 35 39 44 34 39 43 35 39 44 37 39 43 
37 39 43 38 40 44 38 40 44 37 39 43 37 39 43 38 40 44 37 39 43 37 38 42 
37 38 42 38 39 43 37 40 44 35 39 44 35 39 44 35 39 44 35 39 44 35 39 44 
35 39 44 35 39 44 35 39 44 35 39 44 35 39 44 35 39 44 35 39 44 34 38 43 
34 38 43 34 38 43 35 39 44 35 40 45 35 39 44 35 39 44 35 39 44 35 39 44 
35 39 44 35 39 44 35 39 44 35 39 44 35 39 44 35 39 44 35 39 44 35 39 44 
36 39 45 36 40 46 39 41 45 39 41 45 39 41 45 37 40 46 36 40 45 35 39 44 
35 39 44 35 39 44 35 39 44 35 39 44 35 39 44 36 39 44 38 40 44 38 40 44 
38 40 44 38 40 44 38 39 43 37 39 43 37 38 42 37 38 42 36 39 42 35 39 44 
35 39 44 36 40 45 36 40 46 36 40 46 35 39 45 35 39 45 35 39 44 35 39 44 
36 40 46 36 40 46 36 40 46 36 40 46 37 40 46 39 41 45 39 41 45 39 41 45 
39 41 45 39 41 45 39 41 45 39 41 45 39 41 45 38 40 44 38 39 43 39 41 45 
39 41 45 38 40 44 38 39 43 39 40 44 38 40 44 38 40 44 38 40 44 38 40 44 
38 40 44 38 40 44 38 39 43 36 38 42 34 38 43 34 38 43 34 38 43 33 37 42 
34 38 43 35 39 43 36 40 42 36 40 42 36 40 42 35 39 42 34 38 41 35 39 43 
36 40 44 36 40 44 35 39 44 35 39 44 35 39 44 35 39 44 35 39 45 36 40 46 
36 40 44 36 40 44 36 40 44 36 40 44 36 40 44 36 40 44 36 40 44 36 40 44 
37 41 45 36 40 42 36 40 44 36 40 44 
35 38 42 36 40 42 36 40 44 38 40 44 38 40 44 39 41 45 39 41 45 39 41 45 
39 41 45 39 41 45 39 41 45 39 41 45 39 41 45 39 41 45 39 41 45 39 41 45 
39 41 45 39 41 45 39 41 45 38 40 44 38 39 43 38 39 43 37 39 43 37 39 43 
37 38 42 37 38 42 36 37 41 36 37 41 36 37 41 36 37 41 36 37 41 37 39 43 
38 40 44 39 41 45 38 41 45 37 40 44 38 41 45 36 40 44 35 39 44 35 39 44 
36 40 44 37 40 44 37 40 44 37 40 44 37 40 44 37 40 44 36 39 44 35 39 44 
35 39 45 36 40 46 36 40 45 35 39 44 36 40 45 36 39 44 36 39 44 35 39 44 
36 39 44 37 40 44 37 40 44 37 40 44 38 40 44 38 40 44 37 38 42 36 39 42 
36 40 45 37 40 45 37 39 43 37 38 42 38 39 43 37 38 42 36 38 42 37 39 43 
37 38 42 37 38 42 37 39 43 37 39 43 36 37 41 36 37 41 34 38 43 34 38 41 
34 38 43 34 38 43 33 37 42 36 38 43 38 40 44 38 39 43 37 39 43 35 39 43 
34 38 43 36 40 44 36 40 44 36 40 44 36 40 45 35 39 44 35 39 44 35 39 44 
34 38 43 35 39 44 35 39 44 34 38 43 34 38 43 35 39 44 35 39 44 34 38 43 
34 38 43 34 38 43 34 38 43 35 39 44 35 39 44 35 39 44 35 39 44 35 39 45 
35 39 44 34 38 43 34 38 43 34 38 43 34 38 43 34 38 43 34 38 43 34 38 43 
35 38 44 33 37 42 34 38 43 34 38 43 34 38 43 34 38 43 35 38 42 36 38 42 
36 38 42 35 38 43 34 38 43 34 38 43 35 38 42 36 37 41 36 38 42 37 39 43 
36 38 42 36 37 42 35 38 43 35 39 44 35 39 44 35 39 44 35 39 44 35 39 44 
36 40 44 36 40 44 36 40 44 35 39 44 35 39 44 35 39 44 35 39 44 35 39 44 
36 39 44 38 40 44 38 39 43 38 39 43 38 39 43 37 38 42 36 38 42 37 38 42 
37 39 43 35 39 44 35 39 44 35 39 44 35 39 45 35 39 44 34 38 43 36 39 44 
36 39 44 36 40 44 36 40 44 36 40 44 36 39 44 36 39 44 36 39 44 36 39 44 
35 39 44 36 39 44 37 40 44 38 40 45 37 40 44 36 39 44 35 39 44 35 39 44 
35 39 44 35 39 44 35 39 44 35 39 44 34 39 43 35 39 43 36 39 42 36 38 42 
36 38 42 36 38 42 37 39 43 38 40 44 35 39 44 35 39 44 35 39 44 35 39 44 
34 38 44 36 39 44 37 40 44 37 40 44 36 40 45 36 40 45 35 39 44 36 40 46 
36 40 46 36 40 46 37 40 46 37 40 46 37 40 46 36 40 46 36 40 45 35 39 44 
35 39 44 35 39 45 35 39 44 35 39 44 35 39 44 36 39 44 38 40 44 39 41 45 
39 41 45 38 40 44 37 38 42 37 38 42 37 38 42 37 38 42 36 39 44 35 39 45 
35 39 44 36 40 46 36 39 45 36 39 45 35 39 45 35 39 45 34 38 43 35 39 45 
36 40 46 35 39 44 38 41 45 38 41 45 38 41 45 39 41 45 39 41 45 39 41 45 
39 41 45 39 41 45 39 41 45 39 41 45 39 41 45 39 41 45 38 40 44 38 40 44 
38 39 43 36 38 42 38 39 43 38 40 44 38 39 43 37 39 43 38 40 44 38 40 44 
38 40 44 38 40 44 38 39 43 36 37 42 34 38 43 34 38 43 34 38 43 34 38 43 
34 38 43 34 38 43 34 38 43 34 38 43 35 39 43 35 39 43 34 38 41 35 39 43 
36 40 44 36 40 44 35 39 44 34 38 44 34 38 43 34 38 41 35 39 42 36 40 44 
35 39 42 35 39 43 36 40 44 36 40 44 36 40 44 36 40 44 36 40 44 36 40 44 
36 40 44 35 39 42 36 41 44 37 40 44 
